( pcb2gcode 2.5.0 )
( Software-independent Gcode )

G94 ( Inches per minute feed rate. )
G20 ( Units == INCHES. )

G90 ( Absolute coordinates. )
G00 S200 ( RPM spindle speed. )
G64 P0.00040 ( set maximum deviation from commanded toolpath )
G01 F35.43307 ( Feedrate. )


G00 Z0.39370 (Retract to tool change height)
T1
M5      (Spindle stop.)
G04 P1.00000 (Wait for spindle to stop)
(MSG, Change tool bit to mill diameter 0.00787in)
M6      (Tool change.)
M0      (Temporary machine stop.)
M3 ( Spindle on clockwise. )
G04 P1.00000 (Wait for spindle to get up to speed)
G04 P0 ( dwell for no time -- G64 should not smooth over this point )
G00 Z0.07874 ( retract )

G00 X5.93770 Y0.59000 ( rapid move to begin. )
G01 F17.71654
( Mill infeed pass 1/1 )
G01 Z-0.00500
G04 P0 ( dwell for no time -- G64 should not smooth over this point )
G01 F35.43307
G01 X5.93770 Y0.59000
G01 X5.93694 Y0.60546
G01 X5.93467 Y0.62076
G01 X5.93091 Y0.63578
G01 X5.92569 Y0.65034
G01 X5.91908 Y0.66434
G01 X5.91112 Y0.67761
G01 X5.90190 Y0.69004
G01 X5.89151 Y0.70151
G01 X5.88004 Y0.71190
G01 X5.86761 Y0.72112
G01 X5.85434 Y0.72907
G01 X5.84035 Y0.73569
G01 X5.82578 Y0.74090
G01 X5.81077 Y0.74466
G01 X5.79546 Y0.74694
G01 X5.78000 Y0.74769
G01 X5.76454 Y0.74693
G01 X5.74924 Y0.74466
G01 X5.73423 Y0.74090
G01 X5.71966 Y0.73569
G01 X5.70567 Y0.72907
G01 X5.69239 Y0.72111
G01 X5.67996 Y0.71189
G01 X5.66850 Y0.70150
G01 X5.65811 Y0.69004
G01 X5.64889 Y0.67761
G01 X5.64093 Y0.66433
G01 X5.63432 Y0.65034
G01 X5.62910 Y0.63577
G01 X5.62534 Y0.62076
G01 X5.62307 Y0.60546
G01 X5.62231 Y0.59000
G01 X5.62307 Y0.57454
G01 X5.62534 Y0.55924
G01 X5.62910 Y0.54422
G01 X5.63432 Y0.52965
G01 X5.64093 Y0.51567
G01 X5.64889 Y0.50239
G01 X5.65811 Y0.48996
G01 X5.66850 Y0.47850
G01 X5.67996 Y0.46810
G01 X5.69239 Y0.45888
G01 X5.70567 Y0.45093
G01 X5.71966 Y0.44431
G01 X5.73423 Y0.43910
G01 X5.74924 Y0.43534
G01 X5.76454 Y0.43307
G01 X5.78000 Y0.43231
G01 X5.79546 Y0.43306
G01 X5.81077 Y0.43533
G01 X5.82578 Y0.43910
G01 X5.84035 Y0.44431
G01 X5.85434 Y0.45093
G01 X5.86761 Y0.45888
G01 X5.88004 Y0.46810
G01 X5.89151 Y0.47849
G01 X5.90190 Y0.48996
G01 X5.91112 Y0.50239
G01 X5.91908 Y0.51566
G01 X5.92569 Y0.52965
G01 X5.93091 Y0.54422
G01 X5.93467 Y0.55923
G01 X5.93694 Y0.57454
G01 X5.93770 Y0.59000
G01 X5.94163 Y0.59000
G01 X5.94085 Y0.57416
G01 X5.93853 Y0.55847
G01 X5.93467 Y0.54308
G01 X5.92933 Y0.52815
G01 X5.92255 Y0.51381
G01 X5.91439 Y0.50020
G01 X5.90494 Y0.48746
G01 X5.89429 Y0.47571
G01 X5.88254 Y0.46506
G01 X5.86980 Y0.45561
G01 X5.85619 Y0.44745
G01 X5.84186 Y0.44067
G01 X5.82692 Y0.43533
G01 X5.81153 Y0.43147
G01 X5.79584 Y0.42914
G01 X5.78000 Y0.42837
G01 X5.76416 Y0.42914
G01 X5.74847 Y0.43147
G01 X5.73308 Y0.43533
G01 X5.71815 Y0.44067
G01 X5.70381 Y0.44745
G01 X5.69020 Y0.45561
G01 X5.67746 Y0.46506
G01 X5.66571 Y0.47571
G01 X5.65506 Y0.48746
G01 X5.64561 Y0.50020
G01 X5.63746 Y0.51381
G01 X5.63067 Y0.52814
G01 X5.62533 Y0.54308
G01 X5.62148 Y0.55847
G01 X5.61915 Y0.57416
G01 X5.61837 Y0.59000
G01 X5.61915 Y0.60584
G01 X5.62148 Y0.62153
G01 X5.62533 Y0.63692
G01 X5.63067 Y0.65185
G01 X5.63746 Y0.66619
G01 X5.64561 Y0.67980
G01 X5.65506 Y0.69254
G01 X5.66571 Y0.70429
G01 X5.67746 Y0.71494
G01 X5.69020 Y0.72439
G01 X5.70381 Y0.73255
G01 X5.71815 Y0.73933
G01 X5.73308 Y0.74467
G01 X5.74847 Y0.74852
G01 X5.76416 Y0.75085
G01 X5.78000 Y0.75163
G01 X5.79584 Y0.75085
G01 X5.81153 Y0.74852
G01 X5.82692 Y0.74467
G01 X5.84186 Y0.73933
G01 X5.85619 Y0.73255
G01 X5.86980 Y0.72439
G01 X5.88254 Y0.71494
G01 X5.89429 Y0.70429
G01 X5.90494 Y0.69254
G01 X5.91439 Y0.67980
G01 X5.92255 Y0.66619
G01 X5.92933 Y0.65185
G01 X5.93467 Y0.63692
G01 X5.93853 Y0.62153
G01 X5.94085 Y0.60584
G01 X5.94163 Y0.59000
G01 X5.92959 Y0.58961
G01 X5.92664 Y0.56044
G01 X5.91805 Y0.53240
G01 X5.90439 Y0.50688
G01 X5.88605 Y0.48450
G01 X5.86279 Y0.46541
G01 X5.83689 Y0.45165
G01 X5.80881 Y0.44321
G01 X5.78039 Y0.44041
G01 X5.75120 Y0.44321
G01 X5.72240 Y0.45195
G01 X5.69722 Y0.46541
G01 X5.67450 Y0.48395
G01 X5.65561 Y0.50688
G01 X5.64165 Y0.53311
G01 X5.63327 Y0.56081
G01 X5.63041 Y0.58961
G01 X5.63327 Y0.61919
G01 X5.64195 Y0.64760
G01 X5.65561 Y0.67312
G01 X5.67395 Y0.69550
G01 X5.69722 Y0.71459
G01 X5.72311 Y0.72835
G01 X5.75120 Y0.73679
G01 X5.77962 Y0.73959
G01 X5.80881 Y0.73679
G01 X5.83760 Y0.72805
G01 X5.86279 Y0.71459
G01 X5.88550 Y0.69605
G01 X5.90439 Y0.67312
G01 X5.91835 Y0.64689
G01 X5.92679 Y0.61880
G01 X5.92959 Y0.58961
G01 X5.93351 Y0.58923
G01 X5.93059 Y0.56005
G01 X5.92212 Y0.53197
G01 X5.92153 Y0.53054
G01 X5.90767 Y0.50470
G01 X5.88909 Y0.48200
G01 X5.88800 Y0.48091
G01 X5.86593 Y0.46279
G01 X5.86464 Y0.46194
G01 X5.83946 Y0.44847
G01 X5.83803 Y0.44788
G01 X5.81071 Y0.43959
G01 X5.80919 Y0.43929
G01 X5.78000 Y0.43646
G01 X5.75081 Y0.43929
G01 X5.74930 Y0.43959
G01 X5.72124 Y0.44814
G01 X5.69536 Y0.46194
G01 X5.69408 Y0.46279
G01 X5.67143 Y0.48143
G01 X5.65279 Y0.50408
G01 X5.65194 Y0.50536
G01 X5.63848 Y0.53054
G01 X5.63789 Y0.53197
G01 X5.62960 Y0.55929
G01 X5.62929 Y0.56081
G01 X5.62650 Y0.58923
G01 X5.62650 Y0.59077
G01 X5.62941 Y0.61995
G01 X5.63789 Y0.64803
G01 X5.63848 Y0.64946
G01 X5.65194 Y0.67464
G01 X5.65279 Y0.67592
G01 X5.67091 Y0.69800
G01 X5.67200 Y0.69909
G01 X5.69408 Y0.71721
G01 X5.69536 Y0.71806
G01 X5.72124 Y0.73186
G01 X5.74930 Y0.74040
G01 X5.75081 Y0.74071
G01 X5.78000 Y0.74354
G01 X5.80919 Y0.74071
G01 X5.81071 Y0.74040
G01 X5.83803 Y0.73211
G01 X5.83946 Y0.73152
G01 X5.86464 Y0.71806
G01 X5.86593 Y0.71721
G01 X5.88800 Y0.69909
G01 X5.88909 Y0.69800
G01 X5.90721 Y0.67592
G01 X5.90806 Y0.67464
G01 X5.92153 Y0.64946
G01 X5.92212 Y0.64803
G01 X5.93059 Y0.61995
G01 X5.93351 Y0.59077
G01 X5.93351 Y0.58923
G04 P0 ( dwell for no time -- G64 should not smooth over this point )
G00 Z0.07874 ( retract )

G00 X5.54788 Y0.30000 ( rapid move to begin. )
G01 F17.71654
( Mill infeed pass 1/1 )
G01 Z-0.00500
G04 P0 ( dwell for no time -- G64 should not smooth over this point )
G01 F35.43307
G01 X5.54788 Y0.30000
G01 X5.54688 Y0.28947
G01 X5.54658 Y0.28796
G01 X5.54373 Y0.27858
G01 X5.54314 Y0.27715
G01 X5.53852 Y0.26851
G01 X5.53766 Y0.26723
G01 X5.53092 Y0.25908
G01 X5.48205 Y0.21023
G01 X5.47608 Y0.20514
G01 X5.46839 Y0.20031
G01 X5.45887 Y0.19636
G01 X5.45002 Y0.19434
G01 X5.44219 Y0.19372
G01 X5.43288 Y0.19370
G01 X5.43177 Y0.19476
G01 X5.43288 Y0.19370
G01 X5.43283 Y0.01606
G01 X5.43225 Y0.01320
G01 X5.43187 Y0.01195
G01 X5.43128 Y0.01077
G01 X5.42871 Y0.00764
G01 X5.42763 Y0.00660
G01 X5.42637 Y0.00579
G01 X5.42498 Y0.00524
G01 X5.42234 Y0.00446
G01 X5.42012 Y0.00414
G01 X0.44007 Y0.00414
G01 X0.42783 Y0.00494
G01 X0.41676 Y0.00703
G01 X0.40571 Y0.01051
G01 X0.39490 Y0.01544
G01 X0.38505 Y0.02149
G01 X0.37622 Y0.02848
G01 X0.36869 Y0.03598
G01 X0.36150 Y0.04504
G01 X0.35544 Y0.05490
G01 X0.35051 Y0.06571
G01 X0.34703 Y0.07676
G01 X0.34494 Y0.08783
G01 X0.34415 Y0.10007
G01 X0.34416 Y0.31979
G01 X0.34297 Y0.32944
G01 X0.34229 Y0.33276
G01 X0.34213 Y0.33435
G01 X0.34213 Y0.51926
G01 X0.34232 Y0.52099
G01 X0.34302 Y0.52391
G01 X0.34569 Y0.52965
G01 X0.35091 Y0.54422
G01 X0.35467 Y0.55923
G01 X0.35694 Y0.57454
G01 X0.35770 Y0.59000
G01 X0.35694 Y0.60546
G01 X0.35467 Y0.62076
G01 X0.35091 Y0.63578
G01 X0.34569 Y0.65034
G01 X0.34302 Y0.65609
G01 X0.34232 Y0.65901
G01 X0.34213 Y0.66074
G01 X0.34213 Y0.84565
G01 X0.34229 Y0.84724
G01 X0.34297 Y0.85056
G01 X0.34416 Y0.86021
G01 X0.34416 Y2.23979
G01 X0.34297 Y2.24944
G01 X0.34229 Y2.25276
G01 X0.34213 Y2.25435
G01 X0.34213 Y2.43926
G01 X0.34232 Y2.44099
G01 X0.34302 Y2.44391
G01 X0.34569 Y2.44965
G01 X0.35091 Y2.46422
G01 X0.35467 Y2.47923
G01 X0.35694 Y2.49454
G01 X0.35770 Y2.51000
G01 X0.35694 Y2.52546
G01 X0.35467 Y2.54076
G01 X0.35091 Y2.55578
G01 X0.34569 Y2.57035
G01 X0.34302 Y2.57609
G01 X0.34218 Y2.57987
G01 X0.34213 Y2.76565
G01 X0.34229 Y2.76724
G01 X0.34297 Y2.77056
G01 X0.34416 Y2.78021
G01 X0.34417 Y3.00056
G01 X0.34494 Y3.01217
G01 X0.34703 Y3.02324
G01 X0.35051 Y3.03428
G01 X0.35529 Y3.04481
G01 X0.36131 Y3.05470
G01 X0.36849 Y3.06379
G01 X0.37693 Y3.07215
G01 X0.38609 Y3.07923
G01 X0.39602 Y3.08514
G01 X0.40631 Y3.08971
G01 X0.41645 Y3.09289
G01 X0.42782 Y3.09505
G01 X0.43944 Y3.09583
G01 X1.63500 Y3.09585
G01 X1.63688 Y3.09570
G01 X1.63839 Y3.09538
G01 X1.64222 Y3.09346
G01 X1.64402 Y3.09212
G01 X1.66914 Y3.06700
G01 X1.67036 Y3.06556
G01 X1.67120 Y3.06426
G01 X1.67178 Y3.06283
G01 X1.67279 Y3.05910
G01 X1.67288 Y2.76671
G01 X1.67272 Y2.76483
G01 X1.67223 Y2.76283
G01 X1.67048 Y2.75948
G01 X1.66914 Y2.75769
G01 X1.63685 Y2.72540
G01 X1.63487 Y2.72365
G01 X1.63344 Y2.72205
G01 X1.63091 Y2.71859
G01 X1.62975 Y2.71662
G01 X1.62790 Y2.71275
G01 X1.62715 Y2.71060
G01 X1.62609 Y2.70644
G01 X1.62573 Y2.70433
G01 X1.62559 Y2.69688
G01 X1.62567 Y2.46160
G01 X1.62551 Y2.45895
G01 X1.62562 Y2.45681
G01 X1.62630 Y2.45257
G01 X1.62685 Y2.45036
G01 X1.62829 Y2.44632
G01 X1.62928 Y2.44427
G01 X1.63147 Y2.44058
G01 X1.63271 Y2.43883
G01 X1.63787 Y2.43346
G01 X1.66971 Y2.40168
G01 X1.67120 Y2.39958
G01 X1.67178 Y2.39815
G01 X1.67279 Y2.39441
G01 X1.67288 Y2.39326
G01 X1.67273 Y2.39318
G01 X1.67288 Y2.39326
G01 X1.68835 Y2.37779
G01 X1.68825 Y2.37759
G01 X1.68835 Y2.37779
G01 X1.68953 Y2.37776
G01 X1.69197 Y2.37731
G01 X1.69552 Y2.37548
G01 X1.69731 Y2.37414
G01 X1.71460 Y2.35685
G01 X1.71635 Y2.35487
G01 X1.71795 Y2.35344
G01 X1.72141 Y2.35090
G01 X1.72338 Y2.34975
G01 X1.72725 Y2.34791
G01 X1.72940 Y2.34715
G01 X1.73356 Y2.34606
G01 X1.73567 Y2.34576
G01 X1.74312 Y2.34558
G01 X2.20778 Y2.34567
G01 X2.21042 Y2.34549
G01 X2.21256 Y2.34563
G01 X2.21680 Y2.34629
G01 X2.21901 Y2.34683
G01 X2.22304 Y2.34831
G01 X2.22512 Y2.34925
G01 X2.22879 Y2.35147
G01 X2.23056 Y2.35276
G01 X2.23233 Y2.35439
G01 X2.36315 Y2.48523
G01 X2.36513 Y2.48698
G01 X2.36657 Y2.48857
G01 X2.36910 Y2.49204
G01 X2.37025 Y2.49401
G01 X2.37209 Y2.49788
G01 X2.37285 Y2.50003
G01 X2.37392 Y2.50419
G01 X2.37446 Y2.50894
G01 X2.37473 Y2.50997
G01 X2.37692 Y2.51438
G01 X2.38109 Y2.51906
G01 X2.38350 Y2.52123
G01 X2.38464 Y2.52206
G01 X2.38590 Y2.52267
G01 X2.38725 Y2.52304
G01 X2.38822 Y2.52312
G01 X2.38816 Y2.52321
G01 X2.39652 Y2.53157
G01 X2.39714 Y2.53141
G01 X2.39652 Y2.53157
G01 X2.39609 Y2.53265
G01 X2.39385 Y2.54003
G01 X2.39355 Y2.54155
G01 X2.39279 Y2.54923
G01 X2.39279 Y2.55077
G01 X2.39366 Y2.55922
G01 X2.39609 Y2.56735
G01 X2.39668 Y2.56878
G01 X2.40032 Y2.57558
G01 X2.40118 Y2.57687
G01 X2.40659 Y2.58341
G01 X2.41313 Y2.58882
G01 X2.41442 Y2.58968
G01 X2.42122 Y2.59332
G01 X2.42265 Y2.59391
G01 X2.43078 Y2.59634
G01 X2.43923 Y2.59721
G01 X2.44077 Y2.59721
G01 X2.44845 Y2.59645
G01 X2.44997 Y2.59615
G01 X2.45808 Y2.59365
G01 X2.46559 Y2.58968
G01 X2.46687 Y2.58882
G01 X2.47341 Y2.58341
G01 X2.47882 Y2.57687
G01 X2.47968 Y2.57558
G01 X2.48332 Y2.56878
G01 X2.48391 Y2.56735
G01 X2.48634 Y2.55922
G01 X2.48721 Y2.55077
G01 X2.48721 Y2.54923
G01 X2.48634 Y2.54078
G01 X2.48391 Y2.53265
G01 X2.48347 Y2.53159
G01 X2.48281 Y2.53142
G01 X2.48347 Y2.53159
G01 X2.49338 Y2.52168
G01 X2.49482 Y2.52057
G01 X2.49676 Y2.51862
G01 X2.49772 Y2.51747
G01 X2.49844 Y2.51615
G01 X2.49889 Y2.51473
G01 X2.49964 Y2.51093
G01 X2.49893 Y2.50000
G01 X2.49965 Y2.48988
G01 X2.50180 Y2.47997
G01 X2.50536 Y2.47048
G01 X2.50673 Y2.46783
G01 X2.50763 Y2.46456
G01 X2.50788 Y2.46261
G01 X2.50788 Y2.36787
G01 X2.50672 Y2.36672
G01 X2.50788 Y2.36787
G01 X2.72000 Y2.36787
G01 X2.72739 Y2.36715
G01 X2.73377 Y2.36525
G01 X2.73519 Y2.36466
G01 X2.74104 Y2.36149
G01 X2.74678 Y2.35678
G01 X2.84953 Y2.25402
G01 X2.85249 Y2.25227
G01 X2.85727 Y2.24836
G01 X2.85836 Y2.24727
G01 X2.86228 Y2.24249
G01 X2.86313 Y2.24121
G01 X2.86604 Y2.23576
G01 X2.86663 Y2.23434
G01 X2.86843 Y2.22843
G01 X2.86873 Y2.22692
G01 X2.86933 Y2.22077
G01 X2.86933 Y2.21923
G01 X2.86873 Y2.21308
G01 X2.86843 Y2.21157
G01 X2.86637 Y2.20493
G01 X2.86313 Y2.19879
G01 X2.86228 Y2.19751
G01 X2.85836 Y2.19273
G01 X2.85727 Y2.19164
G01 X2.85249 Y2.18772
G01 X2.85121 Y2.18687
G01 X2.84577 Y2.18396
G01 X2.84434 Y2.18337
G01 X2.83843 Y2.18157
G01 X2.83692 Y2.18127
G01 X2.83077 Y2.18067
G01 X2.82923 Y2.18067
G01 X2.82308 Y2.18127
G01 X2.82157 Y2.18157
G01 X2.81566 Y2.18337
G01 X2.81424 Y2.18396
G01 X2.80879 Y2.18687
G01 X2.80751 Y2.18772
G01 X2.80273 Y2.19164
G01 X2.80164 Y2.19273
G01 X2.79773 Y2.19751
G01 X2.79600 Y2.20049
G01 X2.70431 Y2.29212
G01 X2.70444 Y2.29243
G01 X2.70431 Y2.29212
G01 X2.50788 Y2.29212
G01 X2.50672 Y2.29328
G01 X2.50788 Y2.29212
G01 X2.50788 Y2.24702
G01 X2.50754 Y2.24414
G01 X2.50698 Y2.24259
G01 X2.50548 Y2.23980
G01 X2.50448 Y2.23839
G01 X2.23200 Y1.96586
G01 X2.22952 Y1.96396
G01 X2.22784 Y1.96322
G01 X2.22469 Y1.96233
G01 X2.22298 Y1.96212
G01 X1.52720 Y1.96212
G01 X1.52533 Y1.96228
G01 X1.52333 Y1.96277
G01 X1.51998 Y1.96452
G01 X1.51874 Y1.96536
G01 X1.51768 Y1.96642
G01 X1.51684 Y1.96765
G01 X1.51493 Y1.97144
G01 X1.51462 Y1.97291
G01 X1.51458 Y1.97440
G01 X1.51478 Y1.97715
G01 X1.51528 Y1.98007
G01 X1.51528 Y1.99728
G01 X1.51646 Y1.99845
G01 X1.51528 Y1.99728
G01 X1.51134 Y1.99728
G01 X1.51021 Y1.99842
G01 X1.51134 Y1.99728
G01 X1.51134 Y1.98154
G01 X1.51119 Y1.98000
G01 X1.51074 Y1.97852
G01 X1.51001 Y1.97716
G01 X1.50903 Y1.97597
G01 X1.50784 Y1.97499
G01 X1.50648 Y1.97426
G01 X1.50500 Y1.97381
G01 X1.50347 Y1.97366
G01 X1.43654 Y1.97366
G01 X1.43500 Y1.97381
G01 X1.43352 Y1.97426
G01 X1.43216 Y1.97499
G01 X1.43097 Y1.97597
G01 X1.42999 Y1.97716
G01 X1.42926 Y1.97852
G01 X1.42881 Y1.98000
G01 X1.42866 Y1.98154
G01 X1.42866 Y1.99728
G01 X1.42982 Y1.99844
G01 X1.42866 Y1.99728
G01 X1.42473 Y1.99728
G01 X1.42357 Y1.99844
G01 X1.42473 Y1.99728
G01 X1.42471 Y1.98007
G01 X1.42485 Y1.97889
G01 X1.42542 Y1.97675
G01 X1.42550 Y1.97560
G01 X1.42503 Y1.97173
G01 X1.42468 Y1.97028
G01 X1.42406 Y1.96891
G01 X1.42139 Y1.96562
G01 X1.42030 Y1.96459
G01 X1.41905 Y1.96378
G01 X1.41766 Y1.96322
G01 X1.41368 Y1.96218
G01 X1.41232 Y1.96214
G01 X1.40936 Y1.96240
G01 X1.40721 Y1.96320
G01 X1.40480 Y1.96452
G01 X1.40300 Y1.96586
G01 X1.32242 Y2.04645
G01 X1.32120 Y2.04789
G01 X1.32035 Y2.04918
G01 X1.31978 Y2.05061
G01 X1.31876 Y2.05435
G01 X1.31868 Y2.78190
G01 X1.31911 Y2.78500
G01 X1.32125 Y2.79109
G01 X1.32330 Y2.80044
G01 X1.32398 Y2.81000
G01 X1.32330 Y2.81955
G01 X1.32126 Y2.82891
G01 X1.31792 Y2.83789
G01 X1.31333 Y2.84629
G01 X1.30759 Y2.85396
G01 X1.30081 Y2.86073
G01 X1.29314 Y2.86647
G01 X1.28473 Y2.87105
G01 X1.28349 Y2.87156
G01 X1.28102 Y2.87310
G01 X1.27971 Y2.87416
G01 X1.27674 Y2.87712
G01 X1.27685 Y2.87740
G01 X1.27674 Y2.87712
G01 X0.82826 Y2.87712
G01 X0.82814 Y2.87743
G01 X0.82826 Y2.87712
G01 X0.70788 Y2.75674
G01 X0.70758 Y2.75686
G01 X0.70788 Y2.75674
G01 X0.70788 Y1.49620
G01 X0.70772 Y1.49433
G01 X0.70723 Y1.49233
G01 X0.70488 Y1.48803
G01 X0.68916 Y1.47220
G01 X0.68749 Y1.47071
G01 X0.68526 Y1.46770
G01 X0.68332 Y1.46327
G01 X0.68257 Y1.45886
G01 X0.68271 Y1.45662
G01 X0.68271 Y1.27837
G01 X0.68257 Y1.27614
G01 X0.68332 Y1.27172
G01 X0.68526 Y1.26730
G01 X0.68749 Y1.26428
G01 X0.68916 Y1.26280
G01 X0.70414 Y1.24782
G01 X0.70536 Y1.24637
G01 X0.70620 Y1.24508
G01 X0.70678 Y1.24365
G01 X0.70756 Y1.24101
G01 X0.70788 Y1.23880
G01 X0.70788 Y1.05826
G01 X0.70758 Y1.05814
G01 X0.70788 Y1.05826
G01 X1.22326 Y0.54287
G01 X1.22314 Y0.54257
G01 X1.22326 Y0.54287
G01 X3.05134 Y0.54277
G01 X3.05342 Y0.54220
G01 X3.05595 Y0.54112
G01 X3.05726 Y0.54040
G01 X3.05842 Y0.53945
G01 X3.06091 Y0.53602
G01 X3.06163 Y0.53470
G01 X3.06208 Y0.53328
G01 X3.06226 Y0.53179
G01 X3.06227 Y0.52792
G01 X3.06021 Y0.51996
G01 X3.05952 Y0.51206
G01 X3.06021 Y0.50416
G01 X3.06226 Y0.49651
G01 X3.06561 Y0.48932
G01 X3.07016 Y0.48283
G01 X3.07580 Y0.47719
G01 X3.08431 Y0.47099
G01 X3.08513 Y0.47003
G01 X3.08579 Y0.46896
G01 X3.08703 Y0.46650
G01 X3.08757 Y0.46510
G01 X3.08785 Y0.46363
G01 X3.08755 Y0.45940
G01 X3.08725 Y0.45793
G01 X3.08669 Y0.45655
G01 X3.08587 Y0.45530
G01 X3.08339 Y0.45232
G01 X3.07577 Y0.44690
G01 X3.07016 Y0.44130
G01 X3.06561 Y0.43480
G01 X3.06226 Y0.42762
G01 X3.06021 Y0.41996
G01 X3.05952 Y0.41206
G01 X3.06021 Y0.40416
G01 X3.06226 Y0.39651
G01 X3.06561 Y0.38932
G01 X3.07016 Y0.38283
G01 X3.07576 Y0.37722
G01 X3.08226 Y0.37267
G01 X3.08945 Y0.36932
G01 X3.09710 Y0.36727
G01 X3.10500 Y0.36658
G01 X3.11290 Y0.36727
G01 X3.12056 Y0.36932
G01 X3.12774 Y0.37267
G01 X3.13424 Y0.37721
G01 X3.13983 Y0.38283
G01 X3.14260 Y0.38679
G01 X3.14359 Y0.38795
G01 X3.14593 Y0.39005
G01 X3.14702 Y0.39069
G01 X3.14819 Y0.39114
G01 X3.15083 Y0.39191
G01 X3.15305 Y0.39223
G01 X3.35695 Y0.39223
G01 X3.35847 Y0.39208
G01 X3.36153 Y0.39138
G01 X3.36268 Y0.39085
G01 X3.36372 Y0.39014
G01 X3.36669 Y0.38766
G01 X3.37016 Y0.38283
G01 X3.37576 Y0.37722
G01 X3.38226 Y0.37267
G01 X3.38945 Y0.36932
G01 X3.39710 Y0.36727
G01 X3.40500 Y0.36658
G01 X3.41290 Y0.36727
G01 X3.42056 Y0.36932
G01 X3.42774 Y0.37267
G01 X3.43424 Y0.37722
G01 X3.43984 Y0.38283
G01 X3.44438 Y0.38933
G01 X3.44775 Y0.39650
G01 X3.44979 Y0.40416
G01 X3.45048 Y0.41206
G01 X3.44979 Y0.41996
G01 X3.44774 Y0.42762
G01 X3.44439 Y0.43480
G01 X3.43984 Y0.44130
G01 X3.43420 Y0.44693
G01 X3.42666 Y0.45232
G01 X3.42570 Y0.45313
G01 X3.42487 Y0.45409
G01 X3.42297 Y0.45762
G01 X3.42243 Y0.45902
G01 X3.42216 Y0.46049
G01 X3.42217 Y0.46199
G01 X3.42275 Y0.46619
G01 X3.42332 Y0.46758
G01 X3.42413 Y0.46883
G01 X3.42661 Y0.47180
G01 X3.43424 Y0.47722
G01 X3.43984 Y0.48283
G01 X3.44439 Y0.48932
G01 X3.44774 Y0.49651
G01 X3.44979 Y0.50416
G01 X3.45048 Y0.51206
G01 X3.44979 Y0.51997
G01 X3.44762 Y0.52845
G01 X3.44764 Y0.53054
G01 X3.44838 Y0.53472
G01 X3.44900 Y0.53608
G01 X3.44987 Y0.53730
G01 X3.45262 Y0.54028
G01 X3.45541 Y0.54178
G01 X3.45805 Y0.54256
G01 X3.45975 Y0.54284
G01 X4.25134 Y0.54277
G01 X4.25342 Y0.54220
G01 X4.25595 Y0.54112
G01 X4.25726 Y0.54040
G01 X4.25842 Y0.53945
G01 X4.26091 Y0.53602
G01 X4.26163 Y0.53470
G01 X4.26208 Y0.53328
G01 X4.26226 Y0.53179
G01 X4.26227 Y0.52792
G01 X4.26021 Y0.51996
G01 X4.25952 Y0.51206
G01 X4.26021 Y0.50416
G01 X4.26226 Y0.49651
G01 X4.26561 Y0.48932
G01 X4.27016 Y0.48283
G01 X4.27580 Y0.47720
G01 X4.28336 Y0.47179
G01 X4.28432 Y0.47098
G01 X4.28515 Y0.47002
G01 X4.28705 Y0.46649
G01 X4.28759 Y0.46509
G01 X4.28786 Y0.46362
G01 X4.28757 Y0.45939
G01 X4.28727 Y0.45792
G01 X4.28626 Y0.45586
G01 X4.28537 Y0.45571
G01 X4.28626 Y0.45586
G01 X4.29121 Y0.45091
G01 X4.29105 Y0.45031
G01 X4.29121 Y0.45091
G01 X4.29619 Y0.45242
G01 X4.29770 Y0.45272
G01 X4.30423 Y0.45336
G01 X4.30577 Y0.45336
G01 X4.31230 Y0.45272
G01 X4.31381 Y0.45242
G01 X4.31879 Y0.45091
G01 X4.31895 Y0.45031
G01 X4.31879 Y0.45091
G01 X4.32381 Y0.45593
G01 X4.32453 Y0.45577
G01 X4.32381 Y0.45593
G01 X4.32241 Y0.45901
G01 X4.32214 Y0.46048
G01 X4.32244 Y0.46471
G01 X4.32273 Y0.46618
G01 X4.32330 Y0.46756
G01 X4.32412 Y0.46882
G01 X4.32660 Y0.47179
G01 X4.33424 Y0.47722
G01 X4.33983 Y0.48284
G01 X4.34260 Y0.48679
G01 X4.34495 Y0.48926
G01 X4.34593 Y0.49006
G01 X4.34702 Y0.49069
G01 X4.35193 Y0.49215
G01 X4.55695 Y0.49223
G01 X4.56032 Y0.49172
G01 X4.56153 Y0.49138
G01 X4.56268 Y0.49085
G01 X4.56669 Y0.48766
G01 X4.57016 Y0.48283
G01 X4.57580 Y0.47719
G01 X4.58432 Y0.47098
G01 X4.58515 Y0.47002
G01 X4.58580 Y0.46894
G01 X4.58705 Y0.46649
G01 X4.58759 Y0.46509
G01 X4.58786 Y0.46362
G01 X4.58757 Y0.45939
G01 X4.58727 Y0.45792
G01 X4.58670 Y0.45654
G01 X4.58589 Y0.45528
G01 X4.58340 Y0.45231
G01 X4.57578 Y0.44689
G01 X4.57017 Y0.44129
G01 X4.56563 Y0.43479
G01 X4.56331 Y0.42978
G01 X4.56045 Y0.42796
G01 X4.56331 Y0.42978
G01 X4.56778 Y0.42978
G01 X4.56811 Y0.42923
G01 X4.56778 Y0.42978
G01 X4.57063 Y0.43503
G01 X4.57525 Y0.44072
G01 X4.57634 Y0.44181
G01 X4.58141 Y0.44597
G01 X4.58270 Y0.44683
G01 X4.58848 Y0.44992
G01 X4.58991 Y0.45051
G01 X4.59619 Y0.45242
G01 X4.59770 Y0.45272
G01 X4.60423 Y0.45336
G01 X4.60577 Y0.45336
G01 X4.61230 Y0.45272
G01 X4.61382 Y0.45242
G01 X4.62009 Y0.45051
G01 X4.62152 Y0.44992
G01 X4.62730 Y0.44683
G01 X4.62859 Y0.44597
G01 X4.63366 Y0.44181
G01 X4.63475 Y0.44072
G01 X4.63937 Y0.43503
G01 X4.64222 Y0.42978
G01 X4.64189 Y0.42923
G01 X4.64222 Y0.42978
G01 X4.64670 Y0.42978
G01 X4.64956 Y0.42796
G01 X4.64670 Y0.42978
G01 X4.64437 Y0.43479
G01 X4.63983 Y0.44129
G01 X4.63419 Y0.44691
G01 X4.62664 Y0.45231
G01 X4.62568 Y0.45312
G01 X4.62486 Y0.45408
G01 X4.62296 Y0.45761
G01 X4.62241 Y0.45901
G01 X4.62214 Y0.46048
G01 X4.62215 Y0.46198
G01 X4.62273 Y0.46618
G01 X4.62330 Y0.46756
G01 X4.62412 Y0.46882
G01 X4.62660 Y0.47179
G01 X4.63424 Y0.47722
G01 X4.63984 Y0.48283
G01 X4.64439 Y0.48932
G01 X4.64774 Y0.49651
G01 X4.64979 Y0.50416
G01 X4.65048 Y0.51206
G01 X4.64979 Y0.51997
G01 X4.64762 Y0.52845
G01 X4.64764 Y0.53054
G01 X4.64803 Y0.53327
G01 X4.64838 Y0.53472
G01 X4.64900 Y0.53608
G01 X4.64987 Y0.53730
G01 X4.65262 Y0.54028
G01 X4.65535 Y0.54176
G01 X4.65805 Y0.54256
G01 X4.66026 Y0.54287
G01 X5.07382 Y0.54283
G01 X5.07598 Y0.54248
G01 X5.07779 Y0.54180
G01 X5.08020 Y0.54048
G01 X5.08200 Y0.53914
G01 X5.27326 Y0.34787
G01 X5.27314 Y0.34758
G01 X5.27326 Y0.34787
G01 X5.33298 Y0.34787
G01 X5.33486 Y0.34772
G01 X5.33716 Y0.34707
G01 X5.34020 Y0.34548
G01 X5.34200 Y0.34414
G01 X5.34710 Y0.33897
G01 X5.34872 Y0.33654
G01 X5.34959 Y0.33459
G01 X5.34994 Y0.33285
G01 X5.35011 Y0.32861
G01 X5.34979 Y0.32714
G01 X5.34788 Y0.32335
G01 X5.34704 Y0.32211
G01 X5.34598 Y0.32105
G01 X5.34475 Y0.32022
G01 X5.34131 Y0.31843
G01 X5.33031 Y0.31596
G01 X5.32134 Y0.31261
G01 X5.31610 Y0.30975
G01 X5.31349 Y0.31012
G01 X5.31610 Y0.30975
G01 X5.31919 Y0.30665
G01 X5.31905 Y0.30573
G01 X5.31919 Y0.30665
G01 X5.32441 Y0.30944
G01 X5.32584 Y0.31003
G01 X5.33617 Y0.31317
G01 X5.33769 Y0.31347
G01 X5.34921 Y0.31457
G01 X5.36074 Y0.31347
G01 X5.36225 Y0.31317
G01 X5.37259 Y0.31003
G01 X5.37400 Y0.30940
G01 X5.41760 Y0.30945
G01 X5.41773 Y0.30915
G01 X5.41760 Y0.30945
G01 X5.43213 Y0.32397
G01 X5.43243 Y0.32385
G01 X5.43213 Y0.32397
G01 X5.43213 Y0.67370
G01 X5.43328 Y0.67485
G01 X5.43213 Y0.67370
G01 X5.37478 Y0.67375
G01 X5.37338 Y0.67312
G01 X5.36304 Y0.66998
G01 X5.36153 Y0.66968
G01 X5.35000 Y0.66858
G01 X5.33848 Y0.66968
G01 X5.33696 Y0.66998
G01 X5.32662 Y0.67312
G01 X5.32520 Y0.67371
G01 X5.31567 Y0.67880
G01 X5.31438 Y0.67966
G01 X5.30603 Y0.68651
G01 X5.30494 Y0.68761
G01 X5.29809 Y0.69596
G01 X5.29723 Y0.69724
G01 X5.29213 Y0.70677
G01 X5.29154 Y0.70820
G01 X5.28841 Y0.71854
G01 X5.28811 Y0.72005
G01 X5.28701 Y0.73157
G01 X5.28811 Y0.74310
G01 X5.28841 Y0.74461
G01 X5.29154 Y0.75495
G01 X5.29213 Y0.75638
G01 X5.29723 Y0.76591
G01 X5.29809 Y0.76719
G01 X5.30494 Y0.77554
G01 X5.30603 Y0.77663
G01 X5.31438 Y0.78349
G01 X5.31567 Y0.78435
G01 X5.32520 Y0.78944
G01 X5.32662 Y0.79003
G01 X5.33696 Y0.79317
G01 X5.33848 Y0.79347
G01 X5.35000 Y0.79457
G01 X5.36153 Y0.79347
G01 X5.36304 Y0.79317
G01 X5.37338 Y0.79003
G01 X5.37478 Y0.78940
G01 X5.43213 Y0.78945
G01 X5.43328 Y0.78829
G01 X5.43213 Y0.78945
G01 X5.43213 Y1.15370
G01 X5.43328 Y1.15485
G01 X5.43213 Y1.15370
G01 X5.37399 Y1.15375
G01 X5.37259 Y1.15312
G01 X5.36225 Y1.14998
G01 X5.36074 Y1.14968
G01 X5.34921 Y1.14858
G01 X5.33769 Y1.14968
G01 X5.33617 Y1.14998
G01 X5.32511 Y1.15338
G01 X5.31488 Y1.15880
G01 X5.31360 Y1.15966
G01 X5.30524 Y1.16651
G01 X5.30415 Y1.16761
G01 X5.29730 Y1.17596
G01 X5.29644 Y1.17724
G01 X5.29102 Y1.18747
G01 X5.28762 Y1.19854
G01 X5.28732 Y1.20005
G01 X5.28626 Y1.21080
G01 X5.28626 Y1.21235
G01 X5.28741 Y1.22370
G01 X5.29076 Y1.23495
G01 X5.29135 Y1.23638
G01 X5.29644 Y1.24591
G01 X5.29730 Y1.24719
G01 X5.30489 Y1.25632
G01 X5.31360 Y1.26349
G01 X5.31488 Y1.26435
G01 X5.32511 Y1.26977
G01 X5.33617 Y1.27317
G01 X5.33769 Y1.27347
G01 X5.34921 Y1.27457
G01 X5.36074 Y1.27347
G01 X5.36225 Y1.27317
G01 X5.37259 Y1.27003
G01 X5.37400 Y1.26940
G01 X5.43213 Y1.26945
G01 X5.43328 Y1.26829
G01 X5.43213 Y1.26945
G01 X5.43213 Y1.52681
G01 X5.43243 Y1.52694
G01 X5.43213 Y1.52681
G01 X5.32584 Y1.63316
G01 X5.32441 Y1.63371
G01 X5.31488 Y1.63880
G01 X5.31360 Y1.63966
G01 X5.30488 Y1.64684
G01 X5.29730 Y1.65596
G01 X5.29644 Y1.65724
G01 X5.29135 Y1.66677
G01 X5.29076 Y1.66820
G01 X5.28741 Y1.67945
G01 X5.28626 Y1.69080
G01 X5.28626 Y1.69235
G01 X5.28732 Y1.70310
G01 X5.28762 Y1.70461
G01 X5.29102 Y1.71568
G01 X5.29644 Y1.72591
G01 X5.29730 Y1.72719
G01 X5.30489 Y1.73632
G01 X5.31422 Y1.74395
G01 X5.32511 Y1.74977
G01 X5.33617 Y1.75317
G01 X5.33769 Y1.75347
G01 X5.34921 Y1.75457
G01 X5.36074 Y1.75347
G01 X5.36225 Y1.75317
G01 X5.37332 Y1.74977
G01 X5.38355 Y1.74435
G01 X5.38483 Y1.74349
G01 X5.39354 Y1.73631
G01 X5.40113 Y1.72719
G01 X5.40199 Y1.72591
G01 X5.40708 Y1.71638
G01 X5.40763 Y1.71494
G01 X5.53144 Y1.59114
G01 X5.53812 Y1.58294
G01 X5.54314 Y1.57363
G01 X5.54373 Y1.57221
G01 X5.54658 Y1.56283
G01 X5.54688 Y1.56131
G01 X5.54788 Y1.55079
G01 X5.54788 Y0.30000
G01 X5.54394 Y0.30000
G01 X5.54394 Y1.55079
G01 X5.54296 Y1.56093
G01 X5.53967 Y1.57178
G01 X5.53485 Y1.58075
G01 X5.52840 Y1.58864
G01 X5.40419 Y1.71288
G01 X5.40361 Y1.71452
G01 X5.39832 Y1.72438
G01 X5.39097 Y1.73333
G01 X5.38233 Y1.74045
G01 X5.37181 Y1.74613
G01 X5.36111 Y1.74940
G01 X5.34960 Y1.75061
G01 X5.33807 Y1.74955
G01 X5.32661 Y1.74613
G01 X5.31640 Y1.74068
G01 X5.30720 Y1.73305
G01 X5.30011 Y1.72438
G01 X5.29482 Y1.71452
G01 X5.29139 Y1.70347
G01 X5.29018 Y1.69196
G01 X5.29129 Y1.68005
G01 X5.29482 Y1.66863
G01 X5.30011 Y1.65877
G01 X5.30746 Y1.64982
G01 X5.31674 Y1.64227
G01 X5.32626 Y1.63718
G01 X5.32791 Y1.63660
G01 X5.43606 Y1.52845
G01 X5.43606 Y1.26551
G01 X5.37302 Y1.26551
G01 X5.37145 Y1.26626
G01 X5.36111 Y1.26940
G01 X5.34960 Y1.27061
G01 X5.33807 Y1.26955
G01 X5.32661 Y1.26613
G01 X5.31609 Y1.26045
G01 X5.30720 Y1.25305
G01 X5.30011 Y1.24438
G01 X5.29482 Y1.23452
G01 X5.29139 Y1.22347
G01 X5.29018 Y1.21119
G01 X5.29129 Y1.20005
G01 X5.29452 Y1.18934
G01 X5.30011 Y1.17877
G01 X5.30774 Y1.16956
G01 X5.31674 Y1.16227
G01 X5.32661 Y1.15701
G01 X5.33807 Y1.15360
G01 X5.34960 Y1.15254
G01 X5.36111 Y1.15375
G01 X5.37145 Y1.15688
G01 X5.37302 Y1.15764
G01 X5.43606 Y1.15764
G01 X5.43606 Y0.78551
G01 X5.37381 Y0.78551
G01 X5.37224 Y0.78626
G01 X5.36190 Y0.78940
G01 X5.35039 Y0.79061
G01 X5.33886 Y0.78955
G01 X5.32740 Y0.78613
G01 X5.31688 Y0.78045
G01 X5.30824 Y0.77333
G01 X5.30090 Y0.76438
G01 X5.29544 Y0.75417
G01 X5.29217 Y0.74347
G01 X5.29096 Y0.73119
G01 X5.29202 Y0.72044
G01 X5.29531 Y0.70934
G01 X5.30090 Y0.69876
G01 X5.30853 Y0.68956
G01 X5.31719 Y0.68247
G01 X5.32740 Y0.67701
G01 X5.33886 Y0.67360
G01 X5.35039 Y0.67254
G01 X5.36190 Y0.67375
G01 X5.37224 Y0.67688
G01 X5.37380 Y0.67764
G01 X5.43606 Y0.67764
G01 X5.43606 Y0.32234
G01 X5.41923 Y0.30551
G01 X5.37302 Y0.30551
G01 X5.37145 Y0.30626
G01 X5.36073 Y0.30950
G01 X5.34883 Y0.31061
G01 X5.33732 Y0.30940
G01 X5.32698 Y0.30626
G01 X5.31847 Y0.30180
G01 X5.30973 Y0.31054
G01 X5.31080 Y0.31134
G01 X5.31970 Y0.31620
G01 X5.32920 Y0.31974
G01 X5.33939 Y0.32196
G01 X5.34044 Y0.32235
G01 X5.34348 Y0.32409
G01 X5.34442 Y0.32524
G01 X5.34574 Y0.32765
G01 X5.34620 Y0.32907
G01 X5.34622 Y0.32982
G01 X5.34602 Y0.33257
G01 X5.34571 Y0.33383
G01 X5.34404 Y0.33650
G01 X5.33921 Y0.34135
G01 X5.33832 Y0.34203
G01 X5.33519 Y0.34364
G01 X5.33298 Y0.34394
G01 X5.27163 Y0.34394
G01 X5.07921 Y0.53635
G01 X5.07832 Y0.53702
G01 X5.07590 Y0.53834
G01 X5.07519 Y0.53864
G01 X5.07340 Y0.53891
G01 X4.66026 Y0.53894
G01 X4.65915 Y0.53878
G01 X4.65651 Y0.53800
G01 X4.65519 Y0.53732
G01 X4.65241 Y0.53411
G01 X4.65193 Y0.53271
G01 X4.65153 Y0.52998
G01 X4.65152 Y0.52894
G01 X4.65367 Y0.52065
G01 X4.65442 Y0.51206
G01 X4.65367 Y0.50348
G01 X4.65144 Y0.49516
G01 X4.64780 Y0.48735
G01 X4.64286 Y0.48030
G01 X4.63677 Y0.47420
G01 X4.62973 Y0.46927
G01 X4.62891 Y0.46851
G01 X4.62719 Y0.46636
G01 X4.62650 Y0.46504
G01 X4.62607 Y0.46157
G01 X4.62606 Y0.46082
G01 X4.62647 Y0.45939
G01 X4.62771 Y0.45693
G01 X4.62845 Y0.45592
G01 X4.63674 Y0.44992
G01 X4.64284 Y0.44382
G01 X4.64778 Y0.43676
G01 X4.65142 Y0.42896
G01 X4.65226 Y0.42584
G01 X4.63974 Y0.42584
G01 X4.63939 Y0.42673
G01 X4.63587 Y0.43315
G01 X4.63116 Y0.43877
G01 X4.62578 Y0.44316
G01 X4.61895 Y0.44675
G01 X4.61230 Y0.44875
G01 X4.60539 Y0.44944
G01 X4.59733 Y0.44865
G01 X4.59034 Y0.44645
G01 X4.58422 Y0.44316
G01 X4.57884 Y0.43877
G01 X4.57413 Y0.43315
G01 X4.57061 Y0.42673
G01 X4.57026 Y0.42584
G01 X4.55774 Y0.42584
G01 X4.55858 Y0.42896
G01 X4.56222 Y0.43676
G01 X4.56716 Y0.44382
G01 X4.57325 Y0.44990
G01 X4.58028 Y0.45482
G01 X4.58109 Y0.45559
G01 X4.58281 Y0.45774
G01 X4.58350 Y0.45906
G01 X4.58394 Y0.46328
G01 X4.58353 Y0.46471
G01 X4.58229 Y0.46717
G01 X4.58155 Y0.46818
G01 X4.57325 Y0.47419
G01 X4.56714 Y0.48030
G01 X4.56382 Y0.48497
G01 X4.56074 Y0.48742
G01 X4.55956 Y0.48786
G01 X4.55695 Y0.48829
G01 X4.35249 Y0.48825
G01 X4.34930 Y0.48736
G01 X4.34871 Y0.48713
G01 X4.34768 Y0.48642
G01 X4.34583 Y0.48453
G01 X4.34286 Y0.48030
G01 X4.33677 Y0.47420
G01 X4.32929 Y0.46892
G01 X4.32719 Y0.46636
G01 X4.32650 Y0.46504
G01 X4.32606 Y0.46082
G01 X4.32647 Y0.45939
G01 X4.32771 Y0.45693
G01 X4.32843 Y0.45594
G01 X4.32895 Y0.45550
G01 X4.31982 Y0.44637
G01 X4.31230 Y0.44875
G01 X4.30539 Y0.44944
G01 X4.29770 Y0.44875
G01 X4.29018 Y0.44637
G01 X4.28103 Y0.45552
G01 X4.28322 Y0.45837
G01 X4.28365 Y0.45979
G01 X4.28393 Y0.46253
G01 X4.28380 Y0.46402
G01 X4.28196 Y0.46770
G01 X4.28107 Y0.46859
G01 X4.27325 Y0.47419
G01 X4.26714 Y0.48030
G01 X4.26220 Y0.48735
G01 X4.25856 Y0.49516
G01 X4.25633 Y0.50348
G01 X4.25558 Y0.51206
G01 X4.25633 Y0.52064
G01 X4.25837 Y0.52839
G01 X4.25824 Y0.53244
G01 X4.25765 Y0.53381
G01 X4.25563 Y0.53666
G01 X4.25440 Y0.53750
G01 X4.25187 Y0.53858
G01 X4.25085 Y0.53887
G01 X3.45970 Y0.53890
G01 X3.45651 Y0.53800
G01 X3.45519 Y0.53732
G01 X3.45241 Y0.53411
G01 X3.45193 Y0.53271
G01 X3.45153 Y0.52998
G01 X3.45152 Y0.52894
G01 X3.45367 Y0.52065
G01 X3.45442 Y0.51206
G01 X3.45367 Y0.50348
G01 X3.45144 Y0.49516
G01 X3.44780 Y0.48735
G01 X3.44286 Y0.48030
G01 X3.43677 Y0.47420
G01 X3.42931 Y0.46893
G01 X3.42680 Y0.46574
G01 X3.42637 Y0.46432
G01 X3.42609 Y0.46158
G01 X3.42622 Y0.46010
G01 X3.42806 Y0.45641
G01 X3.42895 Y0.45552
G01 X3.43675 Y0.44993
G01 X3.44286 Y0.44383
G01 X3.44780 Y0.43677
G01 X3.45144 Y0.42896
G01 X3.45367 Y0.42064
G01 X3.45442 Y0.41206
G01 X3.45367 Y0.40348
G01 X3.45144 Y0.39516
G01 X3.44780 Y0.38735
G01 X3.44286 Y0.38029
G01 X3.43677 Y0.37420
G01 X3.42971 Y0.36926
G01 X3.42190 Y0.36562
G01 X3.41358 Y0.36339
G01 X3.40500 Y0.36264
G01 X3.39642 Y0.36339
G01 X3.38810 Y0.36562
G01 X3.38029 Y0.36926
G01 X3.37323 Y0.37420
G01 X3.36714 Y0.38029
G01 X3.36418 Y0.38453
G01 X3.36341 Y0.38535
G01 X3.36126 Y0.38707
G01 X3.36017 Y0.38769
G01 X3.35695 Y0.38830
G01 X3.15305 Y0.38830
G01 X3.15194 Y0.38814
G01 X3.14930 Y0.38736
G01 X3.14817 Y0.38682
G01 X3.14583 Y0.38453
G01 X3.14286 Y0.38029
G01 X3.13677 Y0.37420
G01 X3.12971 Y0.36926
G01 X3.12190 Y0.36562
G01 X3.11358 Y0.36339
G01 X3.10500 Y0.36264
G01 X3.09642 Y0.36339
G01 X3.08810 Y0.36562
G01 X3.08029 Y0.36926
G01 X3.07323 Y0.37420
G01 X3.06714 Y0.38029
G01 X3.06220 Y0.38735
G01 X3.05856 Y0.39516
G01 X3.05633 Y0.40348
G01 X3.05558 Y0.41206
G01 X3.05633 Y0.42064
G01 X3.05856 Y0.42896
G01 X3.06220 Y0.43677
G01 X3.06714 Y0.44383
G01 X3.07324 Y0.44992
G01 X3.08069 Y0.45519
G01 X3.08279 Y0.45775
G01 X3.08349 Y0.45907
G01 X3.08392 Y0.46329
G01 X3.08351 Y0.46472
G01 X3.08227 Y0.46718
G01 X3.08153 Y0.46820
G01 X3.07325 Y0.47419
G01 X3.06714 Y0.48030
G01 X3.06220 Y0.48735
G01 X3.05856 Y0.49516
G01 X3.05633 Y0.50348
G01 X3.05558 Y0.51206
G01 X3.05633 Y0.52064
G01 X3.05837 Y0.52839
G01 X3.05824 Y0.53244
G01 X3.05765 Y0.53381
G01 X3.05563 Y0.53666
G01 X3.05440 Y0.53750
G01 X3.05187 Y0.53858
G01 X3.05085 Y0.53887
G01 X1.22163 Y0.53894
G01 X0.70394 Y1.05663
G01 X0.70390 Y1.23936
G01 X0.70272 Y1.24326
G01 X0.70164 Y1.24472
G01 X0.68637 Y1.26001
G01 X0.68457 Y1.26162
G01 X0.68197 Y1.26517
G01 X0.68137 Y1.26622
G01 X0.67962 Y1.27045
G01 X0.67930 Y1.27161
G01 X0.67863 Y1.27596
G01 X0.67877 Y1.27837
G01 X0.67877 Y1.45662
G01 X0.67863 Y1.45904
G01 X0.67930 Y1.46338
G01 X0.67962 Y1.46455
G01 X0.68137 Y1.46878
G01 X0.68197 Y1.46983
G01 X0.68457 Y1.47337
G01 X0.68637 Y1.47498
G01 X0.70172 Y1.49039
G01 X0.70356 Y1.49375
G01 X0.70394 Y1.49620
G01 X0.70394 Y2.75837
G01 X0.82663 Y2.88106
G01 X1.27837 Y2.88106
G01 X1.28314 Y2.87642
G01 X1.28526 Y2.87508
G01 X1.28637 Y2.87464
G01 X1.29527 Y2.86978
G01 X1.30339 Y2.86371
G01 X1.31056 Y2.85654
G01 X1.31664 Y2.84842
G01 X1.32150 Y2.83952
G01 X1.32504 Y2.83002
G01 X1.32720 Y2.82011
G01 X1.32792 Y2.81000
G01 X1.32720 Y2.79989
G01 X1.32504 Y2.78998
G01 X1.32317 Y2.78498
G01 X1.32262 Y2.78190
G01 X1.32266 Y2.05491
G01 X1.32384 Y2.05100
G01 X1.32520 Y2.04923
G01 X1.40579 Y1.96864
G01 X1.40669 Y1.96797
G01 X1.40910 Y1.96666
G01 X1.41018 Y1.96626
G01 X1.41324 Y1.96609
G01 X1.41724 Y1.96728
G01 X1.41841 Y1.96820
G01 X1.42021 Y1.97027
G01 X1.42096 Y1.97156
G01 X1.42157 Y1.97559
G01 X1.42098 Y1.97810
G01 X1.42079 Y1.97986
G01 X1.42079 Y2.00122
G01 X1.43260 Y2.00122
G01 X1.43268 Y1.98077
G01 X1.43326 Y1.97935
G01 X1.43375 Y1.97875
G01 X1.43503 Y1.97790
G01 X1.43654 Y1.97760
G01 X1.50423 Y1.97767
G01 X1.50565 Y1.97826
G01 X1.50625 Y1.97875
G01 X1.50674 Y1.97935
G01 X1.50733 Y1.98077
G01 X1.50740 Y2.00122
G01 X1.51921 Y2.00122
G01 X1.51921 Y1.97986
G01 X1.51904 Y1.97822
G01 X1.51870 Y1.97687
G01 X1.51851 Y1.97412
G01 X1.51868 Y1.97264
G01 X1.52030 Y1.96954
G01 X1.52125 Y1.96839
G01 X1.52475 Y1.96644
G01 X1.52720 Y1.96606
G01 X2.22354 Y1.96610
G01 X2.22744 Y1.96729
G01 X2.22921 Y1.96864
G01 X2.50172 Y2.24121
G01 X2.50356 Y2.24457
G01 X2.50394 Y2.24702
G01 X2.50394 Y2.29606
G01 X2.70594 Y2.29606
G01 X2.79917 Y2.20284
G01 X2.80077 Y2.20000
G01 X2.80495 Y2.19495
G01 X2.81065 Y2.19034
G01 X2.81644 Y2.18726
G01 X2.82309 Y2.18525
G01 X2.83039 Y2.18459
G01 X2.83691 Y2.18525
G01 X2.84320 Y2.18713
G01 X2.84936 Y2.19034
G01 X2.85532 Y2.19523
G01 X2.85966 Y2.20065
G01 X2.86257 Y2.20609
G01 X2.86475 Y2.21309
G01 X2.86542 Y2.22038
G01 X2.86475 Y2.22691
G01 X2.86287 Y2.23319
G01 X2.85966 Y2.23935
G01 X2.85506 Y2.24505
G01 X2.85000 Y2.24923
G01 X2.84716 Y2.25083
G01 X2.74400 Y2.35400
G01 X2.73886 Y2.35822
G01 X2.73262 Y2.36148
G01 X2.72662 Y2.36328
G01 X2.72000 Y2.36394
G01 X2.50394 Y2.36394
G01 X2.50394 Y2.46261
G01 X2.50307 Y2.46639
G01 X2.50177 Y2.46884
G01 X2.49803 Y2.47887
G01 X2.49575 Y2.48932
G01 X2.49499 Y2.50000
G01 X2.49571 Y2.51065
G01 X2.49504 Y2.51389
G01 X2.49482 Y2.51460
G01 X2.49398 Y2.51584
G01 X2.49204 Y2.51778
G01 X2.49095 Y2.51853
G01 X2.47865 Y2.53084
G01 X2.48014 Y2.53379
G01 X2.48248 Y2.54155
G01 X2.48329 Y2.55038
G01 X2.48238 Y2.55882
G01 X2.48001 Y2.56657
G01 X2.47621 Y2.57373
G01 X2.47062 Y2.58062
G01 X2.46373 Y2.58621
G01 X2.45657 Y2.59001
G01 X2.44807 Y2.59253
G01 X2.43962 Y2.59329
G01 X2.43155 Y2.59247
G01 X2.42379 Y2.59014
G01 X2.41627 Y2.58621
G01 X2.40938 Y2.58062
G01 X2.40422 Y2.57437
G01 X2.40016 Y2.56692
G01 X2.39753 Y2.55845
G01 X2.39671 Y2.55038
G01 X2.39747 Y2.54193
G01 X2.39986 Y2.53379
G01 X2.40135 Y2.53084
G01 X2.39008 Y2.51956
G01 X2.38729 Y2.51898
G01 X2.38609 Y2.51827
G01 X2.38400 Y2.51641
G01 X2.38017 Y2.51216
G01 X2.37846 Y2.50872
G01 X2.37777 Y2.50340
G01 X2.37662 Y2.49887
G01 X2.37572 Y2.49638
G01 X2.37373 Y2.49216
G01 X2.37238 Y2.48988
G01 X2.36963 Y2.48611
G01 X2.36791 Y2.48417
G01 X2.36593 Y2.48244
G01 X2.23506 Y2.35157
G01 X2.23307 Y2.34972
G01 X2.23096 Y2.34818
G01 X2.22695 Y2.34580
G01 X2.22455 Y2.34467
G01 X2.22016 Y2.34309
G01 X2.21759 Y2.34243
G01 X2.21298 Y2.34171
G01 X2.21040 Y2.34156
G01 X2.20778 Y2.34173
G01 X1.74307 Y2.34165
G01 X1.73532 Y2.34183
G01 X1.73277 Y2.34223
G01 X1.72825 Y2.34338
G01 X1.72575 Y2.34428
G01 X1.72153 Y2.34627
G01 X1.71925 Y2.34762
G01 X1.71548 Y2.35038
G01 X1.71355 Y2.35209
G01 X1.71182 Y2.35407
G01 X1.69410 Y2.37172
G01 X1.69065 Y2.37360
G01 X1.68943 Y2.37382
G01 X1.68667 Y2.37390
G01 X1.66894 Y2.39163
G01 X1.66890 Y2.39385
G01 X1.66800 Y2.39704
G01 X1.66772 Y2.39775
G01 X1.66664 Y2.39921
G01 X1.63505 Y2.43071
G01 X1.62970 Y2.43632
G01 X1.62818 Y2.43841
G01 X1.62580 Y2.44242
G01 X1.62467 Y2.44482
G01 X1.62309 Y2.44921
G01 X1.62244 Y2.45178
G01 X1.62172 Y2.45639
G01 X1.62156 Y2.45897
G01 X1.62173 Y2.46159
G01 X1.62165 Y2.69693
G01 X1.62183 Y2.70468
G01 X1.62223 Y2.70723
G01 X1.62339 Y2.71175
G01 X1.62428 Y2.71425
G01 X1.62627 Y2.71847
G01 X1.62763 Y2.72075
G01 X1.63038 Y2.72452
G01 X1.63209 Y2.72645
G01 X1.63407 Y2.72819
G01 X1.66636 Y2.76047
G01 X1.66703 Y2.76137
G01 X1.66856 Y2.76425
G01 X1.66894 Y2.76671
G01 X1.66890 Y3.05854
G01 X1.66771 Y3.06244
G01 X1.66636 Y3.06421
G01 X1.64123 Y3.08933
G01 X1.64034 Y3.09001
G01 X1.63721 Y3.09162
G01 X1.63500 Y3.09192
G01 X0.43993 Y3.09191
G01 X0.42853 Y3.09118
G01 X0.41763 Y3.08914
G01 X0.40705 Y3.08579
G01 X0.39763 Y3.08155
G01 X0.38812 Y3.07585
G01 X0.37935 Y3.06905
G01 X0.37127 Y3.06101
G01 X0.36442 Y3.05227
G01 X0.35867 Y3.04278
G01 X0.35393 Y3.03222
G01 X0.35068 Y3.02162
G01 X0.34876 Y3.01099
G01 X0.34809 Y3.00007
G01 X0.34808 Y2.77997
G01 X0.34686 Y2.76992
G01 X0.34606 Y2.76565
G01 X0.34609 Y2.58030
G01 X0.34675 Y2.57737
G01 X0.34933 Y2.57185
G01 X0.35467 Y2.55692
G01 X0.35853 Y2.54153
G01 X0.36086 Y2.52584
G01 X0.36163 Y2.51000
G01 X0.36086 Y2.49416
G01 X0.35853 Y2.47847
G01 X0.35467 Y2.46308
G01 X0.34933 Y2.44815
G01 X0.34675 Y2.44263
G01 X0.34606 Y2.43926
G01 X0.34606 Y2.25435
G01 X0.34686 Y2.25008
G01 X0.34808 Y2.24002
G01 X0.34808 Y0.85997
G01 X0.34686 Y0.84992
G01 X0.34606 Y0.84565
G01 X0.34606 Y0.66074
G01 X0.34675 Y0.65737
G01 X0.34933 Y0.65185
G01 X0.35467 Y0.63692
G01 X0.35853 Y0.62153
G01 X0.36086 Y0.60584
G01 X0.36163 Y0.59000
G01 X0.36086 Y0.57416
G01 X0.35853 Y0.55847
G01 X0.35467 Y0.54308
G01 X0.34933 Y0.52815
G01 X0.34675 Y0.52263
G01 X0.34606 Y0.51926
G01 X0.34606 Y0.33435
G01 X0.34686 Y0.33008
G01 X0.34808 Y0.32002
G01 X0.34808 Y0.10007
G01 X0.34882 Y0.08854
G01 X0.35079 Y0.07792
G01 X0.35410 Y0.06733
G01 X0.35881 Y0.05694
G01 X0.36459 Y0.04747
G01 X0.37147 Y0.03876
G01 X0.37935 Y0.03095
G01 X0.38786 Y0.02432
G01 X0.39695 Y0.01881
G01 X0.40733 Y0.01410
G01 X0.41793 Y0.01079
G01 X0.42854 Y0.00881
G01 X0.44007 Y0.00808
G01 X5.42012 Y0.00808
G01 X5.42123 Y0.00824
G01 X5.42387 Y0.00902
G01 X5.42519 Y0.00970
G01 X5.42573 Y0.01022
G01 X5.42754 Y0.01230
G01 X5.42822 Y0.01341
G01 X5.42894 Y0.01690
G01 X5.42894 Y0.19764
G01 X5.44158 Y0.19764
G01 X5.44971 Y0.19826
G01 X5.45795 Y0.20019
G01 X5.46633 Y0.20367
G01 X5.47352 Y0.20813
G01 X5.47949 Y0.21322
G01 X5.52814 Y0.26186
G01 X5.53462 Y0.26972
G01 X5.53996 Y0.27972
G01 X5.54296 Y0.28986
G01 X5.54394 Y0.30000
G04 P0 ( dwell for no time -- G64 should not smooth over this point )
G00 Z0.07874 ( retract )

G00 X5.38684 Y0.19446 ( rapid move to begin. )
G01 F17.71654
( Mill infeed pass 1/1 )
G01 Z-0.00500
G04 P0 ( dwell for no time -- G64 should not smooth over this point )
G01 F35.43307
G01 X5.38684 Y0.19446
G01 X5.38366 Y0.19764
G01 X5.37302 Y0.19764
G01 X5.37145 Y0.19688
G01 X5.36035 Y0.19360
G01 X5.34960 Y0.19254
G01 X5.33807 Y0.19360
G01 X5.32698 Y0.19688
G01 X5.31847 Y0.20134
G01 X5.30973 Y0.19260
G01 X5.31080 Y0.19181
G01 X5.31970 Y0.18695
G01 X5.32920 Y0.18341
G01 X5.33910 Y0.18125
G01 X5.34921 Y0.18053
G01 X5.35933 Y0.18125
G01 X5.36923 Y0.18341
G01 X5.37873 Y0.18695
G01 X5.38762 Y0.19181
G01 X5.38869 Y0.19261
G01 X5.38684 Y0.19446
G01 X5.38233 Y0.19340
G01 X5.37709 Y0.19053
G01 X5.36812 Y0.18718
G01 X5.35876 Y0.18515
G01 X5.34921 Y0.18446
G01 X5.33966 Y0.18515
G01 X5.33031 Y0.18718
G01 X5.32134 Y0.19054
G01 X5.31610 Y0.19340
G01 X5.31349 Y0.19303
G01 X5.31610 Y0.19340
G01 X5.31919 Y0.19650
G01 X5.31905 Y0.19741
G01 X5.31919 Y0.19650
G01 X5.32441 Y0.19371
G01 X5.32584 Y0.19312
G01 X5.33617 Y0.18998
G01 X5.33769 Y0.18968
G01 X5.34921 Y0.18858
G01 X5.36074 Y0.18968
G01 X5.36225 Y0.18998
G01 X5.37259 Y0.19312
G01 X5.37399 Y0.19376
G01 X5.38203 Y0.19370
G01 X5.38233 Y0.19340
G04 P0 ( dwell for no time -- G64 should not smooth over this point )
G00 Z0.07874 ( retract )

G00 X5.29898 Y0.22083 ( rapid move to begin. )
G01 F17.71654
( Mill infeed pass 1/1 )
G01 Z-0.00500
G04 P0 ( dwell for no time -- G64 should not smooth over this point )
G01 F35.43307
G01 X5.29898 Y0.22083
G01 X5.29025 Y0.21209
G01 X5.28945 Y0.21316
G01 X5.28459 Y0.22206
G01 X5.28105 Y0.23156
G01 X5.27889 Y0.24146
G01 X5.27817 Y0.25157
G01 X5.27889 Y0.26169
G01 X5.28105 Y0.27159
G01 X5.28459 Y0.28109
G01 X5.28945 Y0.28998
G01 X5.29025 Y0.29106
G01 X5.29898 Y0.28232
G01 X5.29465 Y0.27417
G01 X5.29139 Y0.26347
G01 X5.29016 Y0.25157
G01 X5.29139 Y0.23968
G01 X5.29452 Y0.22934
G01 X5.29898 Y0.22083
G01 X5.29414 Y0.22155
G01 X5.29104 Y0.21846
G01 X5.29067 Y0.21585
G01 X5.29104 Y0.21846
G01 X5.28818 Y0.22370
G01 X5.28482 Y0.23267
G01 X5.28279 Y0.24202
G01 X5.28211 Y0.25157
G01 X5.28279 Y0.26112
G01 X5.28482 Y0.27048
G01 X5.28818 Y0.27945
G01 X5.29104 Y0.28469
G01 X5.29067 Y0.28730
G01 X5.29104 Y0.28469
G01 X5.29414 Y0.28160
G01 X5.29505 Y0.28174
G01 X5.29414 Y0.28160
G01 X5.29135 Y0.27638
G01 X5.29076 Y0.27495
G01 X5.28762 Y0.26461
G01 X5.28732 Y0.26310
G01 X5.28626 Y0.25235
G01 X5.28626 Y0.25080
G01 X5.28732 Y0.24005
G01 X5.28762 Y0.23854
G01 X5.29076 Y0.22820
G01 X5.29135 Y0.22677
G01 X5.29414 Y0.22155
G04 P0 ( dwell for no time -- G64 should not smooth over this point )
G00 Z0.07874 ( retract )

G00 X5.32928 Y0.37756 ( rapid move to begin. )
G01 F17.71654
( Mill infeed pass 1/1 )
G01 Z-0.00500
G04 P0 ( dwell for no time -- G64 should not smooth over this point )
G01 F35.43307
G01 X5.32928 Y0.37756
G01 X5.29242 Y0.37756
G01 X5.29078 Y0.37773
G01 X5.28647 Y0.37934
G01 X5.28285 Y0.38206
G01 X5.28013 Y0.38568
G01 X5.27852 Y0.38999
G01 X5.27835 Y0.39163
G01 X5.27835 Y0.42849
G01 X5.29016 Y0.42849
G01 X5.29016 Y0.39331
G01 X5.29046 Y0.39180
G01 X5.29131 Y0.39052
G01 X5.29259 Y0.38967
G01 X5.29410 Y0.38937
G01 X5.32928 Y0.38937
G01 X5.32928 Y0.37756
G01 X5.32534 Y0.38150
G01 X5.29168 Y0.38154
G01 X5.28836 Y0.38280
G01 X5.28563 Y0.38484
G01 X5.28359 Y0.38757
G01 X5.28232 Y0.39089
G01 X5.28229 Y0.42455
G01 X5.28112 Y0.42571
G01 X5.28229 Y0.42455
G01 X5.28622 Y0.42455
G01 X5.28737 Y0.42570
G01 X5.28622 Y0.42455
G01 X5.28622 Y0.39331
G01 X5.28637 Y0.39177
G01 X5.28682 Y0.39029
G01 X5.28755 Y0.38893
G01 X5.28853 Y0.38774
G01 X5.28972 Y0.38676
G01 X5.29108 Y0.38603
G01 X5.29256 Y0.38558
G01 X5.29410 Y0.38543
G01 X5.32534 Y0.38543
G01 X5.32649 Y0.38659
G01 X5.32534 Y0.38543
G01 X5.32534 Y0.38150
G04 P0 ( dwell for no time -- G64 should not smooth over this point )
G00 Z0.07874 ( retract )

G00 X5.32928 Y0.50748 ( rapid move to begin. )
G01 F17.71654
( Mill infeed pass 1/1 )
G01 Z-0.00500
G04 P0 ( dwell for no time -- G64 should not smooth over this point )
G01 F35.43307
G01 X5.32928 Y0.50748
G01 X5.29410 Y0.50748
G01 X5.29259 Y0.50718
G01 X5.29191 Y0.50682
G01 X5.29082 Y0.50573
G01 X5.29023 Y0.50431
G01 X5.29016 Y0.50354
G01 X5.29016 Y0.46836
G01 X5.27835 Y0.46836
G01 X5.27835 Y0.50521
G01 X5.27852 Y0.50686
G01 X5.28013 Y0.51117
G01 X5.28285 Y0.51479
G01 X5.28647 Y0.51751
G01 X5.29078 Y0.51911
G01 X5.29242 Y0.51929
G01 X5.32928 Y0.51929
G01 X5.32928 Y0.50748
G01 X5.32534 Y0.51142
G01 X5.32534 Y0.51535
G01 X5.32649 Y0.51651
G01 X5.32534 Y0.51535
G01 X5.29263 Y0.51540
G01 X5.29169 Y0.51525
G01 X5.28835 Y0.51407
G01 X5.28563 Y0.51201
G01 X5.28357 Y0.50929
G01 X5.28239 Y0.50594
G01 X5.28224 Y0.50501
G01 X5.28229 Y0.47230
G01 X5.28113 Y0.47114
G01 X5.28229 Y0.47230
G01 X5.28622 Y0.47230
G01 X5.28737 Y0.47114
G01 X5.28622 Y0.47230
G01 X5.28622 Y0.50354
G01 X5.28637 Y0.50508
G01 X5.28682 Y0.50656
G01 X5.28755 Y0.50792
G01 X5.28853 Y0.50911
G01 X5.28972 Y0.51009
G01 X5.29108 Y0.51082
G01 X5.29256 Y0.51126
G01 X5.29410 Y0.51142
G01 X5.32534 Y0.51142
G04 P0 ( dwell for no time -- G64 should not smooth over this point )
G00 Z0.07874 ( retract )

G00 X5.33006 Y0.85756 ( rapid move to begin. )
G01 F17.71654
( Mill infeed pass 1/1 )
G01 Z-0.00500
G04 P0 ( dwell for no time -- G64 should not smooth over this point )
G01 F35.43307
G01 X5.33006 Y0.85756
G01 X5.29321 Y0.85756
G01 X5.29157 Y0.85774
G01 X5.28726 Y0.85934
G01 X5.28363 Y0.86206
G01 X5.28092 Y0.86568
G01 X5.27931 Y0.86999
G01 X5.27914 Y0.87163
G01 X5.27914 Y0.90849
G01 X5.29095 Y0.90849
G01 X5.29095 Y0.87331
G01 X5.29124 Y0.87180
G01 X5.29210 Y0.87052
G01 X5.29338 Y0.86967
G01 X5.29488 Y0.86937
G01 X5.33006 Y0.86937
G01 X5.33006 Y0.85756
G01 X5.32613 Y0.86150
G01 X5.29342 Y0.86145
G01 X5.29248 Y0.86160
G01 X5.28914 Y0.86278
G01 X5.28642 Y0.86484
G01 X5.28436 Y0.86756
G01 X5.28317 Y0.87090
G01 X5.28303 Y0.87184
G01 X5.28307 Y0.90455
G01 X5.28192 Y0.90570
G01 X5.28307 Y0.90455
G01 X5.28701 Y0.90455
G01 X5.28816 Y0.90570
G01 X5.28701 Y0.90455
G01 X5.28701 Y0.87331
G01 X5.28716 Y0.87177
G01 X5.28761 Y0.87029
G01 X5.28834 Y0.86893
G01 X5.28932 Y0.86774
G01 X5.29051 Y0.86676
G01 X5.29187 Y0.86603
G01 X5.29335 Y0.86558
G01 X5.29488 Y0.86543
G01 X5.32613 Y0.86543
G01 X5.32728 Y0.86659
G01 X5.32613 Y0.86543
G01 X5.32613 Y0.86150
G04 P0 ( dwell for no time -- G64 should not smooth over this point )
G00 Z0.07874 ( retract )

G00 X5.33006 Y0.98748 ( rapid move to begin. )
G01 F17.71654
( Mill infeed pass 1/1 )
G01 Z-0.00500
G04 P0 ( dwell for no time -- G64 should not smooth over this point )
G01 F35.43307
G01 X5.33006 Y0.98748
G01 X5.29488 Y0.98748
G01 X5.29338 Y0.98718
G01 X5.29270 Y0.98682
G01 X5.29161 Y0.98573
G01 X5.29124 Y0.98505
G01 X5.29095 Y0.98354
G01 X5.29095 Y0.94836
G01 X5.27914 Y0.94836
G01 X5.27914 Y0.98521
G01 X5.27931 Y0.98686
G01 X5.28092 Y0.99117
G01 X5.28363 Y0.99479
G01 X5.28726 Y0.99751
G01 X5.29157 Y0.99911
G01 X5.29321 Y0.99929
G01 X5.33006 Y0.99929
G01 X5.33006 Y0.98748
G01 X5.32613 Y0.99142
G01 X5.32613 Y0.99535
G01 X5.32728 Y0.99651
G01 X5.32613 Y0.99535
G01 X5.29342 Y0.99540
G01 X5.29248 Y0.99525
G01 X5.28914 Y0.99407
G01 X5.28642 Y0.99201
G01 X5.28436 Y0.98929
G01 X5.28317 Y0.98594
G01 X5.28303 Y0.98501
G01 X5.28307 Y0.95230
G01 X5.28192 Y0.95115
G01 X5.28307 Y0.95230
G01 X5.28701 Y0.95230
G01 X5.28816 Y0.95115
G01 X5.28701 Y0.95230
G01 X5.28701 Y0.98354
G01 X5.28716 Y0.98508
G01 X5.28761 Y0.98656
G01 X5.28834 Y0.98792
G01 X5.28932 Y0.98911
G01 X5.29051 Y0.99009
G01 X5.29187 Y0.99082
G01 X5.29335 Y0.99127
G01 X5.29488 Y0.99142
G01 X5.32613 Y0.99142
G04 P0 ( dwell for no time -- G64 should not smooth over this point )
G00 Z0.07874 ( retract )

G00 X5.32928 Y1.33756 ( rapid move to begin. )
G01 F17.71654
( Mill infeed pass 1/1 )
G01 Z-0.00500
G04 P0 ( dwell for no time -- G64 should not smooth over this point )
G01 F35.43307
G01 X5.32928 Y1.33756
G01 X5.29242 Y1.33756
G01 X5.29078 Y1.33773
G01 X5.28647 Y1.33934
G01 X5.28285 Y1.34206
G01 X5.28013 Y1.34568
G01 X5.27852 Y1.34999
G01 X5.27835 Y1.35163
G01 X5.27835 Y1.38849
G01 X5.29016 Y1.38849
G01 X5.29016 Y1.35331
G01 X5.29046 Y1.35180
G01 X5.29131 Y1.35052
G01 X5.29259 Y1.34967
G01 X5.29410 Y1.34937
G01 X5.32928 Y1.34937
G01 X5.32928 Y1.33756
G01 X5.32534 Y1.34150
G01 X5.29168 Y1.34153
G01 X5.28836 Y1.34280
G01 X5.28563 Y1.34484
G01 X5.28357 Y1.34756
G01 X5.28239 Y1.35090
G01 X5.28224 Y1.35184
G01 X5.28229 Y1.38455
G01 X5.28113 Y1.38570
G01 X5.28229 Y1.38455
G01 X5.28622 Y1.38455
G01 X5.28737 Y1.38570
G01 X5.28622 Y1.38455
G01 X5.28622 Y1.35331
G01 X5.28637 Y1.35177
G01 X5.28682 Y1.35029
G01 X5.28755 Y1.34893
G01 X5.28853 Y1.34774
G01 X5.28972 Y1.34676
G01 X5.29108 Y1.34603
G01 X5.29256 Y1.34558
G01 X5.29410 Y1.34543
G01 X5.32534 Y1.34543
G01 X5.32649 Y1.34659
G01 X5.32534 Y1.34543
G01 X5.32534 Y1.34150
G04 P0 ( dwell for no time -- G64 should not smooth over this point )
G00 Z0.07874 ( retract )

G00 X5.32928 Y1.46748 ( rapid move to begin. )
G01 F17.71654
( Mill infeed pass 1/1 )
G01 Z-0.00500
G04 P0 ( dwell for no time -- G64 should not smooth over this point )
G01 F35.43307
G01 X5.32928 Y1.46748
G01 X5.29410 Y1.46748
G01 X5.29259 Y1.46718
G01 X5.29191 Y1.46682
G01 X5.29082 Y1.46573
G01 X5.29023 Y1.46431
G01 X5.29016 Y1.46354
G01 X5.29016 Y1.42836
G01 X5.27835 Y1.42836
G01 X5.27835 Y1.46521
G01 X5.27852 Y1.46686
G01 X5.28013 Y1.47117
G01 X5.28285 Y1.47479
G01 X5.28647 Y1.47751
G01 X5.29078 Y1.47911
G01 X5.29242 Y1.47929
G01 X5.32928 Y1.47929
G01 X5.32928 Y1.46748
G01 X5.32534 Y1.47142
G01 X5.32534 Y1.47535
G01 X5.32649 Y1.47651
G01 X5.32534 Y1.47535
G01 X5.29263 Y1.47540
G01 X5.29169 Y1.47525
G01 X5.28835 Y1.47407
G01 X5.28563 Y1.47201
G01 X5.28357 Y1.46929
G01 X5.28239 Y1.46595
G01 X5.28224 Y1.46501
G01 X5.28229 Y1.43230
G01 X5.28113 Y1.43114
G01 X5.28229 Y1.43230
G01 X5.28622 Y1.43230
G01 X5.28737 Y1.43114
G01 X5.28622 Y1.43230
G01 X5.28622 Y1.46354
G01 X5.28637 Y1.46508
G01 X5.28682 Y1.46656
G01 X5.28755 Y1.46792
G01 X5.28853 Y1.46911
G01 X5.28972 Y1.47009
G01 X5.29108 Y1.47082
G01 X5.29256 Y1.47127
G01 X5.29410 Y1.47142
G01 X5.32534 Y1.47142
G04 P0 ( dwell for no time -- G64 should not smooth over this point )
G00 Z0.07874 ( retract )

G00 X5.32534 Y1.82150 ( rapid move to begin. )
G01 F17.71654
( Mill infeed pass 1/1 )
G01 Z-0.00500
G04 P0 ( dwell for no time -- G64 should not smooth over this point )
G01 F35.43307
G01 X5.32534 Y1.82150
G01 X5.29263 Y1.82145
G01 X5.29169 Y1.82160
G01 X5.28835 Y1.82278
G01 X5.28563 Y1.82484
G01 X5.28357 Y1.82756
G01 X5.28239 Y1.83090
G01 X5.28224 Y1.83184
G01 X5.28229 Y1.86455
G01 X5.28113 Y1.86570
G01 X5.28229 Y1.86455
G01 X5.28622 Y1.86455
G01 X5.28737 Y1.86570
G01 X5.28622 Y1.86455
G01 X5.28622 Y1.83331
G01 X5.28637 Y1.83177
G01 X5.28682 Y1.83029
G01 X5.28755 Y1.82893
G01 X5.28853 Y1.82774
G01 X5.28972 Y1.82676
G01 X5.29108 Y1.82603
G01 X5.29256 Y1.82558
G01 X5.29410 Y1.82543
G01 X5.32534 Y1.82543
G01 X5.32649 Y1.82659
G01 X5.32534 Y1.82543
G01 X5.32534 Y1.82150
G01 X5.32928 Y1.81756
G01 X5.32928 Y1.82937
G01 X5.29410 Y1.82937
G01 X5.29259 Y1.82967
G01 X5.29131 Y1.83052
G01 X5.29046 Y1.83180
G01 X5.29016 Y1.83331
G01 X5.29016 Y1.86849
G01 X5.27835 Y1.86849
G01 X5.27835 Y1.83163
G01 X5.27852 Y1.82999
G01 X5.28013 Y1.82568
G01 X5.28285 Y1.82206
G01 X5.28647 Y1.81934
G01 X5.29078 Y1.81774
G01 X5.29242 Y1.81756
G01 X5.32928 Y1.81756
G04 P0 ( dwell for no time -- G64 should not smooth over this point )
G00 Z0.07874 ( retract )

G00 X5.41614 Y1.83184 ( rapid move to begin. )
G01 F17.71654
( Mill infeed pass 1/1 )
G01 Z-0.00500
G04 P0 ( dwell for no time -- G64 should not smooth over this point )
G01 F35.43307
G01 X5.41614 Y1.83184
G01 X5.41614 Y1.86455
G01 X5.41730 Y1.86570
G01 X5.41614 Y1.86455
G01 X5.41221 Y1.86455
G01 X5.41105 Y1.86570
G01 X5.41221 Y1.86455
G01 X5.41221 Y1.83331
G01 X5.41205 Y1.83177
G01 X5.41161 Y1.83029
G01 X5.41088 Y1.82893
G01 X5.40990 Y1.82774
G01 X5.40871 Y1.82676
G01 X5.40734 Y1.82603
G01 X5.40587 Y1.82558
G01 X5.40433 Y1.82543
G01 X5.37309 Y1.82543
G01 X5.37193 Y1.82659
G01 X5.37309 Y1.82543
G01 X5.37309 Y1.82150
G01 X5.37193 Y1.82034
G01 X5.37309 Y1.82150
G01 X5.40675 Y1.82153
G01 X5.41007 Y1.82280
G01 X5.41280 Y1.82484
G01 X5.41486 Y1.82756
G01 X5.41604 Y1.83090
G01 X5.41614 Y1.83184
G01 X5.42008 Y1.83163
G01 X5.42008 Y1.86849
G01 X5.40827 Y1.86849
G01 X5.40827 Y1.83331
G01 X5.40819 Y1.83254
G01 X5.40761 Y1.83112
G01 X5.40652 Y1.83003
G01 X5.40584 Y1.82967
G01 X5.40433 Y1.82937
G01 X5.36915 Y1.82937
G01 X5.36915 Y1.81756
G01 X5.40600 Y1.81756
G01 X5.40765 Y1.81774
G01 X5.41196 Y1.81934
G01 X5.41558 Y1.82206
G01 X5.41830 Y1.82568
G01 X5.41990 Y1.82999
G01 X5.42008 Y1.83163
G04 P0 ( dwell for no time -- G64 should not smooth over this point )
G00 Z0.07874 ( retract )

G00 X5.42008 Y1.90836 ( rapid move to begin. )
G01 F17.71654
( Mill infeed pass 1/1 )
G01 Z-0.00500
G04 P0 ( dwell for no time -- G64 should not smooth over this point )
G01 F35.43307
G01 X5.42008 Y1.90836
G01 X5.40827 Y1.90836
G01 X5.40827 Y1.94354
G01 X5.40797 Y1.94505
G01 X5.40712 Y1.94633
G01 X5.40584 Y1.94718
G01 X5.40433 Y1.94748
G01 X5.36915 Y1.94748
G01 X5.36915 Y1.95929
G01 X5.40600 Y1.95929
G01 X5.40765 Y1.95911
G01 X5.41196 Y1.95751
G01 X5.41558 Y1.95479
G01 X5.41830 Y1.95117
G01 X5.41990 Y1.94686
G01 X5.42008 Y1.94521
G01 X5.42008 Y1.90836
G01 X5.41614 Y1.91230
G01 X5.41619 Y1.94501
G01 X5.41604 Y1.94595
G01 X5.41486 Y1.94929
G01 X5.41280 Y1.95201
G01 X5.41008 Y1.95407
G01 X5.40673 Y1.95525
G01 X5.40580 Y1.95540
G01 X5.37309 Y1.95535
G01 X5.37193 Y1.95651
G01 X5.37309 Y1.95535
G01 X5.37309 Y1.95142
G01 X5.37193 Y1.95026
G01 X5.37309 Y1.95142
G01 X5.40433 Y1.95142
G01 X5.40587 Y1.95127
G01 X5.40734 Y1.95082
G01 X5.40871 Y1.95009
G01 X5.40990 Y1.94911
G01 X5.41088 Y1.94792
G01 X5.41161 Y1.94656
G01 X5.41205 Y1.94508
G01 X5.41221 Y1.94354
G01 X5.41221 Y1.91230
G01 X5.41105 Y1.91115
G01 X5.41221 Y1.91230
G01 X5.41614 Y1.91230
G04 P0 ( dwell for no time -- G64 should not smooth over this point )
G00 Z0.07874 ( retract )

G00 X5.32928 Y1.94748 ( rapid move to begin. )
G01 F17.71654
( Mill infeed pass 1/1 )
G01 Z-0.00500
G04 P0 ( dwell for no time -- G64 should not smooth over this point )
G01 F35.43307
G01 X5.32928 Y1.94748
G01 X5.29410 Y1.94748
G01 X5.29259 Y1.94718
G01 X5.29191 Y1.94682
G01 X5.29082 Y1.94573
G01 X5.29023 Y1.94431
G01 X5.29016 Y1.94354
G01 X5.29016 Y1.90836
G01 X5.27835 Y1.90836
G01 X5.27835 Y1.94521
G01 X5.27852 Y1.94686
G01 X5.28013 Y1.95117
G01 X5.28285 Y1.95479
G01 X5.28647 Y1.95751
G01 X5.29078 Y1.95911
G01 X5.29242 Y1.95929
G01 X5.32928 Y1.95929
G01 X5.32928 Y1.94748
G01 X5.32534 Y1.95142
G01 X5.32534 Y1.95535
G01 X5.32649 Y1.95651
G01 X5.32534 Y1.95535
G01 X5.29263 Y1.95540
G01 X5.29169 Y1.95525
G01 X5.28835 Y1.95407
G01 X5.28563 Y1.95201
G01 X5.28357 Y1.94929
G01 X5.28239 Y1.94595
G01 X5.28224 Y1.94501
G01 X5.28229 Y1.91230
G01 X5.28113 Y1.91115
G01 X5.28229 Y1.91230
G01 X5.28622 Y1.91230
G01 X5.28737 Y1.91115
G01 X5.28622 Y1.91230
G01 X5.28622 Y1.94354
G01 X5.28637 Y1.94508
G01 X5.28682 Y1.94656
G01 X5.28755 Y1.94792
G01 X5.28853 Y1.94911
G01 X5.28972 Y1.95009
G01 X5.29108 Y1.95082
G01 X5.29256 Y1.95127
G01 X5.29410 Y1.95142
G01 X5.32534 Y1.95142
G04 P0 ( dwell for no time -- G64 should not smooth over this point )
G00 Z0.07874 ( retract )

G00 X5.93351 Y2.51077 ( rapid move to begin. )
G01 F17.71654
( Mill infeed pass 1/1 )
G01 Z-0.00500
G04 P0 ( dwell for no time -- G64 should not smooth over this point )
G01 F35.43307
G01 X5.93351 Y2.51077
G01 X5.93351 Y2.50923
G01 X5.93059 Y2.48005
G01 X5.92212 Y2.45197
G01 X5.92153 Y2.45054
G01 X5.90767 Y2.42469
G01 X5.88909 Y2.40200
G01 X5.88800 Y2.40091
G01 X5.86593 Y2.38279
G01 X5.86464 Y2.38194
G01 X5.83946 Y2.36847
G01 X5.83803 Y2.36788
G01 X5.81071 Y2.35959
G01 X5.80919 Y2.35929
G01 X5.78000 Y2.35646
G01 X5.75081 Y2.35929
G01 X5.74930 Y2.35959
G01 X5.72197 Y2.36788
G01 X5.72054 Y2.36847
G01 X5.69470 Y2.38233
G01 X5.67200 Y2.40091
G01 X5.67091 Y2.40200
G01 X5.65233 Y2.42469
G01 X5.63848 Y2.45054
G01 X5.63789 Y2.45197
G01 X5.62941 Y2.48005
G01 X5.62650 Y2.50923
G01 X5.62650 Y2.51077
G01 X5.62941 Y2.53995
G01 X5.63789 Y2.56803
G01 X5.63848 Y2.56946
G01 X5.65233 Y2.59530
G01 X5.67091 Y2.61800
G01 X5.67200 Y2.61909
G01 X5.69470 Y2.63767
G01 X5.72054 Y2.65152
G01 X5.72197 Y2.65211
G01 X5.74930 Y2.66040
G01 X5.75081 Y2.66071
G01 X5.77923 Y2.66350
G01 X5.78077 Y2.66350
G01 X5.80919 Y2.66071
G01 X5.81071 Y2.66040
G01 X5.83803 Y2.65211
G01 X5.83946 Y2.65152
G01 X5.86531 Y2.63767
G01 X5.88800 Y2.61909
G01 X5.88909 Y2.61800
G01 X5.90721 Y2.59592
G01 X5.90806 Y2.59464
G01 X5.92153 Y2.56946
G01 X5.92212 Y2.56803
G01 X5.93041 Y2.54070
G01 X5.93071 Y2.53919
G01 X5.93351 Y2.51077
G01 X5.92961 Y2.51000
G01 X5.92679 Y2.48120
G01 X5.91835 Y2.45311
G01 X5.90439 Y2.42688
G01 X5.88550 Y2.40395
G01 X5.86312 Y2.38561
G01 X5.83760 Y2.37195
G01 X5.80881 Y2.36321
G01 X5.77962 Y2.36041
G01 X5.75120 Y2.36321
G01 X5.72311 Y2.37165
G01 X5.69688 Y2.38561
G01 X5.67395 Y2.40450
G01 X5.65561 Y2.42688
G01 X5.64195 Y2.45240
G01 X5.63321 Y2.48120
G01 X5.63041 Y2.51038
G01 X5.63321 Y2.53880
G01 X5.64165 Y2.56689
G01 X5.65561 Y2.59312
G01 X5.67450 Y2.61605
G01 X5.69688 Y2.63439
G01 X5.72240 Y2.64805
G01 X5.75120 Y2.65679
G01 X5.78039 Y2.65959
G01 X5.80881 Y2.65679
G01 X5.83689 Y2.64835
G01 X5.86312 Y2.63439
G01 X5.88579 Y2.61579
G01 X5.90439 Y2.59312
G01 X5.91835 Y2.56689
G01 X5.92679 Y2.53880
G01 X5.92961 Y2.51000
G01 X5.93770 Y2.51000
G01 X5.93694 Y2.52546
G01 X5.93467 Y2.54076
G01 X5.93091 Y2.55578
G01 X5.92569 Y2.57035
G01 X5.91908 Y2.58433
G01 X5.91112 Y2.59761
G01 X5.90190 Y2.61004
G01 X5.89151 Y2.62151
G01 X5.88004 Y2.63190
G01 X5.86761 Y2.64112
G01 X5.85434 Y2.64907
G01 X5.84035 Y2.65569
G01 X5.82578 Y2.66090
G01 X5.81077 Y2.66466
G01 X5.79546 Y2.66694
G01 X5.78000 Y2.66769
G01 X5.76454 Y2.66693
G01 X5.74924 Y2.66466
G01 X5.73423 Y2.66090
G01 X5.71966 Y2.65569
G01 X5.70567 Y2.64907
G01 X5.69239 Y2.64111
G01 X5.67996 Y2.63189
G01 X5.66850 Y2.62150
G01 X5.65811 Y2.61004
G01 X5.64889 Y2.59761
G01 X5.64093 Y2.58433
G01 X5.63432 Y2.57035
G01 X5.62910 Y2.55577
G01 X5.62534 Y2.54076
G01 X5.62307 Y2.52546
G01 X5.62231 Y2.51000
G01 X5.62307 Y2.49454
G01 X5.62534 Y2.47924
G01 X5.62910 Y2.46422
G01 X5.63432 Y2.44965
G01 X5.64093 Y2.43567
G01 X5.64889 Y2.42239
G01 X5.65811 Y2.40996
G01 X5.66850 Y2.39850
G01 X5.67996 Y2.38810
G01 X5.69239 Y2.37888
G01 X5.70567 Y2.37093
G01 X5.71966 Y2.36431
G01 X5.73423 Y2.35910
G01 X5.74924 Y2.35534
G01 X5.76454 Y2.35307
G01 X5.78000 Y2.35231
G01 X5.79546 Y2.35306
G01 X5.81077 Y2.35533
G01 X5.82578 Y2.35909
G01 X5.84035 Y2.36431
G01 X5.85434 Y2.37093
G01 X5.86761 Y2.37888
G01 X5.88004 Y2.38810
G01 X5.89151 Y2.39849
G01 X5.90190 Y2.40996
G01 X5.91112 Y2.42239
G01 X5.91908 Y2.43566
G01 X5.92569 Y2.44965
G01 X5.93091 Y2.46422
G01 X5.93467 Y2.47923
G01 X5.93694 Y2.49454
G01 X5.93770 Y2.51000
G01 X5.94163 Y2.51000
G01 X5.94085 Y2.52584
G01 X5.93853 Y2.54153
G01 X5.93467 Y2.55692
G01 X5.92933 Y2.57185
G01 X5.92255 Y2.58619
G01 X5.91439 Y2.59980
G01 X5.90494 Y2.61254
G01 X5.89429 Y2.62429
G01 X5.88254 Y2.63494
G01 X5.86980 Y2.64439
G01 X5.85619 Y2.65254
G01 X5.84186 Y2.65933
G01 X5.82692 Y2.66467
G01 X5.81153 Y2.66852
G01 X5.79584 Y2.67085
G01 X5.78000 Y2.67163
G01 X5.76416 Y2.67085
G01 X5.74847 Y2.66852
G01 X5.73308 Y2.66467
G01 X5.71815 Y2.65933
G01 X5.70381 Y2.65254
G01 X5.69020 Y2.64439
G01 X5.67746 Y2.63494
G01 X5.66571 Y2.62429
G01 X5.65506 Y2.61254
G01 X5.64561 Y2.59980
G01 X5.63746 Y2.58619
G01 X5.63067 Y2.57185
G01 X5.62533 Y2.55692
G01 X5.62148 Y2.54153
G01 X5.61915 Y2.52584
G01 X5.61837 Y2.51000
G01 X5.61915 Y2.49416
G01 X5.62148 Y2.47847
G01 X5.62533 Y2.46308
G01 X5.63067 Y2.44814
G01 X5.63746 Y2.43381
G01 X5.64561 Y2.42020
G01 X5.65506 Y2.40746
G01 X5.66571 Y2.39571
G01 X5.67746 Y2.38506
G01 X5.69020 Y2.37561
G01 X5.70381 Y2.36745
G01 X5.71815 Y2.36067
G01 X5.73308 Y2.35533
G01 X5.74847 Y2.35147
G01 X5.76416 Y2.34915
G01 X5.78000 Y2.34837
G01 X5.79584 Y2.34915
G01 X5.81153 Y2.35147
G01 X5.82692 Y2.35533
G01 X5.84186 Y2.36067
G01 X5.85619 Y2.36745
G01 X5.86980 Y2.37561
G01 X5.88254 Y2.38506
G01 X5.89429 Y2.39571
G01 X5.90494 Y2.40746
G01 X5.91439 Y2.42020
G01 X5.92255 Y2.43381
G01 X5.92933 Y2.44815
G01 X5.93467 Y2.46308
G01 X5.93853 Y2.47847
G01 X5.94085 Y2.49416
G01 X5.94163 Y2.51000
G04 P0 ( dwell for no time -- G64 should not smooth over this point )
G00 Z0.07874 ( retract )

G00 X5.42008 Y2.86836 ( rapid move to begin. )
G01 F17.71654
( Mill infeed pass 1/1 )
G01 Z-0.00500
G04 P0 ( dwell for no time -- G64 should not smooth over this point )
G01 F35.43307
G01 X5.42008 Y2.86836
G01 X5.40827 Y2.86836
G01 X5.40827 Y2.90354
G01 X5.40797 Y2.90505
G01 X5.40712 Y2.90633
G01 X5.40584 Y2.90718
G01 X5.40433 Y2.90748
G01 X5.36915 Y2.90748
G01 X5.36915 Y2.91929
G01 X5.40600 Y2.91929
G01 X5.40765 Y2.91911
G01 X5.41196 Y2.91751
G01 X5.41558 Y2.91479
G01 X5.41830 Y2.91117
G01 X5.41990 Y2.90686
G01 X5.42008 Y2.90521
G01 X5.42008 Y2.86836
G01 X5.41614 Y2.87230
G01 X5.41221 Y2.87230
G01 X5.41105 Y2.87114
G01 X5.41221 Y2.87230
G01 X5.41221 Y2.90354
G01 X5.41205 Y2.90508
G01 X5.41161 Y2.90656
G01 X5.41088 Y2.90792
G01 X5.40990 Y2.90911
G01 X5.40871 Y2.91009
G01 X5.40734 Y2.91082
G01 X5.40587 Y2.91127
G01 X5.40433 Y2.91142
G01 X5.37309 Y2.91142
G01 X5.37193 Y2.91026
G01 X5.37309 Y2.91142
G01 X5.37309 Y2.91535
G01 X5.37193 Y2.91651
G01 X5.37309 Y2.91535
G01 X5.40675 Y2.91531
G01 X5.41007 Y2.91405
G01 X5.41280 Y2.91201
G01 X5.41486 Y2.90929
G01 X5.41604 Y2.90595
G01 X5.41619 Y2.90501
G01 X5.41614 Y2.87230
G04 P0 ( dwell for no time -- G64 should not smooth over this point )
G00 Z0.07874 ( retract )

G00 X5.32534 Y2.91142 ( rapid move to begin. )
G01 F17.71654
( Mill infeed pass 1/1 )
G01 Z-0.00500
G04 P0 ( dwell for no time -- G64 should not smooth over this point )
G01 F35.43307
G01 X5.32534 Y2.91142
G01 X5.29410 Y2.91142
G01 X5.29256 Y2.91127
G01 X5.29108 Y2.91082
G01 X5.28972 Y2.91009
G01 X5.28853 Y2.90911
G01 X5.28755 Y2.90792
G01 X5.28682 Y2.90656
G01 X5.28637 Y2.90508
G01 X5.28622 Y2.90354
G01 X5.28622 Y2.87230
G01 X5.28737 Y2.87114
G01 X5.28622 Y2.87230
G01 X5.28229 Y2.87230
G01 X5.28113 Y2.87114
G01 X5.28229 Y2.87230
G01 X5.28224 Y2.90501
G01 X5.28239 Y2.90595
G01 X5.28357 Y2.90929
G01 X5.28563 Y2.91201
G01 X5.28835 Y2.91407
G01 X5.29169 Y2.91525
G01 X5.29263 Y2.91540
G01 X5.32534 Y2.91535
G01 X5.32649 Y2.91651
G01 X5.32534 Y2.91535
G01 X5.32534 Y2.91142
G01 X5.32928 Y2.90748
G01 X5.32928 Y2.91929
G01 X5.29242 Y2.91929
G01 X5.29078 Y2.91911
G01 X5.28647 Y2.91751
G01 X5.28285 Y2.91479
G01 X5.28013 Y2.91117
G01 X5.27852 Y2.90686
G01 X5.27835 Y2.90521
G01 X5.27835 Y2.86836
G01 X5.29016 Y2.86836
G01 X5.29016 Y2.90354
G01 X5.29023 Y2.90431
G01 X5.29082 Y2.90573
G01 X5.29191 Y2.90682
G01 X5.29259 Y2.90718
G01 X5.29410 Y2.90748
G01 X5.32928 Y2.90748
G04 P0 ( dwell for no time -- G64 should not smooth over this point )
G00 Z0.07874 ( retract )

G00 X5.41614 Y2.79184 ( rapid move to begin. )
G01 F17.71654
( Mill infeed pass 1/1 )
G01 Z-0.00500
G04 P0 ( dwell for no time -- G64 should not smooth over this point )
G01 F35.43307
G01 X5.41614 Y2.79184
G01 X5.41614 Y2.82455
G01 X5.41730 Y2.82570
G01 X5.41614 Y2.82455
G01 X5.41221 Y2.82455
G01 X5.41105 Y2.82570
G01 X5.41221 Y2.82455
G01 X5.41221 Y2.79331
G01 X5.41205 Y2.79177
G01 X5.41161 Y2.79029
G01 X5.41088 Y2.78893
G01 X5.40990 Y2.78774
G01 X5.40871 Y2.78676
G01 X5.40734 Y2.78603
G01 X5.40587 Y2.78558
G01 X5.40433 Y2.78543
G01 X5.37309 Y2.78543
G01 X5.37193 Y2.78659
G01 X5.37309 Y2.78543
G01 X5.37309 Y2.78150
G01 X5.37193 Y2.78034
G01 X5.37309 Y2.78150
G01 X5.40675 Y2.78153
G01 X5.41007 Y2.78280
G01 X5.41280 Y2.78484
G01 X5.41486 Y2.78756
G01 X5.41604 Y2.79090
G01 X5.41614 Y2.79184
G01 X5.42008 Y2.79163
G01 X5.42008 Y2.82849
G01 X5.40827 Y2.82849
G01 X5.40827 Y2.79331
G01 X5.40819 Y2.79254
G01 X5.40761 Y2.79112
G01 X5.40652 Y2.79003
G01 X5.40584 Y2.78967
G01 X5.40433 Y2.78937
G01 X5.36915 Y2.78937
G01 X5.36915 Y2.77756
G01 X5.40600 Y2.77756
G01 X5.40765 Y2.77773
G01 X5.41196 Y2.77934
G01 X5.41558 Y2.78206
G01 X5.41830 Y2.78568
G01 X5.41990 Y2.78999
G01 X5.42008 Y2.79163
G04 P0 ( dwell for no time -- G64 should not smooth over this point )
G00 Z0.07874 ( retract )

G00 X5.32534 Y2.43142 ( rapid move to begin. )
G01 F17.71654
( Mill infeed pass 1/1 )
G01 Z-0.00500
G04 P0 ( dwell for no time -- G64 should not smooth over this point )
G01 F35.43307
G01 X5.32534 Y2.43142
G01 X5.29410 Y2.43142
G01 X5.29256 Y2.43127
G01 X5.29108 Y2.43082
G01 X5.28972 Y2.43009
G01 X5.28853 Y2.42911
G01 X5.28755 Y2.42792
G01 X5.28682 Y2.42656
G01 X5.28637 Y2.42508
G01 X5.28622 Y2.42354
G01 X5.28622 Y2.39230
G01 X5.28737 Y2.39114
G01 X5.28622 Y2.39230
G01 X5.28229 Y2.39230
G01 X5.28113 Y2.39114
G01 X5.28229 Y2.39230
G01 X5.28224 Y2.42501
G01 X5.28239 Y2.42595
G01 X5.28357 Y2.42929
G01 X5.28563 Y2.43201
G01 X5.28835 Y2.43407
G01 X5.29169 Y2.43525
G01 X5.29263 Y2.43540
G01 X5.32534 Y2.43535
G01 X5.32649 Y2.43651
G01 X5.32534 Y2.43535
G01 X5.32534 Y2.43142
G01 X5.32928 Y2.42748
G01 X5.32928 Y2.43929
G01 X5.29242 Y2.43929
G01 X5.29078 Y2.43911
G01 X5.28647 Y2.43751
G01 X5.28285 Y2.43479
G01 X5.28013 Y2.43117
G01 X5.27852 Y2.42686
G01 X5.27835 Y2.42521
G01 X5.27835 Y2.38836
G01 X5.29016 Y2.38836
G01 X5.29016 Y2.42354
G01 X5.29023 Y2.42431
G01 X5.29082 Y2.42573
G01 X5.29191 Y2.42682
G01 X5.29259 Y2.42718
G01 X5.29410 Y2.42748
G01 X5.32928 Y2.42748
G04 P0 ( dwell for no time -- G64 should not smooth over this point )
G00 Z0.07874 ( retract )

G00 X5.41614 Y2.39230 ( rapid move to begin. )
G01 F17.71654
( Mill infeed pass 1/1 )
G01 Z-0.00500
G04 P0 ( dwell for no time -- G64 should not smooth over this point )
G01 F35.43307
G01 X5.41614 Y2.39230
G01 X5.41619 Y2.42501
G01 X5.41604 Y2.42595
G01 X5.41486 Y2.42929
G01 X5.41280 Y2.43201
G01 X5.41007 Y2.43405
G01 X5.40675 Y2.43531
G01 X5.37309 Y2.43535
G01 X5.37193 Y2.43651
G01 X5.37309 Y2.43535
G01 X5.37309 Y2.43142
G01 X5.37193 Y2.43026
G01 X5.37309 Y2.43142
G01 X5.40433 Y2.43142
G01 X5.40587 Y2.43127
G01 X5.40734 Y2.43082
G01 X5.40871 Y2.43009
G01 X5.40990 Y2.42911
G01 X5.41088 Y2.42792
G01 X5.41161 Y2.42656
G01 X5.41205 Y2.42508
G01 X5.41221 Y2.42354
G01 X5.41221 Y2.39230
G01 X5.41105 Y2.39114
G01 X5.41221 Y2.39230
G01 X5.41614 Y2.39230
G01 X5.42008 Y2.38836
G01 X5.42008 Y2.42521
G01 X5.41990 Y2.42686
G01 X5.41830 Y2.43117
G01 X5.41558 Y2.43479
G01 X5.41196 Y2.43751
G01 X5.40765 Y2.43911
G01 X5.40600 Y2.43929
G01 X5.36915 Y2.43929
G01 X5.36915 Y2.42748
G01 X5.40433 Y2.42748
G01 X5.40584 Y2.42718
G01 X5.40712 Y2.42633
G01 X5.40797 Y2.42505
G01 X5.40827 Y2.42354
G01 X5.40827 Y2.38836
G01 X5.42008 Y2.38836
G04 P0 ( dwell for no time -- G64 should not smooth over this point )
G00 Z0.07874 ( retract )

G00 X5.42008 Y2.31163 ( rapid move to begin. )
G01 F17.71654
( Mill infeed pass 1/1 )
G01 Z-0.00500
G04 P0 ( dwell for no time -- G64 should not smooth over this point )
G01 F35.43307
G01 X5.42008 Y2.31163
G01 X5.41990 Y2.30999
G01 X5.41830 Y2.30568
G01 X5.41558 Y2.30206
G01 X5.41196 Y2.29934
G01 X5.40765 Y2.29773
G01 X5.40600 Y2.29756
G01 X5.36915 Y2.29756
G01 X5.36915 Y2.30937
G01 X5.40433 Y2.30937
G01 X5.40584 Y2.30967
G01 X5.40652 Y2.31003
G01 X5.40761 Y2.31112
G01 X5.40819 Y2.31254
G01 X5.40827 Y2.31331
G01 X5.40827 Y2.34849
G01 X5.42008 Y2.34849
G01 X5.42008 Y2.31163
G01 X5.41614 Y2.31184
G01 X5.41604 Y2.31090
G01 X5.41486 Y2.30756
G01 X5.41280 Y2.30484
G01 X5.41007 Y2.30280
G01 X5.40675 Y2.30153
G01 X5.37309 Y2.30150
G01 X5.37193 Y2.30034
G01 X5.37309 Y2.30150
G01 X5.37309 Y2.30543
G01 X5.37193 Y2.30659
G01 X5.37309 Y2.30543
G01 X5.40433 Y2.30543
G01 X5.40587 Y2.30558
G01 X5.40734 Y2.30603
G01 X5.40871 Y2.30676
G01 X5.40990 Y2.30774
G01 X5.41088 Y2.30893
G01 X5.41161 Y2.31029
G01 X5.41205 Y2.31177
G01 X5.41221 Y2.31331
G01 X5.41221 Y2.34455
G01 X5.41105 Y2.34570
G01 X5.41221 Y2.34455
G01 X5.41614 Y2.34455
G01 X5.41730 Y2.34570
G01 X5.41614 Y2.34455
G01 X5.41614 Y2.31184
G04 P0 ( dwell for no time -- G64 should not smooth over this point )
G00 Z0.07874 ( retract )

G00 X5.32928 Y2.29756 ( rapid move to begin. )
G01 F17.71654
( Mill infeed pass 1/1 )
G01 Z-0.00500
G04 P0 ( dwell for no time -- G64 should not smooth over this point )
G01 F35.43307
G01 X5.32928 Y2.29756
G01 X5.29242 Y2.29756
G01 X5.29078 Y2.29773
G01 X5.28647 Y2.29934
G01 X5.28285 Y2.30206
G01 X5.28013 Y2.30568
G01 X5.27852 Y2.30999
G01 X5.27835 Y2.31163
G01 X5.27835 Y2.34849
G01 X5.29016 Y2.34849
G01 X5.29016 Y2.31331
G01 X5.29046 Y2.31180
G01 X5.29131 Y2.31052
G01 X5.29259 Y2.30967
G01 X5.29410 Y2.30937
G01 X5.32928 Y2.30937
G01 X5.32928 Y2.29756
G01 X5.32534 Y2.30150
G01 X5.29168 Y2.30153
G01 X5.28836 Y2.30280
G01 X5.28563 Y2.30484
G01 X5.28357 Y2.30756
G01 X5.28239 Y2.31090
G01 X5.28224 Y2.31184
G01 X5.28229 Y2.34455
G01 X5.28113 Y2.34570
G01 X5.28229 Y2.34455
G01 X5.28622 Y2.34455
G01 X5.28737 Y2.34570
G01 X5.28622 Y2.34455
G01 X5.28622 Y2.31331
G01 X5.28637 Y2.31177
G01 X5.28682 Y2.31029
G01 X5.28755 Y2.30893
G01 X5.28853 Y2.30774
G01 X5.28972 Y2.30676
G01 X5.29108 Y2.30603
G01 X5.29256 Y2.30558
G01 X5.29410 Y2.30543
G01 X5.32534 Y2.30543
G01 X5.32649 Y2.30659
G01 X5.32534 Y2.30543
G01 X5.32534 Y2.30150
G04 P0 ( dwell for no time -- G64 should not smooth over this point )
G00 Z0.07874 ( retract )

G00 X4.65134 Y2.88653 ( rapid move to begin. )
G01 F17.71654
( Mill infeed pass 1/1 )
G01 Z-0.00500
G04 P0 ( dwell for no time -- G64 should not smooth over this point )
G01 F35.43307
G01 X4.65134 Y2.88653
G01 X4.65119 Y2.88500
G01 X4.65074 Y2.88352
G01 X4.65001 Y2.88216
G01 X4.64903 Y2.88097
G01 X4.64784 Y2.87999
G01 X4.64648 Y2.87926
G01 X4.64500 Y2.87881
G01 X4.64347 Y2.87866
G01 X4.62588 Y2.87866
G01 X4.62473 Y2.87979
G01 X4.62588 Y2.87866
G01 X4.62588 Y2.73000
G01 X4.62510 Y2.72509
G01 X4.62284 Y2.72067
G01 X4.26088 Y2.35842
G01 X4.26058 Y2.35855
G01 X4.26088 Y2.35842
G01 X4.26088 Y2.25025
G01 X4.26030 Y2.24553
G01 X4.26030 Y2.17860
G01 X4.26088 Y2.17388
G01 X4.26088 Y2.12186
G01 X4.26032 Y2.11297
G01 X4.26065 Y2.10450
G01 X4.26088 Y2.10226
G01 X4.26088 Y2.02186
G01 X4.26032 Y2.01297
G01 X4.26065 Y2.00449
G01 X4.26088 Y2.00226
G01 X4.26088 Y1.92186
G01 X4.26032 Y1.91297
G01 X4.26065 Y1.90450
G01 X4.26088 Y1.90226
G01 X4.26088 Y1.87864
G01 X4.26059 Y1.87852
G01 X4.26088 Y1.87864
G01 X4.28926 Y1.85025
G01 X4.28911 Y1.84961
G01 X4.28926 Y1.85025
G01 X4.28991 Y1.85051
G01 X4.29694 Y1.85261
G01 X4.30423 Y1.85336
G01 X4.30577 Y1.85336
G01 X4.31306 Y1.85261
G01 X4.32009 Y1.85051
G01 X4.32152 Y1.84992
G01 X4.32797 Y1.84643
G01 X4.33366 Y1.84181
G01 X4.33475 Y1.84072
G01 X4.33937 Y1.83503
G01 X4.34286 Y1.82858
G01 X4.34313 Y1.82794
G01 X4.34279 Y1.82737
G01 X4.34313 Y1.82794
G01 X4.56683 Y1.82794
G01 X4.56717 Y1.82738
G01 X4.56683 Y1.82794
G01 X4.56714 Y1.82858
G01 X4.57023 Y1.83437
G01 X4.57109 Y1.83565
G01 X4.57525 Y1.84072
G01 X4.57634 Y1.84181
G01 X4.58141 Y1.84597
G01 X4.58270 Y1.84683
G01 X4.58848 Y1.84992
G01 X4.58991 Y1.85051
G01 X4.59694 Y1.85261
G01 X4.60423 Y1.85336
G01 X4.60577 Y1.85336
G01 X4.61307 Y1.85261
G01 X4.62009 Y1.85051
G01 X4.62152 Y1.84992
G01 X4.62797 Y1.84643
G01 X4.63366 Y1.84181
G01 X4.63475 Y1.84072
G01 X4.63891 Y1.83565
G01 X4.63977 Y1.83437
G01 X4.64286 Y1.82858
G01 X4.64345 Y1.82715
G01 X4.64536 Y1.82088
G01 X4.64566 Y1.81936
G01 X4.64630 Y1.81283
G01 X4.64630 Y1.81129
G01 X4.64555 Y1.80400
G01 X4.64345 Y1.79697
G01 X4.64286 Y1.79554
G01 X4.63977 Y1.78976
G01 X4.63891 Y1.78848
G01 X4.63475 Y1.78340
G01 X4.63366 Y1.78231
G01 X4.62814 Y1.77782
G01 X4.62152 Y1.77420
G01 X4.62009 Y1.77361
G01 X4.61307 Y1.77152
G01 X4.60577 Y1.77076
G01 X4.60423 Y1.77076
G01 X4.59770 Y1.77140
G01 X4.59619 Y1.77171
G01 X4.58991 Y1.77361
G01 X4.58848 Y1.77420
G01 X4.58203 Y1.77769
G01 X4.57634 Y1.78231
G01 X4.57525 Y1.78340
G01 X4.57109 Y1.78848
G01 X4.57023 Y1.78976
G01 X4.56714 Y1.79554
G01 X4.56684 Y1.79619
G01 X4.56717 Y1.79675
G01 X4.56684 Y1.79619
G01 X4.34313 Y1.79619
G01 X4.34280 Y1.79674
G01 X4.34313 Y1.79619
G01 X4.34286 Y1.79554
G01 X4.33937 Y1.78910
G01 X4.33475 Y1.78340
G01 X4.33366 Y1.78231
G01 X4.32797 Y1.77769
G01 X4.32152 Y1.77420
G01 X4.32009 Y1.77361
G01 X4.31306 Y1.77152
G01 X4.30577 Y1.77076
G01 X4.30423 Y1.77076
G01 X4.29694 Y1.77152
G01 X4.28991 Y1.77361
G01 X4.28848 Y1.77420
G01 X4.28203 Y1.77769
G01 X4.27634 Y1.78231
G01 X4.27525 Y1.78340
G01 X4.27063 Y1.78910
G01 X4.26714 Y1.79554
G01 X4.26655 Y1.79697
G01 X4.26446 Y1.80400
G01 X4.26370 Y1.81129
G01 X4.26370 Y1.81283
G01 X4.26446 Y1.82013
G01 X4.26655 Y1.82716
G01 X4.26682 Y1.82780
G01 X4.26743 Y1.82796
G01 X4.26682 Y1.82780
G01 X4.23326 Y1.86141
G01 X4.23260 Y1.86221
G01 X4.23212 Y1.86379
G01 X4.23143 Y1.86688
G01 X4.23106 Y1.86985
G01 X4.23097 Y2.36496
G01 X4.23120 Y2.36853
G01 X4.23217 Y2.37339
G01 X4.23264 Y2.37493
G01 X4.23378 Y2.37622
G01 X4.59413 Y2.73658
G01 X4.59443 Y2.73645
G01 X4.59413 Y2.73658
G01 X4.59413 Y2.87866
G01 X4.59527 Y2.87979
G01 X4.59413 Y2.87866
G01 X4.57654 Y2.87866
G01 X4.57500 Y2.87881
G01 X4.57352 Y2.87926
G01 X4.57216 Y2.87999
G01 X4.57097 Y2.88097
G01 X4.56999 Y2.88216
G01 X4.56926 Y2.88352
G01 X4.56881 Y2.88500
G01 X4.56866 Y2.88653
G01 X4.56866 Y2.95346
G01 X4.56881 Y2.95500
G01 X4.56926 Y2.95648
G01 X4.56999 Y2.95784
G01 X4.57097 Y2.95903
G01 X4.57216 Y2.96001
G01 X4.57352 Y2.96074
G01 X4.57500 Y2.96119
G01 X4.57654 Y2.96134
G01 X4.64347 Y2.96134
G01 X4.64500 Y2.96119
G01 X4.64648 Y2.96074
G01 X4.64784 Y2.96001
G01 X4.64903 Y2.95903
G01 X4.65001 Y2.95784
G01 X4.65074 Y2.95648
G01 X4.65119 Y2.95500
G01 X4.65134 Y2.95346
G01 X4.65134 Y2.88653
G01 X4.64740 Y2.88653
G01 X4.64740 Y2.95346
G01 X4.64710 Y2.95497
G01 X4.64625 Y2.95625
G01 X4.64497 Y2.95710
G01 X4.64347 Y2.95740
G01 X4.57654 Y2.95740
G01 X4.57503 Y2.95710
G01 X4.57375 Y2.95625
G01 X4.57326 Y2.95565
G01 X4.57268 Y2.95423
G01 X4.57260 Y2.88653
G01 X4.57290 Y2.88503
G01 X4.57326 Y2.88435
G01 X4.57435 Y2.88326
G01 X4.57503 Y2.88290
G01 X4.57654 Y2.88260
G01 X4.59806 Y2.88260
G01 X4.59806 Y2.73494
G01 X4.23656 Y2.37344
G01 X4.23526 Y2.37189
G01 X4.23365 Y2.36869
G01 X4.23306 Y2.36500
G01 X4.23308 Y1.87168
G01 X4.23329 Y1.86973
G01 X4.23414 Y1.86714
G01 X4.23508 Y1.86543
G01 X4.23630 Y1.86391
G01 X4.27160 Y1.82858
G01 X4.27032 Y1.82601
G01 X4.26832 Y1.81936
G01 X4.26762 Y1.81168
G01 X4.26832 Y1.80477
G01 X4.27032 Y1.79811
G01 X4.27390 Y1.79128
G01 X4.27884 Y1.78536
G01 X4.28422 Y1.78096
G01 X4.29034 Y1.77767
G01 X4.29770 Y1.77538
G01 X4.30462 Y1.77468
G01 X4.31230 Y1.77538
G01 X4.31895 Y1.77738
G01 X4.32545 Y1.78077
G01 X4.33116 Y1.78536
G01 X4.33587 Y1.79097
G01 X4.33939 Y1.79740
G01 X4.34030 Y1.80012
G01 X4.56971 Y1.80012
G01 X4.57061 Y1.79740
G01 X4.57413 Y1.79097
G01 X4.57884 Y1.78536
G01 X4.58422 Y1.78096
G01 X4.59105 Y1.77738
G01 X4.59770 Y1.77538
G01 X4.60462 Y1.77468
G01 X4.61267 Y1.77547
G01 X4.61966 Y1.77767
G01 X4.62578 Y1.78096
G01 X4.63116 Y1.78536
G01 X4.63587 Y1.79097
G01 X4.63969 Y1.79811
G01 X4.64174 Y1.80515
G01 X4.64238 Y1.81168
G01 X4.64174 Y1.81898
G01 X4.63969 Y1.82601
G01 X4.63630 Y1.83251
G01 X4.63171 Y1.83822
G01 X4.62578 Y1.84316
G01 X4.61966 Y1.84645
G01 X4.61230 Y1.84875
G01 X4.60539 Y1.84945
G01 X4.59770 Y1.84875
G01 X4.59105 Y1.84675
G01 X4.58455 Y1.84336
G01 X4.57884 Y1.83877
G01 X4.57413 Y1.83315
G01 X4.57061 Y1.82672
G01 X4.56971 Y1.82400
G01 X4.34030 Y1.82400
G01 X4.33939 Y1.82672
G01 X4.33610 Y1.83284
G01 X4.33171 Y1.83822
G01 X4.32578 Y1.84316
G01 X4.31966 Y1.84645
G01 X4.31230 Y1.84875
G01 X4.30462 Y1.84945
G01 X4.29770 Y1.84875
G01 X4.29105 Y1.84675
G01 X4.28848 Y1.84546
G01 X4.25694 Y1.87701
G01 X4.25694 Y2.36006
G01 X4.61966 Y2.72298
G01 X4.62135 Y2.72631
G01 X4.62194 Y2.73000
G01 X4.62194 Y2.88260
G01 X4.64423 Y2.88267
G01 X4.64565 Y2.88326
G01 X4.64625 Y2.88375
G01 X4.64710 Y2.88503
G01 X4.64740 Y2.88653
G04 P0 ( dwell for no time -- G64 should not smooth over this point )
G00 Z0.07874 ( retract )

G00 X4.19006 Y2.87500 ( rapid move to begin. )
G01 F17.71654
( Mill infeed pass 1/1 )
G01 Z-0.00500
G04 P0 ( dwell for no time -- G64 should not smooth over this point )
G01 F35.43307
G01 X4.19006 Y2.87500
G01 X4.18530 Y2.87722
G01 X4.17825 Y2.88216
G01 X4.17216 Y2.88824
G01 X4.16722 Y2.89530
G01 X4.16500 Y2.90006
G01 X4.17843 Y2.90006
G01 X4.17913 Y2.89891
G01 X4.18355 Y2.89355
G01 X4.18891 Y2.88913
G01 X4.19006 Y2.88843
G01 X4.19006 Y2.87500
G01 X4.18825 Y2.87737
G01 X4.18613 Y2.88144
G01 X4.18613 Y2.88632
G01 X4.18650 Y2.88650
G01 X4.18613 Y2.88632
G01 X4.18077 Y2.89077
G01 X4.17632 Y2.89613
G01 X4.17650 Y2.89650
G01 X4.17632 Y2.89613
G01 X4.17145 Y2.89613
G01 X4.16738 Y2.89825
G01 X4.17145 Y2.89613
G01 X4.17517 Y2.89078
G01 X4.18078 Y2.88517
G01 X4.18613 Y2.88144
G04 P0 ( dwell for no time -- G64 should not smooth over this point )
G00 Z0.07874 ( retract )

G00 X3.54193 Y3.00205 ( rapid move to begin. )
G01 F17.71654
( Mill infeed pass 1/1 )
G01 Z-0.00500
G04 P0 ( dwell for no time -- G64 should not smooth over this point )
G01 F35.43307
G01 X3.54193 Y3.00205
G01 X3.53607 Y2.99962
G01 X3.50322 Y2.96678
G01 X3.49897 Y2.96166
G01 X3.49873 Y2.96134
G01 X3.49890 Y2.96100
G01 X3.49873 Y2.96134
G01 X3.49654 Y2.96134
G01 X3.49500 Y2.96119
G01 X3.49318 Y2.96056
G01 X3.49234 Y2.96010
G01 X3.49097 Y2.95903
G01 X3.48990 Y2.95766
G01 X3.48947 Y2.95687
G01 X3.48880 Y2.95487
G01 X3.48866 Y2.95346
G01 X3.48866 Y2.88653
G01 X3.48880 Y2.88513
G01 X3.48947 Y2.88313
G01 X3.48990 Y2.88233
G01 X3.49097 Y2.88097
G01 X3.49233 Y2.87990
G01 X3.49326 Y2.87940
G01 X3.49500 Y2.87881
G01 X3.49654 Y2.87866
G01 X3.56347 Y2.87866
G01 X3.56500 Y2.87881
G01 X3.56581 Y2.87906
G01 X3.56674 Y2.87940
G01 X3.56833 Y2.88039
G01 X3.56961 Y2.88167
G01 X3.57060 Y2.88327
G01 X3.57119 Y2.88500
G01 X3.57134 Y2.88653
G01 X3.57134 Y2.92778
G01 X3.57104 Y2.92790
G01 X3.57134 Y2.92778
G01 X3.63069 Y2.98712
G01 X3.63056 Y2.98742
G01 X3.63069 Y2.98712
G01 X4.96010 Y2.98712
G01 X4.96023 Y2.98742
G01 X4.96010 Y2.98712
G01 X5.28151 Y2.66572
G01 X5.28314 Y2.66572
G01 X5.28151 Y2.66572
G01 X5.07908 Y2.46328
G01 X5.07356 Y2.45687
G01 X5.06874 Y2.44917
G01 X5.06479 Y2.43965
G01 X5.06277 Y2.43080
G01 X5.06213 Y2.42236
G01 X5.06213 Y2.26994
G01 X5.06328 Y2.26878
G01 X5.06213 Y2.26994
G01 X4.32154 Y2.26994
G01 X4.31101 Y2.26894
G01 X4.30950 Y2.26864
G01 X4.30012 Y2.26579
G01 X4.29869 Y2.26520
G01 X4.28938 Y2.26018
G01 X4.28119 Y2.25350
G01 X4.28116 Y2.25318
G01 X4.28108 Y2.25340
G01 X4.27154 Y2.25340
G01 X4.27000 Y2.25325
G01 X4.26852 Y2.25280
G01 X4.26716 Y2.25207
G01 X4.26597 Y2.25109
G01 X4.26474 Y2.24944
G01 X4.26424 Y2.24540
G01 X4.26424 Y2.17872
G01 X4.26474 Y2.17469
G01 X4.26597 Y2.17303
G01 X4.26716 Y2.17205
G01 X4.26852 Y2.17132
G01 X4.27000 Y2.17088
G01 X4.27154 Y2.17072
G01 X4.28108 Y2.17072
G01 X4.28116 Y2.17094
G01 X4.28119 Y2.17062
G01 X4.28938 Y2.16394
G01 X4.29939 Y2.15859
G01 X4.30384 Y2.15720
G01 X4.30947 Y2.15623
G01 X4.31456 Y2.15555
G01 X4.32154 Y2.15419
G01 X4.58871 Y2.15419
G01 X4.59744 Y2.15541
G01 X4.60581 Y2.15575
G01 X4.61427 Y2.15524
G01 X4.62129 Y2.15419
G01 X5.28475 Y2.15419
G01 X5.28488 Y2.15449
G01 X5.28475 Y2.15419
G01 X5.29080 Y2.14820
G01 X5.29135 Y2.14677
G01 X5.29684 Y2.13658
G01 X5.30415 Y2.12760
G01 X5.30524 Y2.12651
G01 X5.31360 Y2.11966
G01 X5.31488 Y2.11880
G01 X5.32441 Y2.11371
G01 X5.32584 Y2.11312
G01 X5.33617 Y2.10998
G01 X5.33769 Y2.10968
G01 X5.34921 Y2.10858
G01 X5.36074 Y2.10968
G01 X5.36225 Y2.10998
G01 X5.37332 Y2.11338
G01 X5.38355 Y2.11880
G01 X5.38483 Y2.11966
G01 X5.39318 Y2.12651
G01 X5.39427 Y2.12760
G01 X5.40159 Y2.13658
G01 X5.40708 Y2.14677
G01 X5.40767 Y2.14820
G01 X5.41095 Y2.15909
G01 X5.41217 Y2.17080
G01 X5.40827 Y2.17157
G01 X5.40704 Y2.18347
G01 X5.40361 Y2.19452
G01 X5.39832 Y2.20438
G01 X5.39069 Y2.21359
G01 X5.38169 Y2.22087
G01 X5.37216 Y2.22597
G01 X5.37052 Y2.22655
G01 X5.34658 Y2.25046
G01 X5.33900 Y2.25668
G01 X5.32972 Y2.26173
G01 X5.31962 Y2.26487
G01 X5.30873 Y2.26600
G01 X5.17394 Y2.26600
G01 X5.17394 Y2.40002
G01 X5.37052 Y2.59660
G01 X5.37216 Y2.59718
G01 X5.38169 Y2.60227
G01 X5.39123 Y2.61010
G01 X5.39832 Y2.61876
G01 X5.40361 Y2.62863
G01 X5.40719 Y2.64044
G01 X5.40827 Y2.65157
G01 X5.40719 Y2.66271
G01 X5.40361 Y2.67452
G01 X5.39832 Y2.68438
G01 X5.39123 Y2.69305
G01 X5.38169 Y2.70087
G01 X5.37181 Y2.70613
G01 X5.36111 Y2.70940
G01 X5.34960 Y2.71061
G01 X5.33913 Y2.70966
G01 X4.99979 Y3.04900
G01 X4.99548 Y3.05263
G01 X4.99092 Y3.05537
G01 X4.98598 Y3.05736
G01 X4.98079 Y3.05856
G01 X4.97579 Y3.05894
G01 X3.61500 Y3.05894
G01 X3.60835 Y3.05828
G01 X3.60250 Y3.05644
G01 X2.99671 Y3.05644
G01 X2.97596 Y3.07719
G01 X2.97195 Y3.08048
G01 X2.96773 Y3.08276
G01 X2.96279 Y3.08433
G01 X2.95726 Y3.08494
G01 X2.01850 Y3.08494
G01 X2.01334 Y3.08443
G01 X2.00875 Y3.08305
G01 X2.00414 Y3.08068
G01 X1.99981 Y3.07719
G01 X1.64131 Y2.71869
G01 X1.63782 Y2.71436
G01 X1.63574 Y2.71047
G01 X1.63417 Y2.70553
G01 X1.63356 Y2.70000
G01 X1.63356 Y2.46000
G01 X1.63407 Y2.45484
G01 X1.63545 Y2.45025
G01 X1.63782 Y2.44564
G01 X1.64131 Y2.44131
G01 X1.72131 Y2.36131
G01 X1.72422 Y2.35880
G01 X1.72773 Y2.35659
G01 X1.73154 Y2.35496
G01 X1.73556 Y2.35395
G01 X1.74000 Y2.35356
G01 X2.20968 Y2.35358
G01 X2.21381 Y2.35395
G01 X2.21783 Y2.35496
G01 X2.22109 Y2.35631
G01 X2.22465 Y2.35844
G01 X2.22807 Y2.36131
G01 X2.35869 Y2.49193
G01 X2.36175 Y2.49563
G01 X2.36443 Y2.50051
G01 X2.36593 Y2.50547
G01 X2.36644 Y2.51063
G01 X2.36644 Y2.51592
G01 X2.37062 Y2.51938
G01 X2.37578 Y2.52563
G01 X2.38014 Y2.53379
G01 X2.38248 Y2.54155
G01 X2.38329 Y2.54961
G01 X2.38248 Y2.55845
G01 X2.38001 Y2.56657
G01 X2.37621 Y2.57373
G01 X2.37062 Y2.58062
G01 X2.36437 Y2.58578
G01 X2.35657 Y2.59001
G01 X2.34882 Y2.59238
G01 X2.33962 Y2.59329
G01 X2.33155 Y2.59247
G01 X2.32379 Y2.59014
G01 X2.31563 Y2.58578
G01 X2.30938 Y2.58062
G01 X2.30422 Y2.57437
G01 X2.29999 Y2.56657
G01 X2.29753 Y2.55845
G01 X2.29671 Y2.55038
G01 X2.29753 Y2.54155
G01 X2.29999 Y2.53343
G01 X2.30379 Y2.52627
G01 X2.30912 Y2.51966
G01 X2.31045 Y2.51847
G01 X2.19842 Y2.40644
G01 X1.75095 Y2.40644
G01 X1.68644 Y2.47095
G01 X1.68644 Y2.68905
G01 X2.02945 Y3.03206
G01 X2.94631 Y3.03206
G01 X2.96707 Y3.01131
G01 X2.97107 Y3.00802
G01 X2.97530 Y3.00574
G01 X2.98023 Y3.00416
G01 X2.98576 Y3.00356
G01 X3.54557 Y3.00356
G01 X3.50600 Y2.96400
G01 X3.50201 Y2.95916
G01 X3.50099 Y2.95740
G01 X3.49577 Y2.95732
G01 X3.49435 Y2.95674
G01 X3.49326 Y2.95565
G01 X3.49290 Y2.95497
G01 X3.49260 Y2.95346
G01 X3.49260 Y2.88653
G01 X3.49290 Y2.88503
G01 X3.49375 Y2.88375
G01 X3.49503 Y2.88290
G01 X3.49654 Y2.88260
G01 X3.56347 Y2.88260
G01 X3.56497 Y2.88290
G01 X3.56565 Y2.88326
G01 X3.56674 Y2.88435
G01 X3.56710 Y2.88503
G01 X3.56740 Y2.88653
G01 X3.56740 Y2.92941
G01 X3.62906 Y2.99106
G01 X4.96173 Y2.99106
G01 X5.28708 Y2.66572
G01 X5.08186 Y2.46050
G01 X5.07656 Y2.45431
G01 X5.07209 Y2.44712
G01 X5.06862 Y2.43873
G01 X5.06669 Y2.43049
G01 X5.06606 Y2.42236
G01 X5.06606 Y2.26600
G01 X4.32154 Y2.26600
G01 X4.31140 Y2.26502
G01 X4.30126 Y2.26202
G01 X4.29190 Y2.25711
G01 X4.28368 Y2.25046
G01 X4.28277 Y2.24946
G01 X4.27077 Y2.24939
G01 X4.26935 Y2.24880
G01 X4.26826 Y2.24771
G01 X4.26790 Y2.24703
G01 X4.26760 Y2.24553
G01 X4.26760 Y2.17860
G01 X4.26790 Y2.17709
G01 X4.26826 Y2.17641
G01 X4.26935 Y2.17532
G01 X4.27077 Y2.17474
G01 X4.28277 Y2.17466
G01 X4.28368 Y2.17366
G01 X4.29157 Y2.16722
G01 X4.30126 Y2.16210
G01 X4.31101 Y2.15916
G01 X4.32154 Y2.15812
G01 X5.28638 Y2.15812
G01 X5.29424 Y2.15027
G01 X5.29482 Y2.14863
G01 X5.30011 Y2.13876
G01 X5.30746 Y2.12982
G01 X5.31609 Y2.12270
G01 X5.32626 Y2.11718
G01 X5.33732 Y2.11375
G01 X5.34883 Y2.11254
G01 X5.36035 Y2.11360
G01 X5.37181 Y2.11701
G01 X5.38233 Y2.12270
G01 X5.39097 Y2.12982
G01 X5.39809 Y2.13845
G01 X5.40390 Y2.14934
G01 X5.40719 Y2.16044
G01 X5.40827 Y2.17157
G01 X5.41217 Y2.17080
G01 X5.41217 Y2.17235
G01 X5.41111 Y2.18310
G01 X5.41081 Y2.18461
G01 X5.40767 Y2.19495
G01 X5.40708 Y2.19638
G01 X5.40159 Y2.20657
G01 X5.39427 Y2.21554
G01 X5.39318 Y2.21664
G01 X5.38483 Y2.22349
G01 X5.38355 Y2.22435
G01 X5.37402 Y2.22944
G01 X5.37258 Y2.22999
G01 X5.34965 Y2.25298
G01 X5.34150 Y2.25972
G01 X5.34022 Y2.26058
G01 X5.33087 Y2.26553
G01 X5.32077 Y2.26864
G01 X5.31925 Y2.26894
G01 X5.30873 Y2.26994
G01 X5.17788 Y2.26994
G01 X5.17672 Y2.26878
G01 X5.17788 Y2.26994
G01 X5.17788 Y2.39839
G01 X5.17758 Y2.39851
G01 X5.17788 Y2.39839
G01 X5.37259 Y2.59316
G01 X5.37402 Y2.59371
G01 X5.38355 Y2.59880
G01 X5.38483 Y2.59966
G01 X5.39318 Y2.60651
G01 X5.39427 Y2.60760
G01 X5.40159 Y2.61658
G01 X5.40708 Y2.62677
G01 X5.40767 Y2.62820
G01 X5.41102 Y2.63942
G01 X5.41217 Y2.65080
G01 X5.41217 Y2.65235
G01 X5.41102 Y2.66372
G01 X5.40767 Y2.67495
G01 X5.40708 Y2.67638
G01 X5.40199 Y2.68591
G01 X5.40113 Y2.68719
G01 X5.39354 Y2.69631
G01 X5.38483 Y2.70349
G01 X5.38355 Y2.70435
G01 X5.37332 Y2.70977
G01 X5.36225 Y2.71317
G01 X5.36074 Y2.71347
G01 X5.34921 Y2.71457
G01 X5.34059 Y2.71376
G01 X5.34045 Y2.71337
G01 X5.34059 Y2.71376
G01 X5.00257 Y3.05178
G01 X4.99754 Y3.05598
G01 X4.99242 Y3.05900
G01 X4.98690 Y3.06119
G01 X4.98110 Y3.06248
G01 X4.97579 Y3.06287
G01 X3.61500 Y3.06287
G01 X3.60753 Y3.06213
G01 X3.60190 Y3.06033
G01 X2.99834 Y3.06037
G01 X2.99822 Y3.06007
G01 X2.99834 Y3.06037
G01 X2.97874 Y3.07998
G01 X2.97414 Y3.08376
G01 X2.96958 Y3.08623
G01 X2.96816 Y3.08682
G01 X2.96319 Y3.08829
G01 X2.95726 Y3.08887
G01 X2.01850 Y3.08887
G01 X2.01258 Y3.08829
G01 X2.00760 Y3.08682
G01 X2.00618 Y3.08623
G01 X2.00229 Y3.08415
G01 X2.00101 Y3.08329
G01 X1.99702 Y3.07998
G01 X1.63852 Y2.72148
G01 X1.63521 Y2.71749
G01 X1.63435 Y2.71621
G01 X1.63194 Y2.71162
G01 X1.63040 Y2.70668
G01 X1.63010 Y2.70516
G01 X1.62963 Y2.70000
G01 X1.62963 Y2.46000
G01 X1.63010 Y2.45484
G01 X1.63040 Y2.45332
G01 X1.63194 Y2.44838
G01 X1.63435 Y2.44379
G01 X1.63521 Y2.44250
G01 X1.63852 Y2.43852
G01 X1.71852 Y2.35852
G01 X1.72166 Y2.35581
G01 X1.72567 Y2.35324
G01 X1.73003 Y2.35133
G01 X1.73464 Y2.35012
G01 X1.74000 Y2.34963
G01 X2.20999 Y2.34965
G01 X2.21473 Y2.35012
G01 X2.21816 Y2.35094
G01 X2.22260 Y2.35268
G01 X2.22671 Y2.35508
G01 X2.23085 Y2.35852
G01 X2.36148 Y2.48915
G01 X2.36480 Y2.49313
G01 X2.36565 Y2.49442
G01 X2.36806 Y2.49900
G01 X2.36979 Y2.50470
G01 X2.37038 Y2.51063
G01 X2.37038 Y2.51405
G01 X2.37006 Y2.51421
G01 X2.37038 Y2.51405
G01 X2.37341 Y2.51659
G01 X2.37882 Y2.52313
G01 X2.37968 Y2.52441
G01 X2.38332 Y2.53122
G01 X2.38391 Y2.53265
G01 X2.38634 Y2.54078
G01 X2.38721 Y2.54923
G01 X2.38721 Y2.55077
G01 X2.38634 Y2.55922
G01 X2.38365 Y2.56808
G01 X2.37968 Y2.57558
G01 X2.37882 Y2.57687
G01 X2.37341 Y2.58341
G01 X2.36687 Y2.58882
G01 X2.36559 Y2.58968
G01 X2.35878 Y2.59332
G01 X2.35735 Y2.59391
G01 X2.34922 Y2.59634
G01 X2.34077 Y2.59721
G01 X2.33923 Y2.59721
G01 X2.33078 Y2.59634
G01 X2.32265 Y2.59391
G01 X2.32122 Y2.59332
G01 X2.31442 Y2.58968
G01 X2.31313 Y2.58882
G01 X2.30659 Y2.58341
G01 X2.30118 Y2.57687
G01 X2.30032 Y2.57558
G01 X2.29635 Y2.56808
G01 X2.29366 Y2.55922
G01 X2.29279 Y2.55077
G01 X2.29279 Y2.54923
G01 X2.29366 Y2.54078
G01 X2.29635 Y2.53192
G01 X2.30032 Y2.52441
G01 X2.30118 Y2.52313
G01 X2.30495 Y2.51853
G01 X2.30628 Y2.51846
G01 X2.30495 Y2.51853
G01 X2.19679 Y2.41037
G01 X2.19691 Y2.41007
G01 X2.19679 Y2.41037
G01 X1.75258 Y2.41037
G01 X1.75246 Y2.41007
G01 X1.75258 Y2.41037
G01 X1.69038 Y2.47258
G01 X1.69008 Y2.47246
G01 X1.69038 Y2.47258
G01 X1.69038 Y2.68742
G01 X1.69008 Y2.68754
G01 X1.69038 Y2.68742
G01 X2.03108 Y3.02813
G01 X2.03096 Y3.02842
G01 X2.03108 Y3.02813
G01 X2.26166 Y3.02813
G01 X2.26698 Y3.02947
G01 X2.27024 Y3.02986
G01 X2.27279 Y3.02997
G01 X2.93805 Y3.02997
G01 X2.94215 Y3.02970
G01 X2.94498 Y3.02923
G01 X2.94503 Y3.02935
G01 X2.94498 Y3.02923
G01 X2.94752 Y3.02752
G01 X2.95071 Y3.02470
G01 X2.96610 Y3.00933
G01 X2.97052 Y3.00544
G01 X2.97547 Y3.00187
G01 X2.97674 Y3.00111
G01 X2.97984 Y3.00021
G01 X2.98499 Y2.99966
G01 X3.53607 Y2.99962
G04 P0 ( dwell for no time -- G64 should not smooth over this point )
G00 Z0.07874 ( retract )

G00 X2.87130 Y2.91923 ( rapid move to begin. )
G01 F17.71654
( Mill infeed pass 1/1 )
G01 Z-0.00500
G04 P0 ( dwell for no time -- G64 should not smooth over this point )
G01 F35.43307
G01 X2.87130 Y2.91923
G01 X2.87066 Y2.91270
G01 X2.87036 Y2.91119
G01 X2.86845 Y2.90491
G01 X2.86786 Y2.90348
G01 X2.86477 Y2.89770
G01 X2.86391 Y2.89641
G01 X2.85923 Y2.89077
G01 X2.85359 Y2.88609
G01 X2.85230 Y2.88523
G01 X2.84588 Y2.88183
G01 X2.84531 Y2.88217
G01 X2.84588 Y2.88183
G01 X2.84588 Y2.65598
G01 X2.84533 Y2.65567
G01 X2.84588 Y2.65598
G01 X2.85121 Y2.65313
G01 X2.85249 Y2.65227
G01 X2.85727 Y2.64836
G01 X2.85836 Y2.64727
G01 X2.86228 Y2.64249
G01 X2.86313 Y2.64121
G01 X2.86637 Y2.63507
G01 X2.86843 Y2.62843
G01 X2.86873 Y2.62692
G01 X2.86933 Y2.62077
G01 X2.86933 Y2.61923
G01 X2.86873 Y2.61308
G01 X2.86843 Y2.61157
G01 X2.86637 Y2.60493
G01 X2.86313 Y2.59879
G01 X2.86228 Y2.59751
G01 X2.85836 Y2.59273
G01 X2.85727 Y2.59164
G01 X2.85249 Y2.58772
G01 X2.85121 Y2.58687
G01 X2.84507 Y2.58363
G01 X2.83843 Y2.58157
G01 X2.83692 Y2.58127
G01 X2.83077 Y2.58067
G01 X2.82923 Y2.58067
G01 X2.82308 Y2.58127
G01 X2.82157 Y2.58157
G01 X2.81566 Y2.58337
G01 X2.81448 Y2.58390
G01 X2.80828 Y2.58859
G01 X2.80377 Y2.59268
G01 X2.79860 Y2.59828
G01 X2.79363 Y2.60493
G01 X2.79158 Y2.61157
G01 X2.79127 Y2.61308
G01 X2.79067 Y2.61923
G01 X2.79067 Y2.62077
G01 X2.79127 Y2.62692
G01 X2.79158 Y2.62843
G01 X2.79363 Y2.63507
G01 X2.79687 Y2.64121
G01 X2.79773 Y2.64249
G01 X2.80164 Y2.64727
G01 X2.80273 Y2.64836
G01 X2.80751 Y2.65227
G01 X2.80879 Y2.65313
G01 X2.81413 Y2.65598
G01 X2.81467 Y2.65567
G01 X2.81413 Y2.65598
G01 X2.81413 Y2.88183
G01 X2.81469 Y2.88217
G01 X2.81413 Y2.88183
G01 X2.80770 Y2.88523
G01 X2.80641 Y2.88609
G01 X2.80077 Y2.89077
G01 X2.79609 Y2.89641
G01 X2.79523 Y2.89770
G01 X2.79181 Y2.90418
G01 X2.78964 Y2.91119
G01 X2.78934 Y2.91270
G01 X2.78870 Y2.91923
G01 X2.78870 Y2.92077
G01 X2.78934 Y2.92730
G01 X2.78964 Y2.92881
G01 X2.79155 Y2.93509
G01 X2.79214 Y2.93652
G01 X2.79523 Y2.94230
G01 X2.79609 Y2.94359
G01 X2.80025 Y2.94866
G01 X2.80134 Y2.94975
G01 X2.80641 Y2.95391
G01 X2.80770 Y2.95477
G01 X2.81418 Y2.95819
G01 X2.82077 Y2.96023
G01 X2.82914 Y2.96074
G01 X2.83923 Y2.96023
G01 X2.84509 Y2.95845
G01 X2.84652 Y2.95786
G01 X2.85230 Y2.95477
G01 X2.85359 Y2.95391
G01 X2.85923 Y2.94923
G01 X2.86391 Y2.94359
G01 X2.86477 Y2.94230
G01 X2.86819 Y2.93582
G01 X2.87036 Y2.92881
G01 X2.87066 Y2.92730
G01 X2.87130 Y2.92077
G01 X2.87130 Y2.91923
G01 X2.86738 Y2.91961
G01 X2.86668 Y2.91270
G01 X2.86469 Y2.90605
G01 X2.86087 Y2.89891
G01 X2.85645 Y2.89355
G01 X2.85109 Y2.88913
G01 X2.84466 Y2.88561
G01 X2.84194 Y2.88470
G01 X2.84194 Y2.65325
G01 X2.84391 Y2.65257
G01 X2.85000 Y2.64923
G01 X2.85506 Y2.64505
G01 X2.85966 Y2.63935
G01 X2.86274 Y2.63356
G01 X2.86475 Y2.62691
G01 X2.86542 Y2.62039
G01 X2.86481 Y2.61347
G01 X2.86274 Y2.60644
G01 X2.85966 Y2.60065
G01 X2.85477 Y2.59469
G01 X2.84936 Y2.59034
G01 X2.84356 Y2.58726
G01 X2.83691 Y2.58525
G01 X2.82962 Y2.58459
G01 X2.82309 Y2.58525
G01 X2.81644 Y2.58726
G01 X2.81065 Y2.59034
G01 X2.80523 Y2.59469
G01 X2.80034 Y2.60065
G01 X2.79727 Y2.60644
G01 X2.79519 Y2.61347
G01 X2.79459 Y2.62039
G01 X2.79525 Y2.62691
G01 X2.79727 Y2.63356
G01 X2.80034 Y2.63935
G01 X2.80495 Y2.64505
G01 X2.81001 Y2.64923
G01 X2.81609 Y2.65257
G01 X2.81806 Y2.65325
G01 X2.81806 Y2.88470
G01 X2.81534 Y2.88561
G01 X2.80891 Y2.88913
G01 X2.80355 Y2.89355
G01 X2.79870 Y2.89955
G01 X2.79545 Y2.90569
G01 X2.79332 Y2.91270
G01 X2.79262 Y2.91961
G01 X2.79326 Y2.92691
G01 X2.79532 Y2.93395
G01 X2.79870 Y2.94045
G01 X2.80355 Y2.94645
G01 X2.80891 Y2.95087
G01 X2.81569 Y2.95455
G01 X2.82270 Y2.95668
G01 X2.82962 Y2.95738
G01 X2.83692 Y2.95674
G01 X2.84395 Y2.95468
G01 X2.85045 Y2.95130
G01 X2.85645 Y2.94645
G01 X2.86087 Y2.94109
G01 X2.86456 Y2.93431
G01 X2.86659 Y2.92767
G01 X2.86738 Y2.91961
G04 P0 ( dwell for no time -- G64 should not smooth over this point )
G00 Z0.07874 ( retract )

G00 X2.63299 Y2.50000 ( rapid move to begin. )
G01 F17.71654
( Mill infeed pass 1/1 )
G01 Z-0.00500
G04 P0 ( dwell for no time -- G64 should not smooth over this point )
G01 F35.43307
G01 X2.63299 Y2.50000
G01 X2.63184 Y2.48809
G01 X2.62833 Y2.47626
G01 X2.62215 Y2.46469
G01 X2.61454 Y2.45546
G01 X2.60531 Y2.44785
G01 X2.59374 Y2.44167
G01 X2.58191 Y2.43816
G01 X2.57039 Y2.43703
G01 X2.55734 Y2.43831
G01 X2.54589 Y2.44180
G01 X2.53534 Y2.44742
G01 X2.52546 Y2.45546
G01 X2.51743 Y2.46533
G01 X2.51180 Y2.47589
G01 X2.50831 Y2.48734
G01 X2.50701 Y2.50000
G01 X2.50831 Y2.51266
G01 X2.51180 Y2.52411
G01 X2.51743 Y2.53466
G01 X2.52520 Y2.54426
G01 X2.53500 Y2.55238
G01 X2.54626 Y2.55833
G01 X2.55809 Y2.56184
G01 X2.57039 Y2.56297
G01 X2.58191 Y2.56184
G01 X2.59374 Y2.55833
G01 X2.60467 Y2.55257
G01 X2.61454 Y2.54454
G01 X2.62238 Y2.53500
G01 X2.62833 Y2.52374
G01 X2.63184 Y2.51191
G01 X2.63299 Y2.50000
G01 X2.63689 Y2.50077
G01 X2.63564 Y2.51306
G01 X2.63210 Y2.52488
G01 X2.63151 Y2.52631
G01 X2.62723 Y2.53430
G01 X2.62592 Y2.53607
G01 X2.61595 Y2.54709
G01 X2.60743 Y2.55481
G01 X2.60430 Y2.55723
G01 X2.59631 Y2.56150
G01 X2.59489 Y2.56209
G01 X2.58306 Y2.56564
G01 X2.57077 Y2.56689
G01 X2.56923 Y2.56689
G01 X2.55694 Y2.56564
G01 X2.54512 Y2.56209
G01 X2.54369 Y2.56150
G01 X2.53282 Y2.55565
G01 X2.52267 Y2.54733
G01 X2.51481 Y2.53780
G01 X2.51395 Y2.53652
G01 X2.50850 Y2.52631
G01 X2.50791 Y2.52488
G01 X2.50436 Y2.51306
G01 X2.50311 Y2.50077
G01 X2.50311 Y2.49923
G01 X2.50441 Y2.48673
G01 X2.50791 Y2.47511
G01 X2.50850 Y2.47369
G01 X2.51395 Y2.46348
G01 X2.51481 Y2.46219
G01 X2.52267 Y2.45267
G01 X2.53220 Y2.44481
G01 X2.53348 Y2.44395
G01 X2.54369 Y2.43850
G01 X2.54512 Y2.43791
G01 X2.55694 Y2.43436
G01 X2.56923 Y2.43311
G01 X2.57077 Y2.43311
G01 X2.58306 Y2.43436
G01 X2.59489 Y2.43791
G01 X2.59631 Y2.43850
G01 X2.60718 Y2.44435
G01 X2.61733 Y2.45267
G01 X2.62519 Y2.46219
G01 X2.62605 Y2.46348
G01 X2.63151 Y2.47369
G01 X2.63210 Y2.47511
G01 X2.63564 Y2.48694
G01 X2.63689 Y2.49923
G01 X2.63689 Y2.50077
G04 P0 ( dwell for no time -- G64 should not smooth over this point )
G00 Z0.07874 ( retract )

G00 X3.03113 Y2.11122 ( rapid move to begin. )
G01 F17.71654
( Mill infeed pass 1/1 )
G01 Z-0.00500
G04 P0 ( dwell for no time -- G64 should not smooth over this point )
G01 F35.43307
G01 X3.03113 Y2.11122
G01 X3.03044 Y2.11843
G01 X3.02830 Y2.12575
G01 X3.02434 Y2.13316
G01 X3.01973 Y2.13875
G01 X3.01414 Y2.14336
G01 X3.00710 Y2.14719
G01 X3.00194 Y2.14877
G01 X3.00194 Y2.29000
G01 X3.00171 Y2.29233
G01 X3.00116 Y2.29420
G01 X2.99993 Y2.29663
G01 X2.99844 Y2.29844
G01 X2.60216 Y2.69470
G01 X2.60063 Y2.69592
G01 X2.59821 Y2.69716
G01 X2.59633 Y2.69771
G01 X2.59400 Y2.69794
G01 X2.24895 Y2.69794
G01 X2.09273 Y2.85416
G01 X2.09273 Y2.88260
G01 X2.11502 Y2.88267
G01 X2.11644 Y2.88326
G01 X2.11704 Y2.88375
G01 X2.11789 Y2.88503
G01 X2.11811 Y2.88577
G01 X2.11819 Y2.95346
G01 X2.11789 Y2.95497
G01 X2.11753 Y2.95565
G01 X2.11644 Y2.95674
G01 X2.11502 Y2.95732
G01 X2.11425 Y2.95740
G01 X2.04732 Y2.95740
G01 X2.04656 Y2.95732
G01 X2.04514 Y2.95674
G01 X2.04454 Y2.95625
G01 X2.04369 Y2.95497
G01 X2.04339 Y2.95346
G01 X2.04346 Y2.88577
G01 X2.04369 Y2.88503
G01 X2.04454 Y2.88375
G01 X2.04514 Y2.88326
G01 X2.04656 Y2.88267
G01 X2.06885 Y2.88260
G01 X2.06887 Y2.84883
G01 X2.06908 Y2.84688
G01 X2.06963 Y2.84501
G01 X2.07086 Y2.84258
G01 X2.07235 Y2.84077
G01 X2.23556 Y2.67756
G01 X2.23737 Y2.67607
G01 X2.23908 Y2.67514
G01 X2.24167 Y2.67429
G01 X2.24400 Y2.67406
G01 X2.58906 Y2.67406
G01 X2.97806 Y2.28505
G01 X2.97806 Y2.14744
G01 X2.97695 Y2.14702
G01 X2.97025 Y2.14336
G01 X2.96466 Y2.13875
G01 X2.95962 Y2.13252
G01 X2.95622 Y2.12611
G01 X2.95410 Y2.11919
G01 X2.95326 Y2.11122
G01 X2.95395 Y2.10400
G01 X2.95622 Y2.09631
G01 X2.96005 Y2.08927
G01 X2.96466 Y2.08368
G01 X2.97025 Y2.07907
G01 X2.97730 Y2.07524
G01 X2.98498 Y2.07297
G01 X2.99258 Y2.07230
G01 X3.00017 Y2.07312
G01 X3.00710 Y2.07524
G01 X3.01350 Y2.07864
G01 X3.01973 Y2.08368
G01 X3.02477 Y2.08991
G01 X3.02817 Y2.09631
G01 X3.03029 Y2.10324
G01 X3.03113 Y2.11122
G01 X3.03503 Y2.11044
G01 X3.03503 Y2.11199
G01 X3.03436 Y2.11882
G01 X3.03406 Y2.12033
G01 X3.03207 Y2.12689
G01 X3.03148 Y2.12832
G01 X3.02824 Y2.13437
G01 X3.02738 Y2.13565
G01 X3.02251 Y2.14153
G01 X3.01664 Y2.14640
G01 X3.01535 Y2.14726
G01 X3.00860 Y2.15083
G01 X3.00588 Y2.15169
G01 X3.00515 Y2.15118
G01 X3.00588 Y2.15169
G01 X3.00588 Y2.29000
G01 X3.00574 Y2.29180
G01 X3.00418 Y2.29457
G01 X3.00238 Y2.29713
G01 X2.99991 Y2.29994
G01 X2.60230 Y2.69742
G01 X2.59993 Y2.69926
G01 X2.59727 Y2.70095
G01 X2.59581 Y2.70173
G01 X2.59400 Y2.70187
G01 X2.25058 Y2.70187
G01 X2.25045 Y2.70157
G01 X2.25058 Y2.70187
G01 X2.09666 Y2.85579
G01 X2.09636 Y2.85566
G01 X2.09666 Y2.85579
G01 X2.09666 Y2.87866
G01 X2.09552 Y2.87979
G01 X2.09666 Y2.87866
G01 X2.11425 Y2.87866
G01 X2.11579 Y2.87881
G01 X2.11727 Y2.87926
G01 X2.11863 Y2.87999
G01 X2.11982 Y2.88097
G01 X2.12080 Y2.88216
G01 X2.12153 Y2.88352
G01 X2.12198 Y2.88500
G01 X2.12213 Y2.88653
G01 X2.12213 Y2.95346
G01 X2.12199 Y2.95488
G01 X2.12132 Y2.95687
G01 X2.12038 Y2.95835
G01 X2.11914 Y2.95959
G01 X2.11753 Y2.96060
G01 X2.11579 Y2.96119
G01 X2.11425 Y2.96134
G01 X2.04732 Y2.96134
G01 X2.04579 Y2.96119
G01 X2.04405 Y2.96060
G01 X2.04312 Y2.96010
G01 X2.04176 Y2.95903
G01 X2.04068 Y2.95766
G01 X2.04019 Y2.95674
G01 X2.03960 Y2.95500
G01 X2.03945 Y2.95346
G01 X2.03945 Y2.88653
G01 X2.03960 Y2.88500
G01 X2.04019 Y2.88326
G01 X2.04069 Y2.88233
G01 X2.04176 Y2.88097
G01 X2.04312 Y2.87990
G01 X2.04405 Y2.87940
G01 X2.04579 Y2.87881
G01 X2.04732 Y2.87866
G01 X2.06491 Y2.87866
G01 X2.06605 Y2.87979
G01 X2.06491 Y2.87866
G01 X2.06491 Y2.84921
G01 X2.06511 Y2.84688
G01 X2.06541 Y2.84537
G01 X2.06645 Y2.84244
G01 X2.06759 Y2.84039
G01 X2.06956 Y2.83799
G01 X2.23278 Y2.67477
G01 X2.23415 Y2.67360
G01 X2.23882 Y2.67243
G01 X2.24180 Y2.67206
G01 X2.24403 Y2.67197
G01 X2.58075 Y2.67198
G01 X2.58478 Y2.67170
G01 X2.58798 Y2.67112
G01 X2.58804 Y2.67127
G01 X2.58798 Y2.67112
G01 X2.59051 Y2.66929
G01 X2.59346 Y2.66671
G01 X2.94471 Y2.31545
G01 X2.94643 Y2.31358
G01 X2.94847 Y2.31099
G01 X2.95128 Y2.30627
G01 X2.97413 Y2.28342
G01 X2.97443 Y2.28355
G01 X2.97413 Y2.28342
G01 X2.97413 Y2.14998
G01 X2.97467 Y2.14966
G01 X2.97413 Y2.14998
G01 X2.96904 Y2.14726
G01 X2.96776 Y2.14640
G01 X2.96188 Y2.14153
G01 X2.95701 Y2.13565
G01 X2.95615 Y2.13437
G01 X2.95259 Y2.12762
G01 X2.95177 Y2.12506
G01 X2.95092 Y2.11878
G01 X2.95059 Y2.11201
G01 X2.95092 Y2.10365
G01 X2.95177 Y2.09737
G01 X2.95230 Y2.09561
G01 X2.95714 Y2.08897
G01 X2.96372 Y2.08170
G01 X2.96995 Y2.07616
G01 X2.97659 Y2.07132
G01 X2.98308 Y2.06935
G01 X2.98460 Y2.06905
G01 X2.99142 Y2.06838
G01 X2.99297 Y2.06838
G01 X2.99980 Y2.06905
G01 X3.00131 Y2.06935
G01 X3.00860 Y2.07160
G01 X3.01535 Y2.07517
G01 X3.01664 Y2.07603
G01 X3.02251 Y2.08090
G01 X3.02738 Y2.08677
G01 X3.02824 Y2.08806
G01 X3.03148 Y2.09411
G01 X3.03207 Y2.09553
G01 X3.03406 Y2.10210
G01 X3.03436 Y2.10362
G01 X3.03503 Y2.11044
G04 P0 ( dwell for no time -- G64 should not smooth over this point )
G00 Z0.07874 ( retract )

G00 X3.15028 Y2.23594 ( rapid move to begin. )
G01 F17.71654
( Mill infeed pass 1/1 )
G01 Z-0.00500
G04 P0 ( dwell for no time -- G64 should not smooth over this point )
G01 F35.43307
G01 X3.15028 Y2.23594
G01 X3.14634 Y2.23594
G01 X3.14522 Y2.23480
G01 X3.14634 Y2.23594
G01 X3.14634 Y2.24553
G01 X3.14619 Y2.24706
G01 X3.14574 Y2.24854
G01 X3.14501 Y2.24990
G01 X3.14403 Y2.25109
G01 X3.14284 Y2.25207
G01 X3.14148 Y2.25280
G01 X3.14000 Y2.25325
G01 X3.13847 Y2.25340
G01 X3.12888 Y2.25340
G01 X3.12774 Y2.25228
G01 X3.12888 Y2.25340
G01 X3.12888 Y2.25734
G01 X3.12771 Y2.25851
G01 X3.12888 Y2.25734
G01 X3.14088 Y2.25730
G01 X3.14420 Y2.25603
G01 X3.14693 Y2.25399
G01 X3.14897 Y2.25127
G01 X3.15024 Y2.24794
G01 X3.15028 Y2.23594
G01 X3.15421 Y2.23200
G01 X3.15421 Y2.24720
G01 X3.15404 Y2.24884
G01 X3.15243 Y2.25315
G01 X3.14972 Y2.25678
G01 X3.14609 Y2.25949
G01 X3.14178 Y2.26110
G01 X3.14014 Y2.26127
G01 X3.12494 Y2.26127
G01 X3.12494 Y2.24946
G01 X3.13923 Y2.24939
G01 X3.14065 Y2.24880
G01 X3.14174 Y2.24771
G01 X3.14210 Y2.24703
G01 X3.14240 Y2.24553
G01 X3.14240 Y2.23200
G01 X3.15421 Y2.23200
G04 P0 ( dwell for no time -- G64 should not smooth over this point )
G00 Z0.07874 ( retract )

G00 X3.35930 Y2.22711 ( rapid move to begin. )
G01 F17.71654
( Mill infeed pass 1/1 )
G01 Z-0.00500
G04 P0 ( dwell for no time -- G64 should not smooth over this point )
G01 F35.43307
G01 X3.35930 Y2.22711
G01 X3.36090 Y2.22240
G01 X3.36024 Y2.21995
G01 X3.35952 Y2.21206
G01 X3.36024 Y2.20417
G01 X3.36090 Y2.20172
G01 X3.35930 Y2.19701
G01 X3.36090 Y2.20172
G01 X3.36431 Y2.20513
G01 X3.36858 Y2.20384
G01 X3.36826 Y2.20515
G01 X3.36762 Y2.21168
G01 X3.36826 Y2.21898
G01 X3.36858 Y2.22029
G01 X3.35900 Y2.22987
G01 X3.35858 Y2.22896
G01 X3.35635 Y2.22064
G01 X3.35560 Y2.21206
G01 X3.35635 Y2.20348
G01 X3.35858 Y2.19517
G01 X3.35900 Y2.19426
G01 X3.36858 Y2.20384
G01 X3.36431 Y2.20513
G01 X3.36370 Y2.21129
G01 X3.36370 Y2.21283
G01 X3.36431 Y2.21899
G01 X3.36468 Y2.21913
G01 X3.36431 Y2.21899
G01 X3.36090 Y2.22240
G04 P0 ( dwell for no time -- G64 should not smooth over this point )
G00 Z0.07874 ( retract )

G00 X3.41534 Y2.25617 ( rapid move to begin. )
G01 F17.71654
( Mill infeed pass 1/1 )
G01 Z-0.00500
G04 P0 ( dwell for no time -- G64 should not smooth over this point )
G01 F35.43307
G01 X3.41534 Y2.25617
G01 X3.41193 Y2.25276
G01 X3.41207 Y2.25236
G01 X3.41193 Y2.25276
G01 X3.40577 Y2.25336
G01 X3.40423 Y2.25336
G01 X3.39807 Y2.25276
G01 X3.39793 Y2.25238
G01 X3.39807 Y2.25276
G01 X3.39466 Y2.25617
G01 X3.38995 Y2.25777
G01 X3.39466 Y2.25617
G01 X3.39711 Y2.25682
G01 X3.40500 Y2.25754
G01 X3.41289 Y2.25682
G01 X3.41534 Y2.25617
G01 X3.42005 Y2.25777
G01 X3.42280 Y2.25806
G01 X3.42190 Y2.25848
G01 X3.41358 Y2.26071
G01 X3.40500 Y2.26146
G01 X3.39642 Y2.26071
G01 X3.38811 Y2.25848
G01 X3.38720 Y2.25806
G01 X3.39678 Y2.24848
G01 X3.39809 Y2.24880
G01 X3.40462 Y2.24945
G01 X3.41192 Y2.24880
G01 X3.41323 Y2.24848
G01 X3.42280 Y2.25806
G04 P0 ( dwell for no time -- G64 should not smooth over this point )
G00 Z0.07874 ( retract )

G00 X3.45071 Y2.22711 ( rapid move to begin. )
G01 F17.71654
( Mill infeed pass 1/1 )
G01 Z-0.00500
