( pcb2gcode 2.5.0 )
( Software-independent Gcode )

G94 ( Inches per minute feed rate. )
G21 ( Units == MM. )

G90 ( Absolute coordinates. )
G00 S200 ( RPM spindle speed. )
G64 P0.00040 ( set maximum deviation from commanded toolpath )
G01 F900.0000 ( Feedrate. )


G00 Z10.0000 (Retract to tool change height)
T1
M5      (Spindle stop.)
(MSG, Change tool bit to mill diameter 0.00787in)
M6      (Tool change.)
M0      (Temporary machine stop.)
M3 ( Spindle on clockwise. )
G00 Z2.0000 ( retract )

G00 X150.8176 Y14.9860 ( rapid move to begin. )
G01 F450.0001
( Mill infeed pass 1/1 )
G01 Z-0.1270
G01 F900.0000
G01 X150.8176 Y14.9860
G01 X150.7983 Y15.3787
G01 X150.7406 Y15.7673
G01 X150.6451 Y16.1488
G01 X150.5125 Y16.5186
G01 X150.3446 Y16.8742
G01 X150.1424 Y17.2113
G01 X149.9083 Y17.5270
G01 X149.6444 Y17.8184
G01 X149.3530 Y18.0823
G01 X149.0373 Y18.3164
G01 X148.7002 Y18.5184
G01 X148.3449 Y18.6865
G01 X147.9748 Y18.8189
G01 X147.5936 Y18.9144
G01 X147.2047 Y18.9723
G01 X146.8120 Y18.9913
G01 X146.4193 Y18.9720
G01 X146.0307 Y18.9144
G01 X145.6494 Y18.8189
G01 X145.2794 Y18.6865
G01 X144.9240 Y18.5184
G01 X144.5867 Y18.3162
G01 X144.2710 Y18.0820
G01 X143.9799 Y17.8181
G01 X143.7160 Y17.5270
G01 X143.4818 Y17.2113
G01 X143.2796 Y16.8740
G01 X143.1117 Y16.5186
G01 X142.9791 Y16.1486
G01 X142.8836 Y15.7673
G01 X142.8260 Y15.3787
G01 X142.8067 Y14.9860
G01 X142.8260 Y14.5933
G01 X142.8836 Y14.2047
G01 X142.9791 Y13.8232
G01 X143.1117 Y13.4531
G01 X143.2796 Y13.0980
G01 X143.4818 Y12.7607
G01 X143.7160 Y12.4450
G01 X143.9799 Y12.1539
G01 X144.2710 Y11.8897
G01 X144.5867 Y11.6556
G01 X144.9240 Y11.4536
G01 X145.2794 Y11.2855
G01 X145.6494 Y11.1531
G01 X146.0307 Y11.0576
G01 X146.4193 Y11.0000
G01 X146.8120 Y10.9807
G01 X147.2047 Y10.9997
G01 X147.5936 Y11.0574
G01 X147.9748 Y11.1531
G01 X148.3449 Y11.2855
G01 X148.7002 Y11.4536
G01 X149.0373 Y11.6556
G01 X149.3530 Y11.8897
G01 X149.6444 Y12.1536
G01 X149.9083 Y12.4450
G01 X150.1424 Y12.7607
G01 X150.3446 Y13.0978
G01 X150.5125 Y13.4531
G01 X150.6451 Y13.8232
G01 X150.7406 Y14.2044
G01 X150.7983 Y14.5933
G01 X150.8176 Y14.9860
G01 X150.9174 Y14.9860
G01 X150.8976 Y14.5837
G01 X150.8387 Y14.1851
G01 X150.7406 Y13.7942
G01 X150.6050 Y13.4150
G01 X150.4328 Y13.0508
G01 X150.2255 Y12.7051
G01 X149.9855 Y12.3815
G01 X149.7150 Y12.0830
G01 X149.4165 Y11.8125
G01 X149.0929 Y11.5725
G01 X148.7472 Y11.3652
G01 X148.3832 Y11.1930
G01 X148.0038 Y11.0574
G01 X147.6129 Y10.9593
G01 X147.2143 Y10.9002
G01 X146.8120 Y10.8806
G01 X146.4097 Y10.9002
G01 X146.0111 Y10.9593
G01 X145.6202 Y11.0574
G01 X145.2410 Y11.1930
G01 X144.8768 Y11.3652
G01 X144.5311 Y11.5725
G01 X144.2075 Y11.8125
G01 X143.9090 Y12.0830
G01 X143.6385 Y12.3815
G01 X143.3985 Y12.7051
G01 X143.1915 Y13.0508
G01 X143.0190 Y13.4148
G01 X142.8834 Y13.7942
G01 X142.7856 Y14.1851
G01 X142.7264 Y14.5837
G01 X142.7066 Y14.9860
G01 X142.7264 Y15.3883
G01 X142.7856 Y15.7869
G01 X142.8834 Y16.1778
G01 X143.0190 Y16.5570
G01 X143.1915 Y16.9212
G01 X143.3985 Y17.2669
G01 X143.6385 Y17.5905
G01 X143.9090 Y17.8890
G01 X144.2075 Y18.1595
G01 X144.5311 Y18.3995
G01 X144.8768 Y18.6068
G01 X145.2410 Y18.7790
G01 X145.6202 Y18.9146
G01 X146.0111 Y19.0124
G01 X146.4097 Y19.0716
G01 X146.8120 Y19.0914
G01 X147.2143 Y19.0716
G01 X147.6129 Y19.0124
G01 X148.0038 Y18.9146
G01 X148.3832 Y18.7790
G01 X148.7472 Y18.6068
G01 X149.0929 Y18.3995
G01 X149.4165 Y18.1595
G01 X149.7150 Y17.8890
G01 X149.9855 Y17.5905
G01 X150.2255 Y17.2669
G01 X150.4328 Y16.9212
G01 X150.6050 Y16.5570
G01 X150.7406 Y16.1778
G01 X150.8387 Y15.7869
G01 X150.8976 Y15.3883
G01 X150.9174 Y14.9860
G01 X150.6116 Y14.9761
G01 X150.5367 Y14.2352
G01 X150.3185 Y13.5230
G01 X149.9715 Y12.8748
G01 X149.5057 Y12.3063
G01 X148.9149 Y11.8214
G01 X148.2570 Y11.4719
G01 X147.5438 Y11.2575
G01 X146.8219 Y11.1864
G01 X146.0805 Y11.2575
G01 X145.3490 Y11.4795
G01 X144.7094 Y11.8214
G01 X144.1323 Y12.2923
G01 X143.6525 Y12.8748
G01 X143.2979 Y13.5410
G01 X143.0851 Y14.2446
G01 X143.0124 Y14.9761
G01 X143.0851 Y15.7274
G01 X143.3055 Y16.4490
G01 X143.6525 Y17.0972
G01 X144.1183 Y17.6657
G01 X144.7094 Y18.1506
G01 X145.3670 Y18.5001
G01 X146.0805 Y18.7145
G01 X146.8023 Y18.7856
G01 X147.5438 Y18.7145
G01 X148.2750 Y18.4925
G01 X148.9149 Y18.1506
G01 X149.4917 Y17.6797
G01 X149.9715 Y17.0972
G01 X150.3261 Y16.4310
G01 X150.5405 Y15.7175
G01 X150.6116 Y14.9761
G01 X150.7112 Y14.9664
G01 X150.6370 Y14.2253
G01 X150.4218 Y13.5120
G01 X150.4069 Y13.4757
G01 X150.0548 Y12.8194
G01 X149.5829 Y12.2428
G01 X149.5552 Y12.2151
G01 X148.9946 Y11.7549
G01 X148.9619 Y11.7333
G01 X148.3223 Y11.3911
G01 X148.2860 Y11.3762
G01 X147.5920 Y11.1656
G01 X147.5534 Y11.1580
G01 X146.8120 Y11.0861
G01 X146.0706 Y11.1580
G01 X146.0322 Y11.1656
G01 X145.3195 Y11.3828
G01 X144.6621 Y11.7333
G01 X144.6296 Y11.7549
G01 X144.0543 Y12.2283
G01 X143.5809 Y12.8036
G01 X143.5593 Y12.8361
G01 X143.2174 Y13.4757
G01 X143.2024 Y13.5120
G01 X142.9918 Y14.2060
G01 X142.9840 Y14.2446
G01 X142.9131 Y14.9664
G01 X142.9131 Y15.0056
G01 X142.9870 Y15.7467
G01 X143.2024 Y16.4600
G01 X143.2174 Y16.4963
G01 X143.5593 Y17.1359
G01 X143.5809 Y17.1684
G01 X144.0411 Y17.7292
G01 X144.0688 Y17.7569
G01 X144.6296 Y18.2171
G01 X144.6621 Y18.2387
G01 X145.3195 Y18.5892
G01 X146.0322 Y18.8062
G01 X146.0706 Y18.8140
G01 X146.8120 Y18.8859
G01 X147.5534 Y18.8140
G01 X147.5920 Y18.8062
G01 X148.2860 Y18.5956
G01 X148.3223 Y18.5806
G01 X148.9619 Y18.2387
G01 X148.9946 Y18.2171
G01 X149.5552 Y17.7569
G01 X149.5829 Y17.7292
G01 X150.0431 Y17.1684
G01 X150.0647 Y17.1359
G01 X150.4069 Y16.4963
G01 X150.4218 Y16.4600
G01 X150.6370 Y15.7467
G01 X150.7112 Y15.0056
G01 X150.7112 Y14.9664
G00 Z2.0000 ( retract )

G00 X140.9162 Y7.6200 ( rapid move to begin. )
G01 F450.0001
( Mill infeed pass 1/1 )
G01 Z-0.1270
G01 F900.0000
G01 X140.9162 Y7.6200
G01 X140.8908 Y7.3525
G01 X140.8831 Y7.3142
G01 X140.8107 Y7.0759
G01 X140.7958 Y7.0396
G01 X140.6784 Y6.8202
G01 X140.6566 Y6.7876
G01 X140.4854 Y6.5806
G01 X139.2441 Y5.3398
G01 X139.0924 Y5.2106
G01 X138.8971 Y5.0879
G01 X138.6553 Y4.9875
G01 X138.4305 Y4.9362
G01 X138.2316 Y4.9205
G01 X137.9952 Y4.9200
G01 X137.9670 Y4.9469
G01 X137.9952 Y4.9200
G01 X137.9939 Y0.4079
G01 X137.9791 Y0.3353
G01 X137.9695 Y0.3035
G01 X137.9545 Y0.2736
G01 X137.8892 Y0.1941
G01 X137.8618 Y0.1676
G01 X137.8298 Y0.1471
G01 X137.7945 Y0.1331
G01 X137.7274 Y0.1133
G01 X137.6710 Y0.1052
G01 X11.1778 Y0.1052
G01 X10.8669 Y0.1255
G01 X10.5857 Y0.1786
G01 X10.3050 Y0.2670
G01 X10.0305 Y0.3922
G01 X9.7803 Y0.5458
G01 X9.5560 Y0.7234
G01 X9.3647 Y0.9139
G01 X9.1821 Y1.1440
G01 X9.0282 Y1.3945
G01 X8.9030 Y1.6690
G01 X8.8146 Y1.9497
G01 X8.7615 Y2.2309
G01 X8.7414 Y2.5418
G01 X8.7417 Y8.1227
G01 X8.7114 Y8.3678
G01 X8.6942 Y8.4521
G01 X8.6901 Y8.4925
G01 X8.6901 Y13.1892
G01 X8.6949 Y13.2331
G01 X8.7127 Y13.3073
G01 X8.7805 Y13.4531
G01 X8.9131 Y13.8232
G01 X9.0086 Y14.2044
G01 X9.0663 Y14.5933
G01 X9.0856 Y14.9860
G01 X9.0663 Y15.3787
G01 X9.0086 Y15.7673
G01 X8.9131 Y16.1488
G01 X8.7805 Y16.5186
G01 X8.7127 Y16.6647
G01 X8.6949 Y16.7389
G01 X8.6901 Y16.7828
G01 X8.6901 Y21.4795
G01 X8.6942 Y21.5199
G01 X8.7114 Y21.6042
G01 X8.7417 Y21.8493
G01 X8.7417 Y56.8907
G01 X8.7114 Y57.1358
G01 X8.6942 Y57.2201
G01 X8.6901 Y57.2605
G01 X8.6901 Y61.9572
G01 X8.6949 Y62.0011
G01 X8.7127 Y62.0753
G01 X8.7805 Y62.2211
G01 X8.9131 Y62.5912
G01 X9.0086 Y62.9724
G01 X9.0663 Y63.3613
G01 X9.0856 Y63.7540
G01 X9.0663 Y64.1467
G01 X9.0086 Y64.5353
G01 X8.9131 Y64.9168
G01 X8.7805 Y65.2869
G01 X8.7127 Y65.4327
G01 X8.6914 Y65.5287
G01 X8.6901 Y70.2475
G01 X8.6942 Y70.2879
G01 X8.7114 Y70.3722
G01 X8.7417 Y70.6173
G01 X8.7419 Y76.2142
G01 X8.7615 Y76.5091
G01 X8.8146 Y76.7903
G01 X8.9030 Y77.0707
G01 X9.0244 Y77.3382
G01 X9.1773 Y77.5894
G01 X9.3596 Y77.8203
G01 X9.5740 Y78.0326
G01 X9.8067 Y78.2124
G01 X10.0589 Y78.3626
G01 X10.3203 Y78.4786
G01 X10.5778 Y78.5594
G01 X10.8666 Y78.6143
G01 X11.1618 Y78.6341
G01 X41.5290 Y78.6346
G01 X41.5768 Y78.6308
G01 X41.6151 Y78.6227
G01 X41.7124 Y78.5739
G01 X41.7581 Y78.5398
G01 X42.3962 Y77.9018
G01 X42.4271 Y77.8652
G01 X42.4485 Y77.8322
G01 X42.4632 Y77.7959
G01 X42.4889 Y77.7011
G01 X42.4912 Y70.2744
G01 X42.4871 Y70.2267
G01 X42.4746 Y70.1759
G01 X42.4302 Y70.0908
G01 X42.3962 Y70.0453
G01 X41.5760 Y69.2252
G01 X41.5257 Y69.1807
G01 X41.4894 Y69.1401
G01 X41.4251 Y69.0522
G01 X41.3956 Y69.0021
G01 X41.3487 Y68.9039
G01 X41.3296 Y68.8492
G01 X41.3027 Y68.7436
G01 X41.2935 Y68.6900
G01 X41.2900 Y68.5008
G01 X41.2920 Y62.5246
G01 X41.2880 Y62.4573
G01 X41.2907 Y62.4030
G01 X41.3080 Y62.2953
G01 X41.3220 Y62.2391
G01 X41.3586 Y62.1365
G01 X41.3837 Y62.0845
G01 X41.4393 Y61.9907
G01 X41.4708 Y61.9463
G01 X41.6019 Y61.8099
G01 X42.4106 Y61.0027
G01 X42.4485 Y60.9493
G01 X42.4632 Y60.9130
G01 X42.4889 Y60.8180
G01 X42.4912 Y60.7888
G01 X42.4873 Y60.7868
G01 X42.4912 Y60.7888
G01 X42.8841 Y60.3959
G01 X42.8815 Y60.3908
G01 X42.8841 Y60.3959
G01 X42.9141 Y60.3951
G01 X42.9760 Y60.3837
G01 X43.0662 Y60.3372
G01 X43.1117 Y60.3032
G01 X43.5508 Y59.8640
G01 X43.5953 Y59.8137
G01 X43.6359 Y59.7774
G01 X43.7238 Y59.7129
G01 X43.7739 Y59.6836
G01 X43.8721 Y59.6369
G01 X43.9268 Y59.6176
G01 X44.0324 Y59.5899
G01 X44.0860 Y59.5823
G01 X44.2752 Y59.5777
G01 X56.0776 Y59.5800
G01 X56.1447 Y59.5754
G01 X56.1990 Y59.5790
G01 X56.3067 Y59.5958
G01 X56.3629 Y59.6095
G01 X56.4652 Y59.6471
G01 X56.5180 Y59.6709
G01 X56.6113 Y59.7273
G01 X56.6562 Y59.7601
G01 X56.7012 Y59.8015
G01 X60.0240 Y63.1248
G01 X60.0743 Y63.1693
G01 X60.1109 Y63.2097
G01 X60.1751 Y63.2978
G01 X60.2043 Y63.3479
G01 X60.2511 Y63.4462
G01 X60.2704 Y63.5008
G01 X60.2976 Y63.6064
G01 X60.3113 Y63.7271
G01 X60.3181 Y63.7532
G01 X60.3738 Y63.8653
G01 X60.4797 Y63.9841
G01 X60.5409 Y64.0392
G01 X60.5699 Y64.0603
G01 X60.6019 Y64.0758
G01 X60.6361 Y64.0852
G01 X60.6608 Y64.0872
G01 X60.6593 Y64.0895
G01 X60.8716 Y64.3019
G01 X60.8874 Y64.2978
G01 X60.8716 Y64.3019
G01 X60.8607 Y64.3293
G01 X60.8038 Y64.5168
G01 X60.7962 Y64.5554
G01 X60.7769 Y64.7504
G01 X60.7769 Y64.7896
G01 X60.7990 Y65.0042
G01 X60.8607 Y65.2107
G01 X60.8757 Y65.2470
G01 X60.9681 Y65.4197
G01 X60.9900 Y65.4525
G01 X61.1274 Y65.6186
G01 X61.2935 Y65.7560
G01 X61.3263 Y65.7779
G01 X61.4990 Y65.8703
G01 X61.5353 Y65.8853
G01 X61.7418 Y65.9470
G01 X61.9564 Y65.9691
G01 X61.9956 Y65.9691
G01 X62.1906 Y65.9498
G01 X62.2292 Y65.9422
G01 X62.4352 Y65.8787
G01 X62.6260 Y65.7779
G01 X62.6585 Y65.7560
G01 X62.8246 Y65.6186
G01 X62.9620 Y65.4525
G01 X62.9839 Y65.4197
G01 X63.0763 Y65.2470
G01 X63.0913 Y65.2107
G01 X63.1530 Y65.0042
G01 X63.1751 Y64.7896
G01 X63.1751 Y64.7504
G01 X63.1530 Y64.5358
G01 X63.0913 Y64.3293
G01 X63.0801 Y64.3024
G01 X63.0634 Y64.2981
G01 X63.0801 Y64.3024
G01 X63.3319 Y64.0507
G01 X63.3684 Y64.0225
G01 X63.4177 Y63.9729
G01 X63.4421 Y63.9437
G01 X63.4604 Y63.9102
G01 X63.4718 Y63.8741
G01 X63.4909 Y63.7776
G01 X63.4728 Y63.5000
G01 X63.4911 Y63.2430
G01 X63.5457 Y62.9912
G01 X63.6361 Y62.7502
G01 X63.6709 Y62.6829
G01 X63.6938 Y62.5998
G01 X63.7002 Y62.5503
G01 X63.7002 Y60.1439
G01 X63.6707 Y60.1147
G01 X63.7002 Y60.1439
G01 X69.0880 Y60.1439
G01 X69.2757 Y60.1256
G01 X69.4378 Y60.0773
G01 X69.4738 Y60.0624
G01 X69.6224 Y59.9818
G01 X69.7682 Y59.8622
G01 X72.3781 Y57.2521
G01 X72.4532 Y57.2077
G01 X72.5747 Y57.1083
G01 X72.6023 Y57.0807
G01 X72.7019 Y56.9592
G01 X72.7235 Y56.9267
G01 X72.7974 Y56.7883
G01 X72.8124 Y56.7522
G01 X72.8581 Y56.6021
G01 X72.8657 Y56.5638
G01 X72.8810 Y56.4076
G01 X72.8810 Y56.3684
G01 X72.8657 Y56.2122
G01 X72.8581 Y56.1739
G01 X72.8058 Y56.0052
G01 X72.7235 Y55.8493
G01 X72.7019 Y55.8168
G01 X72.6023 Y55.6953
G01 X72.5747 Y55.6677
G01 X72.4532 Y55.5681
G01 X72.4207 Y55.5465
G01 X72.2826 Y55.4726
G01 X72.2462 Y55.4576
G01 X72.0961 Y55.4119
G01 X72.0578 Y55.4043
G01 X71.9016 Y55.3890
G01 X71.8624 Y55.3890
G01 X71.7062 Y55.4043
G01 X71.6679 Y55.4119
G01 X71.5178 Y55.4576
G01 X71.4817 Y55.4726
G01 X71.3433 Y55.5465
G01 X71.3108 Y55.5681
G01 X71.1893 Y55.6677
G01 X71.1617 Y55.6953
G01 X71.0623 Y55.8168
G01 X71.0184 Y55.8924
G01 X68.6895 Y58.2198
G01 X68.6928 Y58.2277
G01 X68.6895 Y58.2198
G01 X63.7002 Y58.2198
G01 X63.6707 Y58.2493
G01 X63.7002 Y58.2198
G01 X63.7002 Y57.0743
G01 X63.6915 Y57.0012
G01 X63.6773 Y56.9618
G01 X63.6392 Y56.8909
G01 X63.6138 Y56.8551
G01 X56.6928 Y49.9328
G01 X56.6298 Y49.8846
G01 X56.5871 Y49.8658
G01 X56.5071 Y49.8432
G01 X56.4637 Y49.8378
G01 X38.7909 Y49.8378
G01 X38.7434 Y49.8419
G01 X38.6926 Y49.8544
G01 X38.6075 Y49.8988
G01 X38.5760 Y49.9201
G01 X38.5491 Y49.9471
G01 X38.5277 Y49.9783
G01 X38.4792 Y50.0746
G01 X38.4713 Y50.1119
G01 X38.4703 Y50.1498
G01 X38.4754 Y50.2196
G01 X38.4881 Y50.2938
G01 X38.4881 Y50.7309
G01 X38.5181 Y50.7606
G01 X38.4881 Y50.7309
G01 X38.3880 Y50.7309
G01 X38.3593 Y50.7599
G01 X38.3880 Y50.7309
G01 X38.3880 Y50.3311
G01 X38.3842 Y50.2920
G01 X38.3728 Y50.2544
G01 X38.3543 Y50.2199
G01 X38.3294 Y50.1896
G01 X38.2991 Y50.1647
G01 X38.2646 Y50.1462
G01 X38.2270 Y50.1348
G01 X38.1881 Y50.1310
G01 X36.4881 Y50.1310
G01 X36.4490 Y50.1348
G01 X36.4114 Y50.1462
G01 X36.3769 Y50.1647
G01 X36.3466 Y50.1896
G01 X36.3217 Y50.2199
G01 X36.3032 Y50.2544
G01 X36.2918 Y50.2920
G01 X36.2880 Y50.3311
G01 X36.2880 Y50.7309
G01 X36.3174 Y50.7604
G01 X36.2880 Y50.7309
G01 X36.1881 Y50.7309
G01 X36.1587 Y50.7604
G01 X36.1881 Y50.7309
G01 X36.1876 Y50.2938
G01 X36.1912 Y50.2638
G01 X36.2057 Y50.2094
G01 X36.2077 Y50.1802
G01 X36.1958 Y50.0819
G01 X36.1869 Y50.0451
G01 X36.1711 Y50.0103
G01 X36.1033 Y49.9267
G01 X36.0756 Y49.9006
G01 X36.0439 Y49.8800
G01 X36.0086 Y49.8658
G01 X35.9075 Y49.8394
G01 X35.8729 Y49.8384
G01 X35.7977 Y49.8450
G01 X35.7431 Y49.8653
G01 X35.6819 Y49.8988
G01 X35.6362 Y49.9328
G01 X33.5895 Y51.9798
G01 X33.5585 Y52.0164
G01 X33.5369 Y52.0492
G01 X33.5224 Y52.0855
G01 X33.4965 Y52.1805
G01 X33.4945 Y70.6603
G01 X33.5054 Y70.7390
G01 X33.5598 Y70.8937
G01 X33.6118 Y71.1312
G01 X33.6291 Y71.3740
G01 X33.6118 Y71.6166
G01 X33.5600 Y71.8543
G01 X33.4752 Y72.0824
G01 X33.3586 Y72.2958
G01 X33.2128 Y72.4906
G01 X33.0406 Y72.6625
G01 X32.8458 Y72.8083
G01 X32.6321 Y72.9247
G01 X32.6006 Y72.9376
G01 X32.5379 Y72.9767
G01 X32.5046 Y73.0037
G01 X32.4292 Y73.0788
G01 X32.4320 Y73.0860
G01 X32.4292 Y73.0788
G01 X21.0378 Y73.0788
G01 X21.0348 Y73.0867
G01 X21.0378 Y73.0788
G01 X17.9802 Y70.0212
G01 X17.9725 Y70.0242
G01 X17.9802 Y70.0212
G01 X17.9802 Y38.0035
G01 X17.9761 Y37.9560
G01 X17.9636 Y37.9052
G01 X17.9040 Y37.7960
G01 X17.5047 Y37.3939
G01 X17.4622 Y37.3560
G01 X17.4056 Y37.2796
G01 X17.3563 Y37.1671
G01 X17.3373 Y37.0550
G01 X17.3408 Y36.9981
G01 X17.3408 Y32.4706
G01 X17.3373 Y32.4140
G01 X17.3563 Y32.3017
G01 X17.4056 Y32.1894
G01 X17.4622 Y32.1127
G01 X17.5047 Y32.0751
G01 X17.8852 Y31.6946
G01 X17.9161 Y31.6578
G01 X17.9375 Y31.6250
G01 X17.9522 Y31.5887
G01 X17.9720 Y31.5217
G01 X17.9802 Y31.4655
G01 X17.9802 Y26.8798
G01 X17.9725 Y26.8768
G01 X17.9802 Y26.8798
G01 X31.0708 Y13.7889
G01 X31.0678 Y13.7813
G01 X31.0708 Y13.7889
G01 X77.5040 Y13.7864
G01 X77.5569 Y13.7719
G01 X77.6211 Y13.7444
G01 X77.6544 Y13.7262
G01 X77.6839 Y13.7020
G01 X77.7471 Y13.6149
G01 X77.7654 Y13.5814
G01 X77.7768 Y13.5453
G01 X77.7814 Y13.5075
G01 X77.7817 Y13.4092
G01 X77.7293 Y13.2070
G01 X77.7118 Y13.0063
G01 X77.7293 Y12.8057
G01 X77.7814 Y12.6114
G01 X77.8665 Y12.4287
G01 X77.9821 Y12.2639
G01 X78.1253 Y12.1206
G01 X78.3415 Y11.9631
G01 X78.3623 Y11.9388
G01 X78.3791 Y11.9116
G01 X78.4106 Y11.8491
G01 X78.4243 Y11.8135
G01 X78.4314 Y11.7762
G01 X78.4238 Y11.6688
G01 X78.4162 Y11.6314
G01 X78.4019 Y11.5964
G01 X78.3811 Y11.5646
G01 X78.3181 Y11.4889
G01 X78.1246 Y11.3513
G01 X77.9821 Y11.2090
G01 X77.8665 Y11.0439
G01 X77.7814 Y10.8615
G01 X77.7293 Y10.6670
G01 X77.7118 Y10.4663
G01 X77.7293 Y10.2657
G01 X77.7814 Y10.0714
G01 X77.8665 Y9.8887
G01 X77.9821 Y9.7239
G01 X78.1243 Y9.5814
G01 X78.2894 Y9.4658
G01 X78.4720 Y9.3807
G01 X78.6663 Y9.3287
G01 X78.8670 Y9.3111
G01 X79.0677 Y9.3287
G01 X79.2622 Y9.3807
G01 X79.4446 Y9.4658
G01 X79.6097 Y9.5811
G01 X79.7517 Y9.7239
G01 X79.8220 Y9.8245
G01 X79.8472 Y9.8539
G01 X79.9066 Y9.9073
G01 X79.9343 Y9.9235
G01 X79.9640 Y9.9350
G01 X80.0311 Y9.9545
G01 X80.0875 Y9.9626
G01 X85.2665 Y9.9626
G01 X85.3051 Y9.9588
G01 X85.3829 Y9.9411
G01 X85.4121 Y9.9276
G01 X85.4385 Y9.9096
G01 X85.5139 Y9.8466
G01 X85.6021 Y9.7239
G01 X85.7443 Y9.5814
G01 X85.9094 Y9.4658
G01 X86.0920 Y9.3807
G01 X86.2863 Y9.3287
G01 X86.4870 Y9.3111
G01 X86.6877 Y9.3287
G01 X86.8822 Y9.3807
G01 X87.0646 Y9.4658
G01 X87.2297 Y9.5814
G01 X87.3719 Y9.7239
G01 X87.4873 Y9.8890
G01 X87.5729 Y10.0711
G01 X87.6247 Y10.2657
G01 X87.6422 Y10.4663
G01 X87.6247 Y10.6670
G01 X87.5726 Y10.8615
G01 X87.4875 Y11.0439
G01 X87.3719 Y11.2090
G01 X87.2287 Y11.3520
G01 X87.0372 Y11.4889
G01 X87.0128 Y11.5095
G01 X86.9917 Y11.5339
G01 X86.9434 Y11.6235
G01 X86.9297 Y11.6591
G01 X86.9229 Y11.6964
G01 X86.9231 Y11.7345
G01 X86.9378 Y11.8412
G01 X86.9523 Y11.8765
G01 X86.9729 Y11.9083
G01 X87.0359 Y11.9837
G01 X87.2297 Y12.1214
G01 X87.3719 Y12.2639
G01 X87.4875 Y12.4287
G01 X87.5726 Y12.6114
G01 X87.6247 Y12.8057
G01 X87.6422 Y13.0063
G01 X87.6247 Y13.2072
G01 X87.5695 Y13.4226
G01 X87.5701 Y13.4757
G01 X87.5889 Y13.5819
G01 X87.6046 Y13.6164
G01 X87.6267 Y13.6474
G01 X87.6965 Y13.7231
G01 X87.7674 Y13.7612
G01 X87.8345 Y13.7810
G01 X87.8777 Y13.7881
G01 X107.9840 Y13.7864
G01 X108.0369 Y13.7719
G01 X108.1011 Y13.7444
G01 X108.1344 Y13.7262
G01 X108.1639 Y13.7020
G01 X108.2271 Y13.6149
G01 X108.2454 Y13.5814
G01 X108.2568 Y13.5453
G01 X108.2614 Y13.5075
G01 X108.2617 Y13.4092
G01 X108.2093 Y13.2070
G01 X108.1918 Y13.0063
G01 X108.2093 Y12.8057
G01 X108.2614 Y12.6114
G01 X108.3465 Y12.4287
G01 X108.4621 Y12.2639
G01 X108.6053 Y12.1209
G01 X108.7973 Y11.9835
G01 X108.8217 Y11.9629
G01 X108.8428 Y11.9385
G01 X108.8911 Y11.8488
G01 X108.9048 Y11.8133
G01 X108.9116 Y11.7759
G01 X108.9043 Y11.6685
G01 X108.8967 Y11.6312
G01 X108.8710 Y11.5788
G01 X108.8484 Y11.5750
G01 X108.8710 Y11.5788
G01 X108.9967 Y11.4531
G01 X108.9927 Y11.4379
G01 X108.9967 Y11.4531
G01 X109.1232 Y11.4915
G01 X109.1616 Y11.4991
G01 X109.3274 Y11.5153
G01 X109.3666 Y11.5153
G01 X109.5324 Y11.4991
G01 X109.5708 Y11.4915
G01 X109.6973 Y11.4531
G01 X109.7013 Y11.4379
G01 X109.6973 Y11.4531
G01 X109.8248 Y11.5806
G01 X109.8431 Y11.5766
G01 X109.8248 Y11.5806
G01 X109.7892 Y11.6589
G01 X109.7824 Y11.6962
G01 X109.7900 Y11.8036
G01 X109.7973 Y11.8410
G01 X109.8118 Y11.8760
G01 X109.8326 Y11.9080
G01 X109.8956 Y11.9835
G01 X110.0897 Y12.1214
G01 X110.2317 Y12.2641
G01 X110.3020 Y12.3645
G01 X110.3617 Y12.4272
G01 X110.3866 Y12.4475
G01 X110.4143 Y12.4635
G01 X110.5390 Y12.5006
G01 X115.7465 Y12.5026
G01 X115.8321 Y12.4897
G01 X115.8629 Y12.4811
G01 X115.8921 Y12.4676
G01 X115.9939 Y12.3866
G01 X116.0821 Y12.2639
G01 X116.2253 Y12.1206
G01 X116.4417 Y11.9629
G01 X116.4628 Y11.9385
G01 X116.4793 Y11.9111
G01 X116.5111 Y11.8488
G01 X116.5248 Y11.8133
G01 X116.5316 Y11.7759
G01 X116.5243 Y11.6685
G01 X116.5167 Y11.6312
G01 X116.5022 Y11.5961
G01 X116.4816 Y11.5641
G01 X116.4184 Y11.4887
G01 X116.2248 Y11.3510
G01 X116.0823 Y11.2088
G01 X115.9670 Y11.0437
G01 X115.9081 Y10.9164
G01 X115.8354 Y10.8702
G01 X115.9081 Y10.9164
G01 X116.0216 Y10.9164
G01 X116.0300 Y10.9024
G01 X116.0216 Y10.9164
G01 X116.0940 Y11.0498
G01 X116.2113 Y11.1943
G01 X116.2390 Y11.2220
G01 X116.3678 Y11.3276
G01 X116.4006 Y11.3495
G01 X116.5474 Y11.4280
G01 X116.5837 Y11.4430
G01 X116.7432 Y11.4915
G01 X116.7816 Y11.4991
G01 X116.9474 Y11.5153
G01 X116.9866 Y11.5153
G01 X117.1524 Y11.4991
G01 X117.1910 Y11.4915
G01 X117.3503 Y11.4430
G01 X117.3866 Y11.4280
G01 X117.5334 Y11.3495
G01 X117.5662 Y11.3276
G01 X117.6950 Y11.2220
G01 X117.7227 Y11.1943
G01 X117.8400 Y11.0498
G01 X117.9124 Y10.9164
G01 X117.9040 Y10.9024
G01 X117.9124 Y10.9164
G01 X118.0262 Y10.9164
G01 X118.0988 Y10.8702
G01 X118.0262 Y10.9164
G01 X117.9670 Y11.0437
G01 X117.8517 Y11.2088
G01 X117.7084 Y11.3515
G01 X117.5167 Y11.4887
G01 X117.4923 Y11.5092
G01 X117.4714 Y11.5336
G01 X117.4232 Y11.6233
G01 X117.4092 Y11.6589
G01 X117.4024 Y11.6962
G01 X117.4026 Y11.7343
G01 X117.4173 Y11.8410
G01 X117.4318 Y11.8760
G01 X117.4526 Y11.9080
G01 X117.5156 Y11.9835
G01 X117.7097 Y12.1214
G01 X117.8519 Y12.2639
G01 X117.9675 Y12.4287
G01 X118.0526 Y12.6114
G01 X118.1047 Y12.8057
G01 X118.1222 Y13.0063
G01 X118.1047 Y13.2072
G01 X118.0495 Y13.4226
G01 X118.0501 Y13.4757
G01 X118.0600 Y13.5451
G01 X118.0689 Y13.5819
G01 X118.0846 Y13.6164
G01 X118.1067 Y13.6474
G01 X118.1765 Y13.7231
G01 X118.2459 Y13.7607
G01 X118.3145 Y13.7810
G01 X118.3706 Y13.7889
G01 X128.8750 Y13.7879
G01 X128.9299 Y13.7790
G01 X128.9759 Y13.7617
G01 X129.0371 Y13.7282
G01 X129.0828 Y13.6942
G01 X133.9408 Y8.8359
G01 X133.9378 Y8.8285
G01 X133.9408 Y8.8359
G01 X135.4577 Y8.8359
G01 X135.5054 Y8.8321
G01 X135.5639 Y8.8156
G01 X135.6411 Y8.7752
G01 X135.6868 Y8.7412
G01 X135.8163 Y8.6098
G01 X135.8575 Y8.5481
G01 X135.8796 Y8.4986
G01 X135.8885 Y8.4544
G01 X135.8928 Y8.3467
G01 X135.8847 Y8.3094
G01 X135.8362 Y8.2131
G01 X135.8148 Y8.1816
G01 X135.7879 Y8.1547
G01 X135.7567 Y8.1336
G01 X135.6693 Y8.0881
G01 X135.3899 Y8.0254
G01 X135.1620 Y7.9403
G01 X135.0289 Y7.8677
G01 X134.9626 Y7.8770
G01 X135.0289 Y7.8677
G01 X135.1074 Y7.7889
G01 X135.1039 Y7.7655
G01 X135.1074 Y7.7889
G01 X135.2400 Y7.8598
G01 X135.2763 Y7.8748
G01 X135.5387 Y7.9545
G01 X135.5773 Y7.9621
G01 X135.8699 Y7.9901
G01 X136.1628 Y7.9621
G01 X136.2012 Y7.9545
G01 X136.4638 Y7.8748
G01 X136.4996 Y7.8588
G01 X137.6070 Y7.8600
G01 X137.6103 Y7.8524
G01 X137.6070 Y7.8600
G01 X137.9761 Y8.2288
G01 X137.9837 Y8.2258
G01 X137.9761 Y8.2288
G01 X137.9761 Y17.1120
G01 X138.0053 Y17.1412
G01 X137.9761 Y17.1120
G01 X136.5194 Y17.1132
G01 X136.4839 Y17.0972
G01 X136.2212 Y17.0175
G01 X136.1829 Y17.0099
G01 X135.8900 Y16.9819
G01 X135.5974 Y17.0099
G01 X135.5588 Y17.0175
G01 X135.2961 Y17.0972
G01 X135.2601 Y17.1122
G01 X135.0180 Y17.2415
G01 X134.9853 Y17.2634
G01 X134.7732 Y17.4374
G01 X134.7455 Y17.4653
G01 X134.5715 Y17.6774
G01 X134.5496 Y17.7099
G01 X134.4201 Y17.9520
G01 X134.4051 Y17.9883
G01 X134.3256 Y18.2509
G01 X134.3180 Y18.2893
G01 X134.2901 Y18.5819
G01 X134.3180 Y18.8747
G01 X134.3256 Y18.9131
G01 X134.4051 Y19.1757
G01 X134.4201 Y19.2121
G01 X134.5496 Y19.4541
G01 X134.5715 Y19.4866
G01 X134.7455 Y19.6987
G01 X134.7732 Y19.7264
G01 X134.9853 Y19.9006
G01 X135.0180 Y19.9225
G01 X135.2601 Y20.0518
G01 X135.2961 Y20.0668
G01 X135.5588 Y20.1465
G01 X135.5974 Y20.1541
G01 X135.8900 Y20.1821
G01 X136.1829 Y20.1541
G01 X136.2212 Y20.1465
G01 X136.4839 Y20.0668
G01 X136.5194 Y20.0508
G01 X137.9761 Y20.0520
G01 X138.0053 Y20.0226
G01 X137.9761 Y20.0520
G01 X137.9761 Y29.3040
G01 X138.0053 Y29.3332
G01 X137.9761 Y29.3040
G01 X136.4993 Y29.3053
G01 X136.4638 Y29.2892
G01 X136.2012 Y29.2095
G01 X136.1628 Y29.2019
G01 X135.8699 Y29.1739
G01 X135.5773 Y29.2019
G01 X135.5387 Y29.2095
G01 X135.2578 Y29.2959
G01 X134.9980 Y29.4335
G01 X134.9654 Y29.4554
G01 X134.7531 Y29.6294
G01 X134.7254 Y29.6573
G01 X134.5514 Y29.8694
G01 X134.5296 Y29.9019
G01 X134.3919 Y30.1617
G01 X134.3055 Y30.4429
G01 X134.2979 Y30.4813
G01 X134.2710 Y30.7543
G01 X134.2710 Y30.7937
G01 X134.3002 Y31.0820
G01 X134.3853 Y31.3677
G01 X134.4003 Y31.4041
G01 X134.5296 Y31.6461
G01 X134.5514 Y31.6786
G01 X134.7442 Y31.9105
G01 X134.9654 Y32.0926
G01 X134.9980 Y32.1145
G01 X135.2578 Y32.2522
G01 X135.5387 Y32.3385
G01 X135.5773 Y32.3461
G01 X135.8699 Y32.3741
G01 X136.1628 Y32.3461
G01 X136.2012 Y32.3385
G01 X136.4638 Y32.2588
G01 X136.4996 Y32.2428
G01 X137.9761 Y32.2440
G01 X138.0053 Y32.2146
G01 X137.9761 Y32.2440
G01 X137.9761 Y38.7810
G01 X137.9837 Y38.7843
G01 X137.9761 Y38.7810
G01 X135.2763 Y41.4823
G01 X135.2400 Y41.4962
G01 X134.9980 Y41.6255
G01 X134.9654 Y41.6474
G01 X134.7440 Y41.8297
G01 X134.5514 Y42.0614
G01 X134.5296 Y42.0939
G01 X134.4003 Y42.3360
G01 X134.3853 Y42.3723
G01 X134.3002 Y42.6580
G01 X134.2710 Y42.9463
G01 X134.2710 Y42.9857
G01 X134.2979 Y43.2587
G01 X134.3055 Y43.2971
G01 X134.3919 Y43.5783
G01 X134.5296 Y43.8381
G01 X134.5514 Y43.8706
G01 X134.7442 Y44.1025
G01 X134.9812 Y44.2963
G01 X135.2578 Y44.4442
G01 X135.5387 Y44.5305
G01 X135.5773 Y44.5381
G01 X135.8699 Y44.5661
G01 X136.1628 Y44.5381
G01 X136.2012 Y44.5305
G01 X136.4823 Y44.4442
G01 X136.7422 Y44.3065
G01 X136.7747 Y44.2846
G01 X136.9959 Y44.1023
G01 X137.1887 Y43.8706
G01 X137.2105 Y43.8381
G01 X137.3398 Y43.5961
G01 X137.3538 Y43.5595
G01 X140.4986 Y40.4150
G01 X140.6682 Y40.2067
G01 X140.7958 Y39.9702
G01 X140.8107 Y39.9341
G01 X140.8831 Y39.6959
G01 X140.8908 Y39.6573
G01 X140.9162 Y39.3901
G01 X140.9162 Y7.6200
G01 X140.8161 Y7.6200
G01 X140.8161 Y39.3901
G01 X140.7912 Y39.6476
G01 X140.7076 Y39.9232
G01 X140.5852 Y40.1510
G01 X140.4214 Y40.3515
G01 X137.2664 Y43.5072
G01 X137.2517 Y43.5488
G01 X137.1173 Y43.7993
G01 X136.9306 Y44.0266
G01 X136.7112 Y44.2074
G01 X136.4440 Y44.3517
G01 X136.1722 Y44.4348
G01 X135.8798 Y44.4655
G01 X135.5870 Y44.4386
G01 X135.2959 Y44.3517
G01 X135.0366 Y44.2133
G01 X134.8029 Y44.0195
G01 X134.6228 Y43.7993
G01 X134.4884 Y43.5488
G01 X134.4013 Y43.2681
G01 X134.3706 Y42.9758
G01 X134.3988 Y42.6733
G01 X134.4884 Y42.3832
G01 X134.6228 Y42.1328
G01 X134.8095 Y41.9054
G01 X135.0452 Y41.7137
G01 X135.2870 Y41.5844
G01 X135.3289 Y41.5696
G01 X138.0759 Y38.8226
G01 X138.0759 Y32.1440
G01 X136.4747 Y32.1440
G01 X136.4348 Y32.1630
G01 X136.1722 Y32.2428
G01 X135.8798 Y32.2735
G01 X135.5870 Y32.2466
G01 X135.2959 Y32.1597
G01 X135.0287 Y32.0154
G01 X134.8029 Y31.8275
G01 X134.6228 Y31.6073
G01 X134.4884 Y31.3568
G01 X134.4013 Y31.0761
G01 X134.3706 Y30.7642
G01 X134.3988 Y30.4813
G01 X134.4808 Y30.2092
G01 X134.6228 Y29.9408
G01 X134.8166 Y29.7068
G01 X135.0452 Y29.5217
G01 X135.2959 Y29.3881
G01 X135.5870 Y29.3014
G01 X135.8798 Y29.2745
G01 X136.1722 Y29.3053
G01 X136.4348 Y29.3848
G01 X136.4747 Y29.4041
G01 X138.0759 Y29.4041
G01 X138.0759 Y19.9520
G01 X136.4948 Y19.9520
G01 X136.4549 Y19.9710
G01 X136.1923 Y20.0508
G01 X135.8999 Y20.0815
G01 X135.6070 Y20.0546
G01 X135.3160 Y19.9677
G01 X135.0488 Y19.8234
G01 X134.8293 Y19.6426
G01 X134.6429 Y19.4153
G01 X134.5042 Y19.1559
G01 X134.4211 Y18.8841
G01 X134.3904 Y18.5722
G01 X134.4173 Y18.2992
G01 X134.5009 Y18.0172
G01 X134.6429 Y17.7485
G01 X134.8367 Y17.5148
G01 X135.0566 Y17.3347
G01 X135.3160 Y17.1961
G01 X135.6070 Y17.1094
G01 X135.8999 Y17.0825
G01 X136.1923 Y17.1132
G01 X136.4549 Y17.1928
G01 X136.4945 Y17.2121
G01 X138.0759 Y17.2121
G01 X138.0759 Y8.1874
G01 X137.6484 Y7.7600
G01 X136.4747 Y7.7600
G01 X136.4348 Y7.7790
G01 X136.1625 Y7.8613
G01 X135.8603 Y7.8895
G01 X135.5679 Y7.8588
G01 X135.3053 Y7.7790
G01 X135.0891 Y7.6657
G01 X134.8671 Y7.8877
G01 X134.8943 Y7.9080
G01 X135.1204 Y8.0315
G01 X135.3617 Y8.1214
G01 X135.6205 Y8.1778
G01 X135.6472 Y8.1877
G01 X135.7244 Y8.2319
G01 X135.7483 Y8.2611
G01 X135.7818 Y8.3223
G01 X135.7935 Y8.3584
G01 X135.7940 Y8.3774
G01 X135.7889 Y8.4473
G01 X135.7810 Y8.4793
G01 X135.7386 Y8.5471
G01 X135.6159 Y8.6703
G01 X135.5933 Y8.6876
G01 X135.5138 Y8.7285
G01 X135.4577 Y8.7361
G01 X133.8994 Y8.7361
G01 X129.0119 Y13.6233
G01 X128.9893 Y13.6403
G01 X128.9279 Y13.6738
G01 X128.9098 Y13.6815
G01 X128.8644 Y13.6883
G01 X118.3706 Y13.6891
G01 X118.3424 Y13.6850
G01 X118.2754 Y13.6652
G01 X118.2418 Y13.6479
G01 X118.1712 Y13.5664
G01 X118.1590 Y13.5308
G01 X118.1489 Y13.4615
G01 X118.1486 Y13.4351
G01 X118.2032 Y13.2245
G01 X118.2223 Y13.0063
G01 X118.2032 Y12.7884
G01 X118.1466 Y12.5771
G01 X118.0541 Y12.3787
G01 X117.9286 Y12.1996
G01 X117.7740 Y12.0447
G01 X117.5951 Y11.9195
G01 X117.5743 Y11.9002
G01 X117.5306 Y11.8455
G01 X117.5131 Y11.8120
G01 X117.5022 Y11.7239
G01 X117.5019 Y11.7048
G01 X117.5123 Y11.6685
G01 X117.5438 Y11.6060
G01 X117.5626 Y11.5804
G01 X117.7732 Y11.4280
G01 X117.9281 Y11.2730
G01 X118.0536 Y11.0937
G01 X118.1461 Y10.8956
G01 X118.1674 Y10.8163
G01 X117.8494 Y10.8163
G01 X117.8405 Y10.8389
G01 X117.7511 Y11.0020
G01 X117.6315 Y11.1448
G01 X117.4948 Y11.2563
G01 X117.3213 Y11.3474
G01 X117.1524 Y11.3982
G01 X116.9769 Y11.4158
G01 X116.7722 Y11.3957
G01 X116.5946 Y11.3398
G01 X116.4392 Y11.2563
G01 X116.3025 Y11.1448
G01 X116.1829 Y11.0020
G01 X116.0935 Y10.8389
G01 X116.0846 Y10.8163
G01 X115.7666 Y10.8163
G01 X115.7879 Y10.8956
G01 X115.8804 Y11.0937
G01 X116.0059 Y11.2730
G01 X116.1605 Y11.4275
G01 X116.3391 Y11.5524
G01 X116.3597 Y11.5720
G01 X116.4034 Y11.6266
G01 X116.4209 Y11.6601
G01 X116.4321 Y11.7673
G01 X116.4217 Y11.8036
G01 X116.3902 Y11.8661
G01 X116.3714 Y11.8918
G01 X116.1605 Y12.0444
G01 X116.0054 Y12.1996
G01 X115.9210 Y12.3182
G01 X115.8428 Y12.3805
G01 X115.8128 Y12.3916
G01 X115.7465 Y12.4026
G01 X110.5532 Y12.4016
G01 X110.4722 Y12.3789
G01 X110.4572 Y12.3731
G01 X110.4311 Y12.3551
G01 X110.3841 Y12.3071
G01 X110.3086 Y12.1996
G01 X110.1540 Y12.0447
G01 X109.9640 Y11.9106
G01 X109.9106 Y11.8455
G01 X109.8931 Y11.8120
G01 X109.8819 Y11.7048
G01 X109.8923 Y11.6685
G01 X109.9238 Y11.6060
G01 X109.9421 Y11.5809
G01 X109.9553 Y11.5697
G01 X109.7234 Y11.3378
G01 X109.5324 Y11.3982
G01 X109.3569 Y11.4158
G01 X109.1616 Y11.3982
G01 X108.9706 Y11.3378
G01 X108.7382 Y11.5702
G01 X108.7938 Y11.6426
G01 X108.8047 Y11.6787
G01 X108.8118 Y11.7483
G01 X108.8085 Y11.7861
G01 X108.7618 Y11.8796
G01 X108.7392 Y11.9022
G01 X108.5405 Y12.0444
G01 X108.3854 Y12.1996
G01 X108.2599 Y12.3787
G01 X108.1674 Y12.5771
G01 X108.1108 Y12.7884
G01 X108.0917 Y13.0063
G01 X108.1108 Y13.2243
G01 X108.1626 Y13.4211
G01 X108.1593 Y13.5240
G01 X108.1443 Y13.5588
G01 X108.0930 Y13.6312
G01 X108.0618 Y13.6525
G01 X107.9975 Y13.6799
G01 X107.9716 Y13.6873
G01 X87.8764 Y13.6881
G01 X87.7954 Y13.6652
G01 X87.7618 Y13.6479
G01 X87.6912 Y13.5664
G01 X87.6790 Y13.5308
G01 X87.6689 Y13.4615
G01 X87.6686 Y13.4351
G01 X87.7232 Y13.2245
G01 X87.7423 Y13.0063
G01 X87.7232 Y12.7884
G01 X87.6666 Y12.5771
G01 X87.5741 Y12.3787
G01 X87.4486 Y12.1996
G01 X87.2940 Y12.0447
G01 X87.1045 Y11.9108
G01 X87.0407 Y11.8298
G01 X87.0298 Y11.7937
G01 X87.0227 Y11.7241
G01 X87.0260 Y11.6865
G01 X87.0727 Y11.5928
G01 X87.0953 Y11.5702
G01 X87.2934 Y11.4282
G01 X87.4486 Y11.2733
G01 X87.5741 Y11.0940
G01 X87.6666 Y10.8956
G01 X87.7232 Y10.6843
G01 X87.7423 Y10.4663
G01 X87.7232 Y10.2484
G01 X87.6666 Y10.0371
G01 X87.5741 Y9.8387
G01 X87.4486 Y9.6594
G01 X87.2940 Y9.5047
G01 X87.1146 Y9.3792
G01 X86.9163 Y9.2867
G01 X86.7049 Y9.2301
G01 X86.4870 Y9.2111
G01 X86.2691 Y9.2301
G01 X86.0577 Y9.2867
G01 X85.8594 Y9.3792
G01 X85.6800 Y9.5047
G01 X85.5254 Y9.6594
G01 X85.4502 Y9.7671
G01 X85.4306 Y9.7879
G01 X85.3760 Y9.8316
G01 X85.3483 Y9.8473
G01 X85.2665 Y9.8628
G01 X80.0875 Y9.8628
G01 X80.0593 Y9.8588
G01 X79.9922 Y9.8389
G01 X79.9635 Y9.8252
G01 X79.9041 Y9.7671
G01 X79.8286 Y9.6594
G01 X79.6740 Y9.5047
G01 X79.4946 Y9.3792
G01 X79.2963 Y9.2867
G01 X79.0849 Y9.2301
G01 X78.8670 Y9.2111
G01 X78.6491 Y9.2301
G01 X78.4377 Y9.2867
G01 X78.2394 Y9.3792
G01 X78.0600 Y9.5047
G01 X77.9054 Y9.6594
G01 X77.7799 Y9.8387
G01 X77.6874 Y10.0371
G01 X77.6308 Y10.2484
G01 X77.6117 Y10.4663
G01 X77.6308 Y10.6843
G01 X77.6874 Y10.8956
G01 X77.7799 Y11.0940
G01 X77.9054 Y11.2733
G01 X78.0603 Y11.4280
G01 X78.2495 Y11.5618
G01 X78.3029 Y11.6268
G01 X78.3206 Y11.6604
G01 X78.3316 Y11.7676
G01 X78.3212 Y11.8039
G01 X78.2897 Y11.8664
G01 X78.2709 Y11.8923
G01 X78.0605 Y12.0444
G01 X77.9054 Y12.1996
G01 X77.7799 Y12.3787
G01 X77.6874 Y12.5771
G01 X77.6308 Y12.7884
G01 X77.6117 Y13.0063
G01 X77.6308 Y13.2243
G01 X77.6826 Y13.4211
G01 X77.6793 Y13.5240
G01 X77.6643 Y13.5588
G01 X77.6130 Y13.6312
G01 X77.5818 Y13.6525
G01 X77.5175 Y13.6799
G01 X77.4916 Y13.6873
G01 X31.0294 Y13.6891
G01 X17.8801 Y26.8384
G01 X17.8791 Y31.4797
G01 X17.8491 Y31.5788
G01 X17.8217 Y31.6159
G01 X17.4338 Y32.0043
G01 X17.3881 Y32.0451
G01 X17.3220 Y32.1353
G01 X17.3068 Y32.1620
G01 X17.2623 Y32.2694
G01 X17.2542 Y32.2989
G01 X17.2372 Y32.4094
G01 X17.2408 Y32.4706
G01 X17.2408 Y36.9981
G01 X17.2372 Y37.0596
G01 X17.2542 Y37.1699
G01 X17.2623 Y37.1996
G01 X17.3068 Y37.3070
G01 X17.3220 Y37.3337
G01 X17.3881 Y37.4236
G01 X17.4338 Y37.4645
G01 X17.8237 Y37.8559
G01 X17.8704 Y37.9412
G01 X17.8801 Y38.0035
G01 X17.8801 Y70.0626
G01 X20.9964 Y73.1789
G01 X32.4706 Y73.1789
G01 X32.5918 Y73.0611
G01 X32.6456 Y73.0270
G01 X32.6738 Y73.0159
G01 X32.8999 Y72.8924
G01 X33.1061 Y72.7382
G01 X33.2882 Y72.5561
G01 X33.4427 Y72.3499
G01 X33.5661 Y72.1238
G01 X33.6560 Y71.8825
G01 X33.7109 Y71.6308
G01 X33.7292 Y71.3740
G01 X33.7109 Y71.1172
G01 X33.6560 Y70.8655
G01 X33.6085 Y70.7385
G01 X33.5945 Y70.6603
G01 X33.5956 Y52.1947
G01 X33.6255 Y52.0954
G01 X33.6601 Y52.0504
G01 X35.7071 Y50.0035
G01 X35.7299 Y49.9864
G01 X35.7911 Y49.9532
G01 X35.8186 Y49.9430
G01 X35.8963 Y49.9387
G01 X35.9979 Y49.9689
G01 X36.0276 Y49.9923
G01 X36.0733 Y50.0449
G01 X36.0924 Y50.0776
G01 X36.1079 Y50.1800
G01 X36.0929 Y50.2437
G01 X36.0881 Y50.2884
G01 X36.0881 Y50.8310
G01 X36.3880 Y50.8310
G01 X36.3901 Y50.3116
G01 X36.4048 Y50.2755
G01 X36.4173 Y50.2602
G01 X36.4498 Y50.2387
G01 X36.4881 Y50.2310
G01 X38.2074 Y50.2328
G01 X38.2435 Y50.2478
G01 X38.2587 Y50.2602
G01 X38.2712 Y50.2755
G01 X38.2862 Y50.3116
G01 X38.2880 Y50.8310
G01 X38.5879 Y50.8310
G01 X38.5879 Y50.2884
G01 X38.5836 Y50.2468
G01 X38.5750 Y50.2125
G01 X38.5702 Y50.1426
G01 X38.5745 Y50.1051
G01 X38.6156 Y50.0263
G01 X38.6397 Y49.9971
G01 X38.7287 Y49.9476
G01 X38.7909 Y49.9379
G01 X56.4779 Y49.9389
G01 X56.5770 Y49.9692
G01 X56.6219 Y50.0035
G01 X63.5437 Y56.9267
G01 X63.5904 Y57.0121
G01 X63.6001 Y57.0743
G01 X63.6001 Y58.3199
G01 X68.7309 Y58.3199
G01 X71.0989 Y55.9521
G01 X71.1396 Y55.8800
G01 X71.2457 Y55.7517
G01 X71.3905 Y55.6346
G01 X71.5376 Y55.5564
G01 X71.7065 Y55.5053
G01 X71.8919 Y55.4886
G01 X72.0575 Y55.5053
G01 X72.2173 Y55.5531
G01 X72.3737 Y55.6346
G01 X72.5251 Y55.7588
G01 X72.6354 Y55.8965
G01 X72.7093 Y56.0347
G01 X72.7646 Y56.2125
G01 X72.7817 Y56.3977
G01 X72.7646 Y56.5635
G01 X72.7169 Y56.7230
G01 X72.6354 Y56.8795
G01 X72.5185 Y57.0243
G01 X72.3900 Y57.1304
G01 X72.3179 Y57.1711
G01 X69.6976 Y59.7916
G01 X69.5670 Y59.8988
G01 X69.4085 Y59.9816
G01 X69.2561 Y60.0273
G01 X69.0880 Y60.0441
G01 X63.6001 Y60.0441
G01 X63.6001 Y62.5503
G01 X63.5780 Y62.6463
G01 X63.5450 Y62.7085
G01 X63.4500 Y62.9633
G01 X63.3920 Y63.2287
G01 X63.3727 Y63.5000
G01 X63.3910 Y63.7705
G01 X63.3740 Y63.8528
G01 X63.3684 Y63.8708
G01 X63.3471 Y63.9023
G01 X63.2978 Y63.9516
G01 X63.2701 Y63.9707
G01 X62.9577 Y64.2833
G01 X62.9956 Y64.3583
G01 X63.0550 Y64.5554
G01 X63.0756 Y64.7797
G01 X63.0525 Y64.9940
G01 X62.9923 Y65.1909
G01 X62.8957 Y65.3727
G01 X62.7537 Y65.5477
G01 X62.5787 Y65.6897
G01 X62.3969 Y65.7863
G01 X62.1810 Y65.8503
G01 X61.9663 Y65.8696
G01 X61.7614 Y65.8487
G01 X61.5643 Y65.7896
G01 X61.3733 Y65.6897
G01 X61.1983 Y65.5477
G01 X61.0672 Y65.3890
G01 X60.9641 Y65.1998
G01 X60.8973 Y64.9846
G01 X60.8764 Y64.7797
G01 X60.8957 Y64.5650
G01 X60.9564 Y64.3583
G01 X60.9943 Y64.2833
G01 X60.7080 Y63.9968
G01 X60.6372 Y63.9821
G01 X60.6067 Y63.9641
G01 X60.5536 Y63.9168
G01 X60.4563 Y63.8089
G01 X60.4129 Y63.7215
G01 X60.3954 Y63.5864
G01 X60.3661 Y63.4713
G01 X60.3433 Y63.4081
G01 X60.2927 Y63.3009
G01 X60.2585 Y63.2430
G01 X60.1886 Y63.1472
G01 X60.1449 Y63.0979
G01 X60.0946 Y63.0540
G01 X56.7705 Y59.7299
G01 X56.7200 Y59.6829
G01 X56.6664 Y59.6438
G01 X56.5645 Y59.5833
G01 X56.5036 Y59.5546
G01 X56.3921 Y59.5145
G01 X56.3268 Y59.4977
G01 X56.2097 Y59.4794
G01 X56.1442 Y59.4756
G01 X56.0776 Y59.4799
G01 X44.2740 Y59.4779
G01 X44.0771 Y59.4825
G01 X44.0124 Y59.4926
G01 X43.8976 Y59.5219
G01 X43.8340 Y59.5447
G01 X43.7269 Y59.5953
G01 X43.6689 Y59.6295
G01 X43.5732 Y59.6997
G01 X43.5242 Y59.7431
G01 X43.4802 Y59.7934
G01 X43.0301 Y60.2417
G01 X42.9425 Y60.2894
G01 X42.9115 Y60.2950
G01 X42.8414 Y60.2971
G01 X42.3911 Y60.7474
G01 X42.3901 Y60.8038
G01 X42.3672 Y60.8848
G01 X42.3601 Y60.9028
G01 X42.3327 Y60.9399
G01 X41.5303 Y61.7400
G01 X41.3944 Y61.8825
G01 X41.3558 Y61.9356
G01 X41.2953 Y62.0375
G01 X41.2666 Y62.0984
G01 X41.2265 Y62.2099
G01 X41.2100 Y62.2752
G01 X41.1917 Y62.3923
G01 X41.1876 Y62.4578
G01 X41.1919 Y62.5244
G01 X41.1899 Y68.5020
G01 X41.1945 Y68.6989
G01 X41.2046 Y68.7636
G01 X41.2341 Y68.8784
G01 X41.2567 Y68.9419
G01 X41.3073 Y69.0491
G01 X41.3418 Y69.1070
G01 X41.4117 Y69.2028
G01 X41.4551 Y69.2518
G01 X41.5054 Y69.2960
G01 X42.3255 Y70.1159
G01 X42.3426 Y70.1388
G01 X42.3814 Y70.2120
G01 X42.3911 Y70.2744
G01 X42.3901 Y77.6869
G01 X42.3598 Y77.7860
G01 X42.3255 Y77.8309
G01 X41.6872 Y78.4690
G01 X41.6646 Y78.4863
G01 X41.5851 Y78.5271
G01 X41.5290 Y78.5348
G01 X11.1742 Y78.5345
G01 X10.8847 Y78.5160
G01 X10.6078 Y78.4642
G01 X10.3391 Y78.3791
G01 X10.0998 Y78.2714
G01 X9.8582 Y78.1266
G01 X9.6355 Y77.9539
G01 X9.4303 Y77.7497
G01 X9.2563 Y77.5277
G01 X9.1102 Y77.2866
G01 X8.9898 Y77.0184
G01 X8.9073 Y76.7491
G01 X8.8585 Y76.4791
G01 X8.8415 Y76.2018
G01 X8.8412 Y70.6112
G01 X8.8102 Y70.3560
G01 X8.7899 Y70.2475
G01 X8.7907 Y65.5396
G01 X8.8074 Y65.4652
G01 X8.8730 Y65.3250
G01 X9.0086 Y64.9458
G01 X9.1067 Y64.5549
G01 X9.1658 Y64.1563
G01 X9.1854 Y63.7540
G01 X9.1658 Y63.3517
G01 X9.1067 Y62.9531
G01 X9.0086 Y62.5622
G01 X8.8730 Y62.1830
G01 X8.8074 Y62.0428
G01 X8.7899 Y61.9572
G01 X8.7899 Y57.2605
G01 X8.8102 Y57.1520
G01 X8.8412 Y56.8965
G01 X8.8412 Y21.8432
G01 X8.8102 Y21.5880
G01 X8.7899 Y21.4795
G01 X8.7899 Y16.7828
G01 X8.8074 Y16.6972
G01 X8.8730 Y16.5570
G01 X9.0086 Y16.1778
G01 X9.1067 Y15.7869
G01 X9.1658 Y15.3883
G01 X9.1854 Y14.9860
G01 X9.1658 Y14.5837
G01 X9.1067 Y14.1851
G01 X9.0086 Y13.7942
G01 X8.8730 Y13.4150
G01 X8.8074 Y13.2748
G01 X8.7899 Y13.1892
G01 X8.7899 Y8.4925
G01 X8.8102 Y8.3840
G01 X8.8412 Y8.1285
G01 X8.8412 Y2.5418
G01 X8.8600 Y2.2489
G01 X8.9101 Y1.9792
G01 X8.9941 Y1.7102
G01 X9.1138 Y1.4463
G01 X9.2606 Y1.2057
G01 X9.4353 Y0.9845
G01 X9.6355 Y0.7861
G01 X9.8516 Y0.6177
G01 X10.0825 Y0.4778
G01 X10.3462 Y0.3581
G01 X10.6154 Y0.2741
G01 X10.8849 Y0.2238
G01 X11.1778 Y0.2052
G01 X137.6710 Y0.2052
G01 X137.6992 Y0.2093
G01 X137.7663 Y0.2291
G01 X137.7998 Y0.2464
G01 X137.8135 Y0.2596
G01 X137.8595 Y0.3124
G01 X137.8768 Y0.3406
G01 X137.8951 Y0.4293
G01 X137.8951 Y5.0201
G01 X138.2161 Y5.0201
G01 X138.4226 Y5.0358
G01 X138.6319 Y5.0848
G01 X138.8448 Y5.1732
G01 X139.0274 Y5.2865
G01 X139.1790 Y5.4158
G01 X140.4148 Y6.6512
G01 X140.5793 Y6.8509
G01 X140.7150 Y7.1049
G01 X140.7912 Y7.3624
G01 X140.8161 Y7.6200
G00 Z2.0000 ( retract )

G00 X136.8257 Y4.9393 ( rapid move to begin. )
G01 F450.0001
( Mill infeed pass 1/1 )
G01 Z-0.1270
G01 F900.0000
G01 X136.8257 Y4.9393
G01 X136.7450 Y5.0201
G01 X136.4747 Y5.0201
G01 X136.4348 Y5.0008
G01 X136.1529 Y4.9174
G01 X135.8798 Y4.8905
G01 X135.5870 Y4.9174
G01 X135.3053 Y5.0008
G01 X135.0891 Y5.1140
G01 X134.8671 Y4.8920
G01 X134.8943 Y4.8720
G01 X135.1204 Y4.7485
G01 X135.3617 Y4.6586
G01 X135.6131 Y4.6037
G01 X135.8699 Y4.5855
G01 X136.1270 Y4.6037
G01 X136.3784 Y4.6586
G01 X136.6197 Y4.7485
G01 X136.8455 Y4.8720
G01 X136.8727 Y4.8923
G01 X136.8257 Y4.9393
G01 X136.7112 Y4.9124
G01 X136.5781 Y4.8395
G01 X136.3502 Y4.7544
G01 X136.1125 Y4.7028
G01 X135.8699 Y4.6853
G01 X135.6274 Y4.7028
G01 X135.3899 Y4.7544
G01 X135.1620 Y4.8397
G01 X135.0289 Y4.9124
G01 X134.9626 Y4.9030
G01 X135.0289 Y4.9124
G01 X135.1074 Y4.9911
G01 X135.1039 Y5.0142
G01 X135.1074 Y4.9911
G01 X135.2400 Y4.9202
G01 X135.2763 Y4.9052
G01 X135.5387 Y4.8255
G01 X135.5773 Y4.8179
G01 X135.8699 Y4.7899
G01 X136.1628 Y4.8179
G01 X136.2012 Y4.8255
G01 X136.4638 Y4.9052
G01 X136.4993 Y4.9215
G01 X136.7036 Y4.9200
G01 X136.7112 Y4.9124
G00 Z2.0000 ( retract )

G00 X134.5941 Y5.6091 ( rapid move to begin. )
G01 F450.0001
( Mill infeed pass 1/1 )
G01 Z-0.1270
G01 F900.0000
G01 X134.5941 Y5.6091
G01 X134.3724 Y5.3871
G01 X134.3520 Y5.4143
G01 X134.2286 Y5.6403
G01 X134.1387 Y5.8816
G01 X134.0838 Y6.1331
G01 X134.0655 Y6.3899
G01 X134.0838 Y6.6469
G01 X134.1387 Y6.8984
G01 X134.2286 Y7.1397
G01 X134.3520 Y7.3655
G01 X134.3724 Y7.3929
G01 X134.5941 Y7.1709
G01 X134.4841 Y6.9639
G01 X134.4013 Y6.6921
G01 X134.3701 Y6.3899
G01 X134.4013 Y6.0879
G01 X134.4808 Y5.8252
G01 X134.5941 Y5.6091
G01 X134.4712 Y5.6274
G01 X134.3924 Y5.5489
G01 X134.3830 Y5.4826
G01 X134.3924 Y5.5489
G01 X134.3198 Y5.6820
G01 X134.2344 Y5.9098
G01 X134.1829 Y6.1473
G01 X134.1656 Y6.3899
G01 X134.1829 Y6.6324
G01 X134.2344 Y6.8702
G01 X134.3198 Y7.0980
G01 X134.3924 Y7.2311
G01 X134.3830 Y7.2974
G01 X134.3924 Y7.2311
G01 X134.4712 Y7.1526
G01 X134.4943 Y7.1562
G01 X134.4712 Y7.1526
G01 X134.4003 Y7.0201
G01 X134.3853 Y6.9837
G01 X134.3055 Y6.7211
G01 X134.2979 Y6.6827
G01 X134.2710 Y6.4097
G01 X134.2710 Y6.3703
G01 X134.2979 Y6.0973
G01 X134.3055 Y6.0589
G01 X134.3853 Y5.7963
G01 X134.4003 Y5.7600
G01 X134.4712 Y5.6274
G00 Z2.0000 ( retract )

G00 X135.3637 Y9.5900 ( rapid move to begin. )
G01 F450.0001
( Mill infeed pass 1/1 )
G01 Z-0.1270
G01 F900.0000
G01 X135.3637 Y9.5900
G01 X134.4275 Y9.5900
G01 X134.3858 Y9.5943
G01 X134.2763 Y9.6352
G01 X134.1844 Y9.7043
G01 X134.1153 Y9.7963
G01 X134.0744 Y9.9057
G01 X134.0701 Y9.9474
G01 X134.0701 Y10.8836
G01 X134.3701 Y10.8836
G01 X134.3701 Y9.9901
G01 X134.3777 Y9.9517
G01 X134.3993 Y9.9192
G01 X134.4318 Y9.8976
G01 X134.4701 Y9.8900
G01 X135.3637 Y9.8900
G01 X135.3637 Y9.5900
G01 X135.2636 Y9.6901
G01 X134.4087 Y9.6911
G01 X134.3243 Y9.7231
G01 X134.2550 Y9.7749
G01 X134.2032 Y9.8443
G01 X134.1709 Y9.9286
G01 X134.1702 Y10.7836
G01 X134.1404 Y10.8130
G01 X134.1702 Y10.7836
G01 X134.2700 Y10.7836
G01 X134.2992 Y10.8128
G01 X134.2700 Y10.7836
G01 X134.2700 Y9.9901
G01 X134.2738 Y9.9510
G01 X134.2852 Y9.9134
G01 X134.3038 Y9.8788
G01 X134.3287 Y9.8486
G01 X134.3589 Y9.8237
G01 X134.3934 Y9.8052
G01 X134.4310 Y9.7937
G01 X134.4701 Y9.7899
G01 X135.2636 Y9.7899
G01 X135.2928 Y9.8194
G01 X135.2636 Y9.7899
G01 X135.2636 Y9.6901
G00 Z2.0000 ( retract )

G00 X135.3637 Y12.8900 ( rapid move to begin. )
G01 F450.0001
( Mill infeed pass 1/1 )
G01 Z-0.1270
G01 F900.0000
G01 X135.3637 Y12.8900
G01 X134.4701 Y12.8900
G01 X134.4318 Y12.8824
G01 X134.4145 Y12.8732
G01 X134.3868 Y12.8455
G01 X134.3718 Y12.8095
G01 X134.3701 Y12.7899
G01 X134.3701 Y11.8963
G01 X134.0701 Y11.8963
G01 X134.0701 Y12.8323
G01 X134.0744 Y12.8742
G01 X134.1153 Y12.9837
G01 X134.1844 Y13.0757
G01 X134.2763 Y13.1448
G01 X134.3858 Y13.1854
G01 X134.4275 Y13.1900
G01 X135.3637 Y13.1900
G01 X135.3637 Y12.8900
G01 X135.2636 Y12.9901
G01 X135.2636 Y13.0899
G01 X135.2928 Y13.1194
G01 X135.2636 Y13.0899
G01 X134.4328 Y13.0912
G01 X134.4089 Y13.0873
G01 X134.3241 Y13.0574
G01 X134.2550 Y13.0051
G01 X134.2027 Y12.9360
G01 X134.1727 Y12.8509
G01 X134.1689 Y12.8273
G01 X134.1702 Y11.9964
G01 X134.1407 Y11.9670
G01 X134.1702 Y11.9964
G01 X134.2700 Y11.9964
G01 X134.2992 Y11.9670
G01 X134.2700 Y11.9964
G01 X134.2700 Y12.7899
G01 X134.2738 Y12.8290
G01 X134.2852 Y12.8666
G01 X134.3038 Y12.9012
G01 X134.3287 Y12.9314
G01 X134.3589 Y12.9563
G01 X134.3934 Y12.9748
G01 X134.4310 Y12.9860
G01 X134.4701 Y12.9901
G01 X135.2636 Y12.9901
G00 Z2.0000 ( retract )

G00 X135.3835 Y21.7820 ( rapid move to begin. )
G01 F450.0001
( Mill infeed pass 1/1 )
G01 Z-0.1270
G01 F900.0000
G01 X135.3835 Y21.7820
G01 X134.4475 Y21.7820
G01 X134.4059 Y21.7866
G01 X134.2964 Y21.8272
G01 X134.2042 Y21.8963
G01 X134.1354 Y21.9883
G01 X134.0945 Y22.0977
G01 X134.0902 Y22.1394
G01 X134.0902 Y23.0756
G01 X134.3901 Y23.0756
G01 X134.3901 Y22.1821
G01 X134.3975 Y22.1437
G01 X134.4193 Y22.1112
G01 X134.4519 Y22.0896
G01 X134.4900 Y22.0820
G01 X135.3835 Y22.0820
G01 X135.3835 Y21.7820
G01 X135.2837 Y21.8821
G01 X134.4529 Y21.8808
G01 X134.4290 Y21.8846
G01 X134.3442 Y21.9146
G01 X134.2751 Y21.9669
G01 X134.2227 Y22.0360
G01 X134.1925 Y22.1209
G01 X134.1890 Y22.1447
G01 X134.1900 Y22.9756
G01 X134.1608 Y23.0048
G01 X134.1900 Y22.9756
G01 X134.2901 Y22.9756
G01 X134.3193 Y23.0048
G01 X134.2901 Y22.9756
G01 X134.2901 Y22.1821
G01 X134.2939 Y22.1430
G01 X134.3053 Y22.1054
G01 X134.3238 Y22.0708
G01 X134.3487 Y22.0406
G01 X134.3790 Y22.0157
G01 X134.4135 Y21.9972
G01 X134.4511 Y21.9857
G01 X134.4900 Y21.9819
G01 X135.2837 Y21.9819
G01 X135.3129 Y22.0114
G01 X135.2837 Y21.9819
G01 X135.2837 Y21.8821
G00 Z2.0000 ( retract )

G00 X135.3835 Y25.0820 ( rapid move to begin. )
G01 F450.0001
( Mill infeed pass 1/1 )
G01 Z-0.1270
G01 F900.0000
G01 X135.3835 Y25.0820
G01 X134.4900 Y25.0820
G01 X134.4519 Y25.0744
G01 X134.4346 Y25.0652
G01 X134.4069 Y25.0375
G01 X134.3975 Y25.0203
G01 X134.3901 Y24.9819
G01 X134.3901 Y24.0883
G01 X134.0902 Y24.0883
G01 X134.0902 Y25.0243
G01 X134.0945 Y25.0662
G01 X134.1354 Y25.1757
G01 X134.2042 Y25.2677
G01 X134.2964 Y25.3368
G01 X134.4059 Y25.3774
G01 X134.4475 Y25.3820
G01 X135.3835 Y25.3820
G01 X135.3835 Y25.0820
G01 X135.2837 Y25.1821
G01 X135.2837 Y25.2819
G01 X135.3129 Y25.3114
G01 X135.2837 Y25.2819
G01 X134.4529 Y25.2832
G01 X134.4290 Y25.2793
G01 X134.3442 Y25.2494
G01 X134.2751 Y25.1971
G01 X134.2227 Y25.1280
G01 X134.1925 Y25.0429
G01 X134.1890 Y25.0193
G01 X134.1900 Y24.1884
G01 X134.1608 Y24.1592
G01 X134.1900 Y24.1884
G01 X134.2901 Y24.1884
G01 X134.3193 Y24.1592
G01 X134.2901 Y24.1884
G01 X134.2901 Y24.9819
G01 X134.2939 Y25.0210
G01 X134.3053 Y25.0586
G01 X134.3238 Y25.0932
G01 X134.3487 Y25.1234
G01 X134.3790 Y25.1483
G01 X134.4135 Y25.1668
G01 X134.4511 Y25.1783
G01 X134.4900 Y25.1821
G01 X135.2837 Y25.1821
G00 Z2.0000 ( retract )

G00 X135.3637 Y33.9740 ( rapid move to begin. )
G01 F450.0001
( Mill infeed pass 1/1 )
G01 Z-0.1270
G01 F900.0000
G01 X135.3637 Y33.9740
G01 X134.4275 Y33.9740
G01 X134.3858 Y33.9783
G01 X134.2763 Y34.0192
G01 X134.1844 Y34.0883
G01 X134.1153 Y34.1803
G01 X134.0744 Y34.2897
G01 X134.0701 Y34.3314
G01 X134.0701 Y35.2676
G01 X134.3701 Y35.2676
G01 X134.3701 Y34.3741
G01 X134.3777 Y34.3357
G01 X134.3993 Y34.3032
G01 X134.4318 Y34.2816
G01 X134.4701 Y34.2740
G01 X135.3637 Y34.2740
G01 X135.3637 Y33.9740
G01 X135.2636 Y34.0741
G01 X134.4087 Y34.0749
G01 X134.3243 Y34.1071
G01 X134.2550 Y34.1589
G01 X134.2027 Y34.2280
G01 X134.1727 Y34.3129
G01 X134.1689 Y34.3367
G01 X134.1702 Y35.1676
G01 X134.1407 Y35.1968
G01 X134.1702 Y35.1676
G01 X134.2700 Y35.1676
G01 X134.2992 Y35.1968
G01 X134.2700 Y35.1676
G01 X134.2700 Y34.3741
G01 X134.2738 Y34.3350
G01 X134.2852 Y34.2974
G01 X134.3038 Y34.2628
G01 X134.3287 Y34.2326
G01 X134.3589 Y34.2077
G01 X134.3934 Y34.1892
G01 X134.4310 Y34.1777
G01 X134.4701 Y34.1739
G01 X135.2636 Y34.1739
G01 X135.2928 Y34.2034
G01 X135.2636 Y34.1739
G01 X135.2636 Y34.0741
G00 Z2.0000 ( retract )

G00 X135.3637 Y37.2740 ( rapid move to begin. )
G01 F450.0001
( Mill infeed pass 1/1 )
G01 Z-0.1270
G01 F900.0000
G01 X135.3637 Y37.2740
G01 X134.4701 Y37.2740
G01 X134.4318 Y37.2664
G01 X134.4145 Y37.2572
G01 X134.3868 Y37.2295
G01 X134.3718 Y37.1935
G01 X134.3701 Y37.1739
G01 X134.3701 Y36.2803
G01 X134.0701 Y36.2803
G01 X134.0701 Y37.2163
G01 X134.0744 Y37.2582
G01 X134.1153 Y37.3677
G01 X134.1844 Y37.4597
G01 X134.2763 Y37.5288
G01 X134.3858 Y37.5694
G01 X134.4275 Y37.5740
G01 X135.3637 Y37.5740
G01 X135.3637 Y37.2740
G01 X135.2636 Y37.3741
G01 X135.2636 Y37.4739
G01 X135.2928 Y37.5034
G01 X135.2636 Y37.4739
G01 X134.4328 Y37.4752
G01 X134.4089 Y37.4713
G01 X134.3241 Y37.4414
G01 X134.2550 Y37.3891
G01 X134.2027 Y37.3200
G01 X134.1727 Y37.2351
G01 X134.1689 Y37.2113
G01 X134.1702 Y36.3804
G01 X134.1407 Y36.3510
G01 X134.1702 Y36.3804
G01 X134.2700 Y36.3804
G01 X134.2992 Y36.3510
G01 X134.2700 Y36.3804
G01 X134.2700 Y37.1739
G01 X134.2738 Y37.2130
G01 X134.2852 Y37.2506
G01 X134.3038 Y37.2852
G01 X134.3287 Y37.3154
G01 X134.3589 Y37.3403
G01 X134.3934 Y37.3588
G01 X134.4310 Y37.3703
G01 X134.4701 Y37.3741
G01 X135.2636 Y37.3741
G00 Z2.0000 ( retract )

G00 X135.2636 Y46.2661 ( rapid move to begin. )
G01 F450.0001
( Mill infeed pass 1/1 )
G01 Z-0.1270
G01 F900.0000
G01 X135.2636 Y46.2661
G01 X134.4328 Y46.2648
G01 X134.4089 Y46.2686
G01 X134.3241 Y46.2986
G01 X134.2550 Y46.3509
G01 X134.2027 Y46.4200
G01 X134.1727 Y46.5049
G01 X134.1689 Y46.5287
G01 X134.1702 Y47.3596
G01 X134.1407 Y47.3888
G01 X134.1702 Y47.3596
G01 X134.2700 Y47.3596
G01 X134.2992 Y47.3888
G01 X134.2700 Y47.3596
G01 X134.2700 Y46.5661
G01 X134.2738 Y46.5270
G01 X134.2852 Y46.4894
G01 X134.3038 Y46.4548
G01 X134.3287 Y46.4246
G01 X134.3589 Y46.3997
G01 X134.3934 Y46.3812
G01 X134.4310 Y46.3697
G01 X134.4701 Y46.3659
G01 X135.2636 Y46.3659
G01 X135.2928 Y46.3954
G01 X135.2636 Y46.3659
G01 X135.2636 Y46.2661
G01 X135.3637 Y46.1660
G01 X135.3637 Y46.4660
G01 X134.4701 Y46.4660
G01 X134.4318 Y46.4736
G01 X134.3993 Y46.4952
G01 X134.3777 Y46.5277
G01 X134.3701 Y46.5661
G01 X134.3701 Y47.4596
G01 X134.0701 Y47.4596
G01 X134.0701 Y46.5234
G01 X134.0744 Y46.4817
G01 X134.1153 Y46.3723
G01 X134.1844 Y46.2803
G01 X134.2763 Y46.2112
G01 X134.3858 Y46.1706
G01 X134.4275 Y46.1660
G01 X135.3637 Y46.1660
G00 Z2.0000 ( retract )

G00 X137.5700 Y46.5287 ( rapid move to begin. )
G01 F450.0001
( Mill infeed pass 1/1 )
G01 Z-0.1270
G01 F900.0000
G01 X137.5700 Y46.5287
G01 X137.5700 Y47.3596
G01 X137.5994 Y47.3888
G01 X137.5700 Y47.3596
G01 X137.4701 Y47.3596
G01 X137.4407 Y47.3888
G01 X137.4701 Y47.3596
G01 X137.4701 Y46.5661
G01 X137.4661 Y46.5270
G01 X137.4549 Y46.4894
G01 X137.4364 Y46.4548
G01 X137.4115 Y46.4246
G01 X137.3812 Y46.3997
G01 X137.3464 Y46.3812
G01 X137.3091 Y46.3697
G01 X137.2700 Y46.3659
G01 X136.4765 Y46.3659
G01 X136.4470 Y46.3954
G01 X136.4765 Y46.3659
G01 X136.4765 Y46.2661
G01 X136.4470 Y46.2366
G01 X136.4765 Y46.2661
G01 X137.3314 Y46.2669
G01 X137.4158 Y46.2991
G01 X137.4851 Y46.3509
G01 X137.5374 Y46.4200
G01 X137.5674 Y46.5049
G01 X137.5700 Y46.5287
G01 X137.6700 Y46.5234
G01 X137.6700 Y47.4596
G01 X137.3701 Y47.4596
G01 X137.3701 Y46.5661
G01 X137.3680 Y46.5465
G01 X137.3533 Y46.5104
G01 X137.3256 Y46.4828
G01 X137.3083 Y46.4736
G01 X137.2700 Y46.4660
G01 X136.3764 Y46.4660
G01 X136.3764 Y46.1660
G01 X137.3124 Y46.1660
G01 X137.3543 Y46.1706
G01 X137.4638 Y46.2112
G01 X137.5557 Y46.2803
G01 X137.6248 Y46.3723
G01 X137.6655 Y46.4817
G01 X137.6700 Y46.5234
G00 Z2.0000 ( retract )

G00 X137.6700 Y48.4723 ( rapid move to begin. )
G01 F450.0001
( Mill infeed pass 1/1 )
G01 Z-0.1270
G01 F900.0000
G01 X137.6700 Y48.4723
G01 X137.3701 Y48.4723
G01 X137.3701 Y49.3659
G01 X137.3624 Y49.4043
G01 X137.3408 Y49.4368
G01 X137.3083 Y49.4584
G01 X137.2700 Y49.4660
G01 X136.3764 Y49.4660
G01 X136.3764 Y49.7660
G01 X137.3124 Y49.7660
G01 X137.3543 Y49.7614
G01 X137.4638 Y49.7208
G01 X137.5557 Y49.6517
G01 X137.6248 Y49.5597
G01 X137.6655 Y49.4502
G01 X137.6700 Y49.4083
G01 X137.6700 Y48.4723
G01 X137.5700 Y48.5724
G01 X137.5712 Y49.4033
G01 X137.5674 Y49.4271
G01 X137.5374 Y49.5120
G01 X137.4851 Y49.5811
G01 X137.4160 Y49.6334
G01 X137.3309 Y49.6633
G01 X137.3073 Y49.6672
G01 X136.4765 Y49.6659
G01 X136.4470 Y49.6954
G01 X136.4765 Y49.6659
G01 X136.4765 Y49.5661
G01 X136.4470 Y49.5366
G01 X136.4765 Y49.5661
G01 X137.2700 Y49.5661
G01 X137.3091 Y49.5623
G01 X137.3464 Y49.5508
G01 X137.3812 Y49.5323
G01 X137.4115 Y49.5074
G01 X137.4364 Y49.4772
G01 X137.4549 Y49.4426
G01 X137.4661 Y49.4050
G01 X137.4701 Y49.3659
G01 X137.4701 Y48.5724
G01 X137.4407 Y48.5432
G01 X137.4701 Y48.5724
G01 X137.5700 Y48.5724
G00 Z2.0000 ( retract )

G00 X135.3637 Y49.4660 ( rapid move to begin. )
G01 F450.0001
( Mill infeed pass 1/1 )
G01 Z-0.1270
G01 F900.0000
G01 X135.3637 Y49.4660
G01 X134.4701 Y49.4660
G01 X134.4318 Y49.4584
G01 X134.4145 Y49.4492
G01 X134.3868 Y49.4215
G01 X134.3718 Y49.3855
G01 X134.3701 Y49.3659
G01 X134.3701 Y48.4723
G01 X134.0701 Y48.4723
G01 X134.0701 Y49.4083
G01 X134.0744 Y49.4502
G01 X134.1153 Y49.5597
G01 X134.1844 Y49.6517
G01 X134.2763 Y49.7208
G01 X134.3858 Y49.7614
G01 X134.4275 Y49.7660
G01 X135.3637 Y49.7660
G01 X135.3637 Y49.4660
G01 X135.2636 Y49.5661
G01 X135.2636 Y49.6659
G01 X135.2928 Y49.6954
G01 X135.2636 Y49.6659
G01 X134.4328 Y49.6672
G01 X134.4089 Y49.6633
G01 X134.3241 Y49.6334
G01 X134.2550 Y49.5811
G01 X134.2027 Y49.5120
G01 X134.1727 Y49.4271
G01 X134.1689 Y49.4033
G01 X134.1702 Y48.5724
G01 X134.1407 Y48.5432
G01 X134.1702 Y48.5724
G01 X134.2700 Y48.5724
G01 X134.2992 Y48.5432
G01 X134.2700 Y48.5724
G01 X134.2700 Y49.3659
G01 X134.2738 Y49.4050
G01 X134.2852 Y49.4426
G01 X134.3038 Y49.4772
G01 X134.3287 Y49.5074
G01 X134.3589 Y49.5323
G01 X134.3934 Y49.5508
G01 X134.4310 Y49.5623
G01 X134.4701 Y49.5661
G01 X135.2636 Y49.5661
G00 Z2.0000 ( retract )

G00 X150.7112 Y63.7736 ( rapid move to begin. )
G01 F450.0001
( Mill infeed pass 1/1 )
G01 Z-0.1270
G01 F900.0000
G01 X150.7112 Y63.7736
G01 X150.7112 Y63.7344
G01 X150.6370 Y62.9933
G01 X150.4218 Y62.2800
G01 X150.4069 Y62.2437
G01 X150.0548 Y61.5871
G01 X149.5829 Y61.0108
G01 X149.5552 Y60.9831
G01 X148.9946 Y60.5229
G01 X148.9619 Y60.5013
G01 X148.3223 Y60.1591
G01 X148.2860 Y60.1442
G01 X147.5920 Y59.9336
G01 X147.5534 Y59.9260
G01 X146.8120 Y59.8541
G01 X146.0706 Y59.9260
G01 X146.0322 Y59.9336
G01 X145.3380 Y60.1442
G01 X145.3017 Y60.1591
G01 X144.6454 Y60.5112
G01 X144.0688 Y60.9831
G01 X144.0411 Y61.0108
G01 X143.5692 Y61.5871
G01 X143.2174 Y62.2437
G01 X143.2024 Y62.2800
G01 X142.9870 Y62.9933
G01 X142.9131 Y63.7344
G01 X142.9131 Y63.7736
G01 X142.9870 Y64.5147
G01 X143.2024 Y65.2280
G01 X143.2174 Y65.2643
G01 X143.5692 Y65.9206
G01 X144.0411 Y66.4972
G01 X144.0688 Y66.5249
G01 X144.6454 Y66.9968
G01 X145.3017 Y67.3486
G01 X145.3380 Y67.3636
G01 X146.0322 Y67.5742
G01 X146.0706 Y67.5820
G01 X146.7924 Y67.6529
G01 X146.8316 Y67.6529
G01 X147.5534 Y67.5820
G01 X147.5920 Y67.5742
G01 X148.2860 Y67.3636
G01 X148.3223 Y67.3486
G01 X148.9789 Y66.9968
G01 X149.5552 Y66.5249
G01 X149.5829 Y66.4972
G01 X150.0431 Y65.9364
G01 X150.0647 Y65.9039
G01 X150.4069 Y65.2643
G01 X150.4218 Y65.2280
G01 X150.6324 Y64.5338
G01 X150.6400 Y64.4954
G01 X150.7112 Y63.7736
G01 X150.6121 Y63.7540
G01 X150.5405 Y63.0225
G01 X150.3261 Y62.3090
G01 X149.9715 Y61.6428
G01 X149.4917 Y61.0603
G01 X148.9232 Y60.5945
G01 X148.2750 Y60.2475
G01 X147.5438 Y60.0255
G01 X146.8023 Y59.9544
G01 X146.0805 Y60.0255
G01 X145.3670 Y60.2399
G01 X144.7008 Y60.5945
G01 X144.1183 Y61.0743
G01 X143.6525 Y61.6428
G01 X143.3055 Y62.2910
G01 X143.0835 Y63.0225
G01 X143.0124 Y63.7637
G01 X143.0835 Y64.4855
G01 X143.2979 Y65.1990
G01 X143.6525 Y65.8652
G01 X144.1323 Y66.4477
G01 X144.7008 Y66.9135
G01 X145.3490 Y67.2605
G01 X146.0805 Y67.4825
G01 X146.8219 Y67.5536
G01 X147.5438 Y67.4825
G01 X148.2570 Y67.2681
G01 X148.9232 Y66.9135
G01 X149.4991 Y66.4411
G01 X149.9715 Y65.8652
G01 X150.3261 Y65.1990
G01 X150.5405 Y64.4855
G01 X150.6121 Y63.7540
G01 X150.8176 Y63.7540
G01 X150.7983 Y64.1467
G01 X150.7406 Y64.5353
G01 X150.6451 Y64.9168
G01 X150.5125 Y65.2869
G01 X150.3446 Y65.6420
G01 X150.1424 Y65.9793
G01 X149.9083 Y66.2950
G01 X149.6444 Y66.5864
G01 X149.3530 Y66.8503
G01 X149.0373 Y67.0844
G01 X148.7002 Y67.2864
G01 X148.3449 Y67.4545
G01 X147.9748 Y67.5869
G01 X147.5936 Y67.6824
G01 X147.2047 Y67.7403
G01 X146.8120 Y67.7593
G01 X146.4193 Y67.7400
G01 X146.0307 Y67.6824
G01 X145.6494 Y67.5869
G01 X145.2794 Y67.4545
G01 X144.9240 Y67.2864
G01 X144.5867 Y67.0842
G01 X144.2710 Y66.8500
G01 X143.9799 Y66.5861
G01 X143.7160 Y66.2950
G01 X143.4818 Y65.9793
G01 X143.2796 Y65.6420
G01 X143.1117 Y65.2869
G01 X142.9791 Y64.9166
G01 X142.8836 Y64.5353
G01 X142.8260 Y64.1467
G01 X142.8067 Y63.7540
G01 X142.8260 Y63.3613
G01 X142.8836 Y62.9727
G01 X142.9791 Y62.5912
G01 X143.1117 Y62.2211
G01 X143.2796 Y61.8660
G01 X143.4818 Y61.5287
G01 X143.7160 Y61.2130
G01 X143.9799 Y60.9219
G01 X144.2710 Y60.6577
G01 X144.5867 Y60.4236
G01 X144.9240 Y60.2216
G01 X145.2794 Y60.0535
G01 X145.6494 Y59.9211
G01 X146.0307 Y59.8256
G01 X146.4193 Y59.7680
G01 X146.8120 Y59.7487
G01 X147.2047 Y59.7677
G01 X147.5936 Y59.8254
G01 X147.9748 Y59.9209
G01 X148.3449 Y60.0535
G01 X148.7002 Y60.2216
G01 X149.0373 Y60.4236
G01 X149.3530 Y60.6577
G01 X149.6444 Y60.9216
G01 X149.9083 Y61.2130
G01 X150.1424 Y61.5287
G01 X150.3446 Y61.8658
G01 X150.5125 Y62.2211
G01 X150.6451 Y62.5912
G01 X150.7406 Y62.9724
G01 X150.7983 Y63.3613
G01 X150.8176 Y63.7540
G01 X150.9174 Y63.7540
G01 X150.8976 Y64.1563
G01 X150.8387 Y64.5549
G01 X150.7406 Y64.9458
G01 X150.6050 Y65.3250
G01 X150.4328 Y65.6892
G01 X150.2255 Y66.0349
G01 X149.9855 Y66.3585
G01 X149.7150 Y66.6570
G01 X149.4165 Y66.9275
G01 X149.0929 Y67.1675
G01 X148.7472 Y67.3745
G01 X148.3832 Y67.5470
G01 X148.0038 Y67.6826
G01 X147.6129 Y67.7804
G01 X147.2143 Y67.8396
G01 X146.8120 Y67.8594
G01 X146.4097 Y67.8396
G01 X146.0111 Y67.7804
G01 X145.6202 Y67.6826
G01 X145.2410 Y67.5470
G01 X144.8768 Y67.3745
G01 X144.5311 Y67.1675
G01 X144.2075 Y66.9275
G01 X143.9090 Y66.6570
G01 X143.6385 Y66.3585
G01 X143.3985 Y66.0349
G01 X143.1915 Y65.6892
G01 X143.0190 Y65.3250
G01 X142.8834 Y64.9458
G01 X142.7856 Y64.5549
G01 X142.7264 Y64.1563
G01 X142.7066 Y63.7540
G01 X142.7264 Y63.3517
G01 X142.7856 Y62.9531
G01 X142.8834 Y62.5622
G01 X143.0190 Y62.1828
G01 X143.1915 Y61.8188
G01 X143.3985 Y61.4731
G01 X143.6385 Y61.1495
G01 X143.9090 Y60.8510
G01 X144.2075 Y60.5805
G01 X144.5311 Y60.3405
G01 X144.8768 Y60.1332
G01 X145.2410 Y59.9610
G01 X145.6202 Y59.8254
G01 X146.0111 Y59.7273
G01 X146.4097 Y59.6684
G01 X146.8120 Y59.6486
G01 X147.2143 Y59.6684
G01 X147.6129 Y59.7273
G01 X148.0038 Y59.8254
G01 X148.3832 Y59.9610
G01 X148.7472 Y60.1332
G01 X149.0929 Y60.3405
G01 X149.4165 Y60.5805
G01 X149.7150 Y60.8510
G01 X149.9855 Y61.1495
G01 X150.2255 Y61.4731
G01 X150.4328 Y61.8188
G01 X150.6050 Y62.1830
G01 X150.7406 Y62.5622
G01 X150.8387 Y62.9531
G01 X150.8976 Y63.3517
G01 X150.9174 Y63.7540
G00 Z2.0000 ( retract )

G00 X137.6700 Y72.8563 ( rapid move to begin. )
G01 F450.0001
( Mill infeed pass 1/1 )
G01 Z-0.1270
G01 F900.0000
G01 X137.6700 Y72.8563
G01 X137.3701 Y72.8563
G01 X137.3701 Y73.7499
G01 X137.3624 Y73.7883
G01 X137.3408 Y73.8208
G01 X137.3083 Y73.8424
G01 X137.2700 Y73.8500
G01 X136.3764 Y73.8500
G01 X136.3764 Y74.1500
G01 X137.3124 Y74.1500
G01 X137.3543 Y74.1454
G01 X137.4638 Y74.1048
G01 X137.5557 Y74.0357
G01 X137.6248 Y73.9437
G01 X137.6655 Y73.8342
G01 X137.6700 Y73.7923
G01 X137.6700 Y72.8563
G01 X137.5700 Y72.9564
G01 X137.4701 Y72.9564
G01 X137.4407 Y72.9270
G01 X137.4701 Y72.9564
G01 X137.4701 Y73.7499
G01 X137.4661 Y73.7890
G01 X137.4549 Y73.8266
G01 X137.4364 Y73.8612
G01 X137.4115 Y73.8914
G01 X137.3812 Y73.9163
G01 X137.3464 Y73.9348
G01 X137.3091 Y73.9463
G01 X137.2700 Y73.9501
G01 X136.4765 Y73.9501
G01 X136.4470 Y73.9206
G01 X136.4765 Y73.9501
G01 X136.4765 Y74.0499
G01 X136.4470 Y74.0794
G01 X136.4765 Y74.0499
G01 X137.3314 Y74.0489
G01 X137.4158 Y74.0169
G01 X137.4851 Y73.9651
G01 X137.5374 Y73.8960
G01 X137.5674 Y73.8111
G01 X137.5712 Y73.7873
G01 X137.5700 Y72.9564
G00 Z2.0000 ( retract )

G00 X135.2636 Y73.9501 ( rapid move to begin. )
G01 F450.0001
( Mill infeed pass 1/1 )
G01 Z-0.1270
G01 F900.0000
G01 X135.2636 Y73.9501
G01 X134.4701 Y73.9501
G01 X134.4310 Y73.9463
G01 X134.3934 Y73.9348
G01 X134.3589 Y73.9163
G01 X134.3287 Y73.8914
G01 X134.3038 Y73.8612
G01 X134.2852 Y73.8266
G01 X134.2738 Y73.7890
G01 X134.2700 Y73.7499
G01 X134.2700 Y72.9564
G01 X134.2992 Y72.9270
G01 X134.2700 Y72.9564
G01 X134.1702 Y72.9564
G01 X134.1407 Y72.9270
G01 X134.1702 Y72.9564
G01 X134.1689 Y73.7873
G01 X134.1727 Y73.8111
G01 X134.2027 Y73.8960
G01 X134.2550 Y73.9651
G01 X134.3241 Y74.0174
G01 X134.4089 Y74.0473
G01 X134.4328 Y74.0512
G01 X135.2636 Y74.0499
G01 X135.2928 Y74.0794
G01 X135.2636 Y74.0499
G01 X135.2636 Y73.9501
G01 X135.3637 Y73.8500
G01 X135.3637 Y74.1500
G01 X134.4275 Y74.1500
G01 X134.3858 Y74.1454
G01 X134.2763 Y74.1048
G01 X134.1844 Y74.0357
G01 X134.1153 Y73.9437
G01 X134.0744 Y73.8342
G01 X134.0701 Y73.7923
G01 X134.0701 Y72.8563
G01 X134.3701 Y72.8563
G01 X134.3701 Y73.7499
G01 X134.3718 Y73.7695
G01 X134.3868 Y73.8055
G01 X134.4145 Y73.8332
G01 X134.4318 Y73.8424
G01 X134.4701 Y73.8500
G01 X135.3637 Y73.8500
G00 Z2.0000 ( retract )

G00 X137.5700 Y70.9127 ( rapid move to begin. )
G01 F450.0001
( Mill infeed pass 1/1 )
G01 Z-0.1270
G01 F900.0000
G01 X137.5700 Y70.9127
G01 X137.5700 Y71.7436
G01 X137.5994 Y71.7728
G01 X137.5700 Y71.7436
G01 X137.4701 Y71.7436
G01 X137.4407 Y71.7728
G01 X137.4701 Y71.7436
G01 X137.4701 Y70.9501
G01 X137.4661 Y70.9110
G01 X137.4549 Y70.8734
G01 X137.4364 Y70.8388
G01 X137.4115 Y70.8086
G01 X137.3812 Y70.7837
G01 X137.3464 Y70.7652
G01 X137.3091 Y70.7537
G01 X137.2700 Y70.7499
G01 X136.4765 Y70.7499
G01 X136.4470 Y70.7794
G01 X136.4765 Y70.7499
G01 X136.4765 Y70.6501
G01 X136.4470 Y70.6206
G01 X136.4765 Y70.6501
G01 X137.3314 Y70.6509
G01 X137.4158 Y70.6831
G01 X137.4851 Y70.7349
G01 X137.5374 Y70.8040
G01 X137.5674 Y70.8889
G01 X137.5700 Y70.9127
G01 X137.6700 Y70.9074
G01 X137.6700 Y71.8436
G01 X137.3701 Y71.8436
G01 X137.3701 Y70.9501
G01 X137.3680 Y70.9305
G01 X137.3533 Y70.8944
G01 X137.3256 Y70.8668
G01 X137.3083 Y70.8576
G01 X137.2700 Y70.8500
G01 X136.3764 Y70.8500
G01 X136.3764 Y70.5500
G01 X137.3124 Y70.5500
G01 X137.3543 Y70.5543
G01 X137.4638 Y70.5952
G01 X137.5557 Y70.6643
G01 X137.6248 Y70.7563
G01 X137.6655 Y70.8657
G01 X137.6700 Y70.9074
G00 Z2.0000 ( retract )

G00 X135.2636 Y61.7581 ( rapid move to begin. )
G01 F450.0001
( Mill infeed pass 1/1 )
G01 Z-0.1270
G01 F900.0000
G01 X135.2636 Y61.7581
G01 X134.4701 Y61.7581
G01 X134.4310 Y61.7543
G01 X134.3934 Y61.7428
G01 X134.3589 Y61.7243
G01 X134.3287 Y61.6994
G01 X134.3038 Y61.6692
G01 X134.2852 Y61.6346
G01 X134.2738 Y61.5970
G01 X134.2700 Y61.5579
G01 X134.2700 Y60.7644
G01 X134.2992 Y60.7350
G01 X134.2700 Y60.7644
G01 X134.1702 Y60.7644
G01 X134.1407 Y60.7350
G01 X134.1702 Y60.7644
G01 X134.1689 Y61.5953
G01 X134.1727 Y61.6191
G01 X134.2027 Y61.7040
G01 X134.2550 Y61.7731
G01 X134.3241 Y61.8254
G01 X134.4089 Y61.8553
G01 X134.4328 Y61.8592
G01 X135.2636 Y61.8579
G01 X135.2928 Y61.8874
G01 X135.2636 Y61.8579
G01 X135.2636 Y61.7581
G01 X135.3637 Y61.6580
G01 X135.3637 Y61.9580
G01 X134.4275 Y61.9580
G01 X134.3858 Y61.9534
G01 X134.2763 Y61.9128
G01 X134.1844 Y61.8437
G01 X134.1153 Y61.7517
G01 X134.0744 Y61.6422
G01 X134.0701 Y61.6003
G01 X134.0701 Y60.6643
G01 X134.3701 Y60.6643
G01 X134.3701 Y61.5579
G01 X134.3718 Y61.5775
G01 X134.3868 Y61.6135
G01 X134.4145 Y61.6412
G01 X134.4318 Y61.6504
G01 X134.4701 Y61.6580
G01 X135.3637 Y61.6580
G00 Z2.0000 ( retract )

G00 X137.5700 Y60.7644 ( rapid move to begin. )
G01 F450.0001
( Mill infeed pass 1/1 )
G01 Z-0.1270
G01 F900.0000
G01 X137.5700 Y60.7644
G01 X137.5712 Y61.5953
G01 X137.5674 Y61.6191
G01 X137.5374 Y61.7040
G01 X137.4851 Y61.7731
G01 X137.4158 Y61.8249
G01 X137.3314 Y61.8569
G01 X136.4765 Y61.8579
G01 X136.4470 Y61.8874
G01 X136.4765 Y61.8579
G01 X136.4765 Y61.7581
G01 X136.4470 Y61.7286
G01 X136.4765 Y61.7581
G01 X137.2700 Y61.7581
G01 X137.3091 Y61.7543
G01 X137.3464 Y61.7428
G01 X137.3812 Y61.7243
G01 X137.4115 Y61.6994
G01 X137.4364 Y61.6692
G01 X137.4549 Y61.6346
G01 X137.4661 Y61.5970
G01 X137.4701 Y61.5579
G01 X137.4701 Y60.7644
G01 X137.4407 Y60.7350
G01 X137.4701 Y60.7644
G01 X137.5700 Y60.7644
G01 X137.6700 Y60.6643
G01 X137.6700 Y61.6003
G01 X137.6655 Y61.6422
G01 X137.6248 Y61.7517
G01 X137.5557 Y61.8437
G01 X137.4638 Y61.9128
G01 X137.3543 Y61.9534
G01 X137.3124 Y61.9580
G01 X136.3764 Y61.9580
G01 X136.3764 Y61.6580
G01 X137.2700 Y61.6580
G01 X137.3083 Y61.6504
G01 X137.3408 Y61.6288
G01 X137.3624 Y61.5963
G01 X137.3701 Y61.5579
G01 X137.3701 Y60.6643
G01 X137.6700 Y60.6643
G00 Z2.0000 ( retract )

G00 X137.6700 Y58.7154 ( rapid move to begin. )
G01 F450.0001
( Mill infeed pass 1/1 )
G01 Z-0.1270
G01 F900.0000
G01 X137.6700 Y58.7154
G01 X137.6655 Y58.6737
G01 X137.6248 Y58.5643
G01 X137.5557 Y58.4723
G01 X137.4638 Y58.4032
G01 X137.3543 Y58.3623
G01 X137.3124 Y58.3580
G01 X136.3764 Y58.3580
G01 X136.3764 Y58.6580
G01 X137.2700 Y58.6580
G01 X137.3083 Y58.6656
G01 X137.3256 Y58.6748
G01 X137.3533 Y58.7024
G01 X137.3680 Y58.7385
G01 X137.3701 Y58.7581
G01 X137.3701 Y59.6516
G01 X137.6700 Y59.6516
G01 X137.6700 Y58.7154
G01 X137.5700 Y58.7207
G01 X137.5674 Y58.6969
G01 X137.5374 Y58.6120
G01 X137.4851 Y58.5429
G01 X137.4158 Y58.4911
G01 X137.3314 Y58.4589
G01 X136.4765 Y58.4581
G01 X136.4470 Y58.4286
G01 X136.4765 Y58.4581
G01 X136.4765 Y58.5579
G01 X136.4470 Y58.5874
G01 X136.4765 Y58.5579
G01 X137.2700 Y58.5579
G01 X137.3091 Y58.5617
G01 X137.3464 Y58.5732
G01 X137.3812 Y58.5917
G01 X137.4115 Y58.6166
G01 X137.4364 Y58.6468
G01 X137.4549 Y58.6814
G01 X137.4661 Y58.7190
G01 X137.4701 Y58.7581
G01 X137.4701 Y59.5516
G01 X137.4407 Y59.5808
G01 X137.4701 Y59.5516
G01 X137.5700 Y59.5516
G01 X137.5994 Y59.5808
G01 X137.5700 Y59.5516
G01 X137.5700 Y58.7207
G00 Z2.0000 ( retract )

G00 X135.3637 Y58.3580 ( rapid move to begin. )
G01 F450.0001
( Mill infeed pass 1/1 )
G01 Z-0.1270
G01 F900.0000
G01 X135.3637 Y58.3580
G01 X134.4275 Y58.3580
G01 X134.3858 Y58.3623
G01 X134.2763 Y58.4032
G01 X134.1844 Y58.4723
G01 X134.1153 Y58.5643
G01 X134.0744 Y58.6737
G01 X134.0701 Y58.7154
G01 X134.0701 Y59.6516
G01 X134.3701 Y59.6516
G01 X134.3701 Y58.7581
G01 X134.3777 Y58.7197
G01 X134.3993 Y58.6872
G01 X134.4318 Y58.6656
G01 X134.4701 Y58.6580
G01 X135.3637 Y58.6580
G01 X135.3637 Y58.3580
G01 X135.2636 Y58.4581
G01 X134.4087 Y58.4589
G01 X134.3243 Y58.4911
G01 X134.2550 Y58.5429
G01 X134.2027 Y58.6120
G01 X134.1727 Y58.6969
G01 X134.1689 Y58.7207
G01 X134.1702 Y59.5516
G01 X134.1407 Y59.5808
G01 X134.1702 Y59.5516
G01 X134.2700 Y59.5516
G01 X134.2992 Y59.5808
G01 X134.2700 Y59.5516
G01 X134.2700 Y58.7581
G01 X134.2738 Y58.7190
G01 X134.2852 Y58.6814
G01 X134.3038 Y58.6468
G01 X134.3287 Y58.6166
G01 X134.3589 Y58.5917
G01 X134.3934 Y58.5732
G01 X134.4310 Y58.5617
G01 X134.4701 Y58.5579
G01 X135.2636 Y58.5579
G01 X135.2928 Y58.5874
G01 X135.2636 Y58.5579
G01 X135.2636 Y58.4581
G00 Z2.0000 ( retract )

G00 X118.1440 Y73.3179 ( rapid move to begin. )
G01 F450.0001
( Mill infeed pass 1/1 )
G01 Z-0.1270
G01 F900.0000
G01 X118.1440 Y73.3179
G01 X118.1402 Y73.2790
G01 X118.1288 Y73.2414
G01 X118.1103 Y73.2069
G01 X118.0854 Y73.1766
G01 X118.0551 Y73.1517
G01 X118.0206 Y73.1332
G01 X117.9830 Y73.1218
G01 X117.9441 Y73.1180
G01 X117.4974 Y73.1180
G01 X117.4681 Y73.1467
G01 X117.4974 Y73.1180
G01 X117.4974 Y69.3420
G01 X117.4775 Y69.2173
G01 X117.4201 Y69.1050
G01 X108.2264 Y59.9039
G01 X108.2187 Y59.9072
G01 X108.2264 Y59.9039
G01 X108.2264 Y57.1563
G01 X108.2116 Y57.0365
G01 X108.2116 Y55.3364
G01 X108.2264 Y55.2166
G01 X108.2264 Y53.8952
G01 X108.2121 Y53.6694
G01 X108.2205 Y53.4543
G01 X108.2264 Y53.3974
G01 X108.2264 Y51.3552
G01 X108.2121 Y51.1294
G01 X108.2205 Y50.9140
G01 X108.2264 Y50.8574
G01 X108.2264 Y48.8152
G01 X108.2121 Y48.5894
G01 X108.2205 Y48.3743
G01 X108.2264 Y48.3174
G01 X108.2264 Y47.7175
G01 X108.2190 Y47.7144
G01 X108.2264 Y47.7175
G01 X108.9472 Y46.9963
G01 X108.9434 Y46.9801
G01 X108.9472 Y46.9963
G01 X108.9637 Y47.0030
G01 X109.1423 Y47.0563
G01 X109.3274 Y47.0753
G01 X109.3666 Y47.0753
G01 X109.5517 Y47.0563
G01 X109.7303 Y47.0030
G01 X109.7666 Y46.9880
G01 X109.9304 Y46.8993
G01 X110.0750 Y46.7820
G01 X110.1026 Y46.7543
G01 X110.2200 Y46.6098
G01 X110.3086 Y46.4459
G01 X110.3155 Y46.4297
G01 X110.3069 Y46.4152
G01 X110.3155 Y46.4297
G01 X115.9975 Y46.4297
G01 X116.0061 Y46.4155
G01 X115.9975 Y46.4297
G01 X116.0054 Y46.4459
G01 X116.0838 Y46.5930
G01 X116.1057 Y46.6255
G01 X116.2113 Y46.7543
G01 X116.2390 Y46.7820
G01 X116.3678 Y46.8876
G01 X116.4006 Y46.9095
G01 X116.5474 Y46.9880
G01 X116.5837 Y47.0030
G01 X116.7623 Y47.0563
G01 X116.9474 Y47.0753
G01 X116.9866 Y47.0753
G01 X117.1720 Y47.0563
G01 X117.3503 Y47.0030
G01 X117.3866 Y46.9880
G01 X117.5504 Y46.8993
G01 X117.6950 Y46.7820
G01 X117.7227 Y46.7543
G01 X117.8283 Y46.6255
G01 X117.8502 Y46.5930
G01 X117.9286 Y46.4459
G01 X117.9436 Y46.4096
G01 X117.9921 Y46.2504
G01 X117.9998 Y46.2117
G01 X118.0160 Y46.0459
G01 X118.0160 Y46.0068
G01 X117.9970 Y45.8216
G01 X117.9436 Y45.6430
G01 X117.9286 Y45.6067
G01 X117.8502 Y45.4599
G01 X117.8283 Y45.4274
G01 X117.7227 Y45.2984
G01 X117.6950 Y45.2707
G01 X117.5548 Y45.1566
G01 X117.3866 Y45.0647
G01 X117.3503 Y45.0497
G01 X117.1720 Y44.9966
G01 X116.9866 Y44.9773
G01 X116.9474 Y44.9773
G01 X116.7816 Y44.9936
G01 X116.7432 Y45.0014
G01 X116.5837 Y45.0497
G01 X116.5474 Y45.0647
G01 X116.3836 Y45.1533
G01 X116.2390 Y45.2707
G01 X116.2113 Y45.2984
G01 X116.1057 Y45.4274
G01 X116.0838 Y45.4599
G01 X116.0054 Y45.6067
G01 X115.9977 Y45.6232
G01 X116.0061 Y45.6375
G01 X115.9977 Y45.6232
G01 X110.3155 Y45.6232
G01 X110.3071 Y45.6372
G01 X110.3155 Y45.6232
G01 X110.3086 Y45.6067
G01 X110.2200 Y45.4431
G01 X110.1026 Y45.2984
G01 X110.0750 Y45.2707
G01 X109.9304 Y45.1533
G01 X109.7666 Y45.0647
G01 X109.7303 Y45.0497
G01 X109.5517 Y44.9966
G01 X109.3666 Y44.9773
G01 X109.3274 Y44.9773
G01 X109.1423 Y44.9966
G01 X108.9637 Y45.0497
G01 X108.9274 Y45.0647
G01 X108.7636 Y45.1533
G01 X108.6190 Y45.2707
G01 X108.5913 Y45.2984
G01 X108.4740 Y45.4431
G01 X108.3854 Y45.6067
G01 X108.3704 Y45.6430
G01 X108.3173 Y45.8216
G01 X108.2980 Y46.0068
G01 X108.2980 Y46.0459
G01 X108.3173 Y46.2313
G01 X108.3704 Y46.4099
G01 X108.3772 Y46.4261
G01 X108.3927 Y46.4302
G01 X108.3772 Y46.4261
G01 X107.5248 Y47.2798
G01 X107.5080 Y47.3001
G01 X107.4958 Y47.3403
G01 X107.4783 Y47.4188
G01 X107.4689 Y47.4942
G01 X107.4666 Y60.0700
G01 X107.4725 Y60.1607
G01 X107.4971 Y60.2841
G01 X107.5091 Y60.3232
G01 X107.5380 Y60.3560
G01 X116.6909 Y69.5091
G01 X116.6985 Y69.5058
G01 X116.6909 Y69.5091
G01 X116.6909 Y73.1180
G01 X116.7199 Y73.1467
G01 X116.6909 Y73.1180
G01 X116.2441 Y73.1180
G01 X116.2050 Y73.1218
G01 X116.1674 Y73.1332
G01 X116.1329 Y73.1517
G01 X116.1026 Y73.1766
G01 X116.0777 Y73.2069
G01 X116.0592 Y73.2414
G01 X116.0478 Y73.2790
G01 X116.0440 Y73.3179
G01 X116.0440 Y75.0179
G01 X116.0478 Y75.0570
G01 X116.0592 Y75.0946
G01 X116.0777 Y75.1291
G01 X116.1026 Y75.1594
G01 X116.1329 Y75.1843
G01 X116.1674 Y75.2028
G01 X116.2050 Y75.2142
G01 X116.2441 Y75.2180
G01 X117.9441 Y75.2180
G01 X117.9830 Y75.2142
G01 X118.0206 Y75.2028
G01 X118.0551 Y75.1843
G01 X118.0854 Y75.1594
G01 X118.1103 Y75.1291
G01 X118.1288 Y75.0946
G01 X118.1402 Y75.0570
G01 X118.1440 Y75.0179
G01 X118.1440 Y73.3179
G01 X118.0440 Y73.3179
G01 X118.0440 Y75.0179
G01 X118.0363 Y75.0562
G01 X118.0147 Y75.0887
G01 X117.9822 Y75.1103
G01 X117.9441 Y75.1180
G01 X116.2441 Y75.1180
G01 X116.2058 Y75.1103
G01 X116.1733 Y75.0887
G01 X116.1608 Y75.0735
G01 X116.1461 Y75.0374
G01 X116.1440 Y73.3179
G01 X116.1517 Y73.2798
G01 X116.1608 Y73.2625
G01 X116.1885 Y73.2348
G01 X116.2058 Y73.2257
G01 X116.2441 Y73.2180
G01 X116.7907 Y73.2180
G01 X116.7907 Y69.4675
G01 X107.6086 Y60.2854
G01 X107.5756 Y60.2460
G01 X107.5347 Y60.1647
G01 X107.5197 Y60.0710
G01 X107.5202 Y47.5407
G01 X107.5256 Y47.4911
G01 X107.5472 Y47.4254
G01 X107.5710 Y47.3819
G01 X107.6020 Y47.3433
G01 X108.4986 Y46.4459
G01 X108.4661 Y46.3807
G01 X108.4153 Y46.2117
G01 X108.3975 Y46.0167
G01 X108.4153 Y45.8412
G01 X108.4661 Y45.6720
G01 X108.5571 Y45.4985
G01 X108.6825 Y45.3481
G01 X108.8192 Y45.2364
G01 X108.9746 Y45.1528
G01 X109.1616 Y45.0947
G01 X109.3373 Y45.0769
G01 X109.5324 Y45.0947
G01 X109.7013 Y45.1455
G01 X109.8664 Y45.2316
G01 X110.0115 Y45.3481
G01 X110.1311 Y45.4906
G01 X110.2205 Y45.6540
G01 X110.2436 Y45.7230
G01 X116.0706 Y45.7230
G01 X116.0935 Y45.6540
G01 X116.1829 Y45.4906
G01 X116.3025 Y45.3481
G01 X116.4392 Y45.2364
G01 X116.6127 Y45.1455
G01 X116.7816 Y45.0947
G01 X116.9573 Y45.0769
G01 X117.1618 Y45.0969
G01 X117.3394 Y45.1528
G01 X117.4948 Y45.2364
G01 X117.6315 Y45.3481
G01 X117.7511 Y45.4906
G01 X117.8481 Y45.6720
G01 X117.9002 Y45.8508
G01 X117.9165 Y46.0167
G01 X117.9002 Y46.2021
G01 X117.8481 Y46.3807
G01 X117.7620 Y46.5458
G01 X117.6454 Y46.6908
G01 X117.4948 Y46.8163
G01 X117.3394 Y46.8998
G01 X117.1524 Y46.9582
G01 X116.9769 Y46.9760
G01 X116.7816 Y46.9582
G01 X116.6127 Y46.9074
G01 X116.4476 Y46.8213
G01 X116.3025 Y46.7048
G01 X116.1829 Y46.5620
G01 X116.0935 Y46.3987
G01 X116.0706 Y46.3296
G01 X110.2436 Y46.3296
G01 X110.2205 Y46.3987
G01 X110.1369 Y46.5541
G01 X110.0254 Y46.6908
G01 X109.8748 Y46.8163
G01 X109.7194 Y46.8998
G01 X109.5324 Y46.9582
G01 X109.3373 Y46.9760
G01 X109.1616 Y46.9582
G01 X108.9927 Y46.9074
G01 X108.9274 Y46.8747
G01 X108.1263 Y47.6761
G01 X108.1263 Y59.9455
G01 X117.3394 Y69.1637
G01 X117.3823 Y69.2483
G01 X117.3973 Y69.3420
G01 X117.3973 Y73.2180
G01 X117.9634 Y73.2198
G01 X117.9995 Y73.2348
G01 X118.0147 Y73.2472
G01 X118.0363 Y73.2798
G01 X118.0440 Y73.3179
G00 Z2.0000 ( retract )

G00 X106.4275 Y73.0250 ( rapid move to begin. )
G01 F450.0001
( Mill infeed pass 1/1 )
G01 Z-0.1270
G01 F900.0000
G01 X106.4275 Y73.0250
G01 X106.3066 Y73.0814
G01 X106.1275 Y73.2069
G01 X105.9729 Y73.3613
G01 X105.8474 Y73.5406
G01 X105.7910 Y73.6615
G01 X106.1321 Y73.6615
G01 X106.1499 Y73.6323
G01 X106.2622 Y73.4962
G01 X106.3983 Y73.3839
G01 X106.4275 Y73.3661
G01 X106.4275 Y73.0250
G01 X106.3815 Y73.0852
G01 X106.3277 Y73.1886
G01 X106.3277 Y73.3125
G01 X106.3371 Y73.3171
G01 X106.3277 Y73.3125
G01 X106.1916 Y73.4256
G01 X106.0785 Y73.5617
G01 X106.0831 Y73.5711
G01 X106.0785 Y73.5617
G01 X105.9548 Y73.5617
G01 X105.8515 Y73.6155
G01 X105.9548 Y73.5617
G01 X106.0493 Y73.4258
G01 X106.1918 Y73.2833
G01 X106.3277 Y73.1886
G00 Z2.0000 ( retract )

G00 X89.9650 Y76.2521 ( rapid move to begin. )
G01 F450.0001
( Mill infeed pass 1/1 )
G01 Z-0.1270
G01 F900.0000
G01 X89.9650 Y76.2521
G01 X89.8162 Y76.1903
G01 X88.9818 Y75.3562
G01 X88.8738 Y75.2262
G01 X88.8677 Y75.2180
G01 X88.8721 Y75.2094
G01 X88.8677 Y75.2180
G01 X88.8121 Y75.2180
G01 X88.7730 Y75.2142
G01 X88.7268 Y75.1982
G01 X88.7054 Y75.1865
G01 X88.6706 Y75.1594
G01 X88.6435 Y75.1246
G01 X88.6325 Y75.1045
G01 X88.6155 Y75.0537
G01 X88.6120 Y75.0179
G01 X88.6120 Y73.3179
G01 X88.6155 Y73.2823
G01 X88.6325 Y73.2315
G01 X88.6435 Y73.2112
G01 X88.6706 Y73.1766
G01 X88.7052 Y73.1495
G01 X88.7288 Y73.1368
G01 X88.7730 Y73.1218
G01 X88.8121 Y73.1180
G01 X90.5121 Y73.1180
G01 X90.5510 Y73.1218
G01 X90.5716 Y73.1281
G01 X90.5952 Y73.1368
G01 X90.6356 Y73.1619
G01 X90.6681 Y73.1944
G01 X90.6932 Y73.2351
G01 X90.7082 Y73.2790
G01 X90.7120 Y73.3179
G01 X90.7120 Y74.3656
G01 X90.7044 Y74.3687
G01 X90.7120 Y74.3656
G01 X92.2195 Y75.8728
G01 X92.2162 Y75.8805
G01 X92.2195 Y75.8728
G01 X125.9865 Y75.8728
G01 X125.9898 Y75.8805
G01 X125.9865 Y75.8728
G01 X134.1504 Y67.7093
G01 X134.1918 Y67.7093
G01 X134.1504 Y67.7093
G01 X129.0086 Y62.5673
G01 X128.8684 Y62.4045
G01 X128.7460 Y62.2089
G01 X128.6457 Y61.9671
G01 X128.5944 Y61.7423
G01 X128.5781 Y61.5279
G01 X128.5781 Y57.6565
G01 X128.6073 Y57.6270
G01 X128.5781 Y57.6565
G01 X109.7671 Y57.6565
G01 X109.4997 Y57.6311
G01 X109.4613 Y57.6235
G01 X109.2230 Y57.5511
G01 X109.1867 Y57.5361
G01 X108.9503 Y57.4086
G01 X108.7422 Y57.2389
G01 X108.7415 Y57.2308
G01 X108.7394 Y57.2364
G01 X108.4971 Y57.2364
G01 X108.4580 Y57.2325
G01 X108.4204 Y57.2211
G01 X108.3859 Y57.2026
G01 X108.3556 Y57.1777
G01 X108.3244 Y57.1358
G01 X108.3117 Y57.0332
G01 X108.3117 Y55.3395
G01 X108.3244 Y55.2371
G01 X108.3556 Y55.1950
G01 X108.3859 Y55.1701
G01 X108.4204 Y55.1515
G01 X108.4580 Y55.1404
G01 X108.4971 Y55.1363
G01 X108.7394 Y55.1363
G01 X108.7415 Y55.1419
G01 X108.7422 Y55.1337
G01 X108.9503 Y54.9641
G01 X109.2045 Y54.8282
G01 X109.3175 Y54.7929
G01 X109.4605 Y54.7682
G01 X109.5898 Y54.7510
G01 X109.7671 Y54.7164
G01 X116.5532 Y54.7164
G01 X116.7750 Y54.7474
G01 X116.9876 Y54.7560
G01 X117.2025 Y54.7431
G01 X117.3808 Y54.7164
G01 X134.2326 Y54.7164
G01 X134.2360 Y54.7240
G01 X134.2326 Y54.7164
G01 X134.3863 Y54.5643
G01 X134.4003 Y54.5280
G01 X134.5397 Y54.2691
G01 X134.7254 Y54.0410
G01 X134.7531 Y54.0134
G01 X134.9654 Y53.8394
G01 X134.9980 Y53.8175
G01 X135.2400 Y53.6882
G01 X135.2763 Y53.6732
G01 X135.5387 Y53.5935
G01 X135.5773 Y53.5859
G01 X135.8699 Y53.5579
G01 X136.1628 Y53.5859
G01 X136.2012 Y53.5935
G01 X136.4823 Y53.6799
G01 X136.7422 Y53.8175
G01 X136.7747 Y53.8394
G01 X136.9868 Y54.0134
G01 X137.0145 Y54.0410
G01 X137.2004 Y54.2691
G01 X137.3398 Y54.5280
G01 X137.3548 Y54.5643
G01 X137.4381 Y54.8409
G01 X137.4691 Y55.1383
G01 X137.3701 Y55.1579
G01 X137.3388 Y55.4601
G01 X137.2517 Y55.7408
G01 X137.1173 Y55.9913
G01 X136.9235 Y56.2252
G01 X136.6949 Y56.4101
G01 X136.4529 Y56.5396
G01 X136.4112 Y56.5544
G01 X135.8031 Y57.1617
G01 X135.6106 Y57.3197
G01 X135.3749 Y57.4479
G01 X135.1183 Y57.5277
G01 X134.8417 Y57.5564
G01 X131.4181 Y57.5564
G01 X131.4181 Y60.9605
G01 X136.4112 Y65.9536
G01 X136.4529 Y65.9684
G01 X136.6949 Y66.0977
G01 X136.9372 Y66.2965
G01 X137.1173 Y66.5165
G01 X137.2517 Y66.7672
G01 X137.3426 Y67.0672
G01 X137.3701 Y67.3499
G01 X137.3426 Y67.6328
G01 X137.2517 Y67.9328
G01 X137.1173 Y68.1833
G01 X136.9372 Y68.4035
G01 X136.6949 Y68.6021
G01 X136.4440 Y68.7357
G01 X136.1722 Y68.8188
G01 X135.8798 Y68.8495
G01 X135.6139 Y68.8254
G01 X126.9947 Y77.4446
G01 X126.8852 Y77.5368
G01 X126.7694 Y77.6064
G01 X126.6439 Y77.6569
G01 X126.5121 Y77.6874
G01 X126.3851 Y77.6971
G01 X91.8210 Y77.6971
G01 X91.6521 Y77.6803
G01 X91.5035 Y77.6336
G01 X76.1164 Y77.6336
G01 X75.5894 Y78.1606
G01 X75.4875 Y78.2442
G01 X75.3803 Y78.3021
G01 X75.2549 Y78.3420
G01 X75.1144 Y78.3575
G01 X51.2699 Y78.3575
G01 X51.1388 Y78.3445
G01 X51.0222 Y78.3095
G01 X50.9052 Y78.2493
G01 X50.7952 Y78.1606
G01 X41.6893 Y69.0547
G01 X41.6006 Y68.9447
G01 X41.5478 Y68.8459
G01 X41.5079 Y68.7205
G01 X41.4924 Y68.5800
G01 X41.4924 Y62.4840
G01 X41.5054 Y62.3529
G01 X41.5404 Y62.2363
G01 X41.6006 Y62.1193
G01 X41.6893 Y62.0093
G01 X43.7213 Y59.9773
G01 X43.7952 Y59.9135
G01 X43.8843 Y59.8574
G01 X43.9811 Y59.8160
G01 X44.0832 Y59.7903
G01 X44.1960 Y59.7804
G01 X56.1259 Y59.7809
G01 X56.2308 Y59.7903
G01 X56.3329 Y59.8160
G01 X56.4157 Y59.8503
G01 X56.5061 Y59.9044
G01 X56.5930 Y59.9773
G01 X59.9107 Y63.2950
G01 X59.9884 Y63.3890
G01 X60.0565 Y63.5130
G01 X60.0946 Y63.6389
G01 X60.1076 Y63.7700
G01 X60.1076 Y63.9044
G01 X60.2137 Y63.9923
G01 X60.3448 Y64.1510
G01 X60.4556 Y64.3583
G01 X60.5150 Y64.5554
G01 X60.5356 Y64.7601
G01 X60.5150 Y64.9846
G01 X60.4523 Y65.1909
G01 X60.3557 Y65.3727
G01 X60.2137 Y65.5477
G01 X60.0550 Y65.6788
G01 X59.8569 Y65.7863
G01 X59.6600 Y65.8465
G01 X59.4263 Y65.8696
G01 X59.2214 Y65.8487
G01 X59.0243 Y65.7896
G01 X58.8170 Y65.6788
G01 X58.6583 Y65.5477
G01 X58.5272 Y65.3890
G01 X58.4197 Y65.1909
G01 X58.3573 Y64.9846
G01 X58.3364 Y64.7797
G01 X58.3573 Y64.5554
G01 X58.4197 Y64.3491
G01 X58.5163 Y64.1673
G01 X58.6516 Y63.9994
G01 X58.6854 Y63.9691
G01 X55.8399 Y61.1236
G01 X44.4741 Y61.1236
G01 X42.8356 Y62.7621
G01 X42.8356 Y68.3019
G01 X51.5480 Y77.0143
G01 X74.8363 Y77.0143
G01 X75.3636 Y76.4873
G01 X75.4652 Y76.4037
G01 X75.5726 Y76.3458
G01 X75.6978 Y76.3057
G01 X75.8383 Y76.2904
G01 X90.0575 Y76.2904
G01 X89.0524 Y75.2856
G01 X88.9511 Y75.1627
G01 X88.9251 Y75.1180
G01 X88.7926 Y75.1159
G01 X88.7565 Y75.1012
G01 X88.7288 Y75.0735
G01 X88.7197 Y75.0562
G01 X88.7120 Y75.0179
G01 X88.7120 Y73.3179
G01 X88.7197 Y73.2798
G01 X88.7412 Y73.2472
G01 X88.7738 Y73.2257
G01 X88.8121 Y73.2180
G01 X90.5121 Y73.2180
G01 X90.5502 Y73.2257
G01 X90.5675 Y73.2348
G01 X90.5952 Y73.2625
G01 X90.6043 Y73.2798
G01 X90.6120 Y73.3179
G01 X90.6120 Y74.4070
G01 X92.1781 Y75.9729
G01 X126.0279 Y75.9729
G01 X134.2918 Y67.7093
G01 X129.0792 Y62.4967
G01 X128.9446 Y62.3395
G01 X128.8311 Y62.1568
G01 X128.7429 Y61.9437
G01 X128.6939 Y61.7344
G01 X128.6779 Y61.5279
G01 X128.6779 Y57.5564
G01 X109.7671 Y57.5564
G01 X109.5096 Y57.5315
G01 X109.2520 Y57.4553
G01 X109.0143 Y57.3306
G01 X108.8055 Y57.1617
G01 X108.7824 Y57.1363
G01 X108.4776 Y57.1345
G01 X108.4415 Y57.1195
G01 X108.4138 Y57.0918
G01 X108.4047 Y57.0746
G01 X108.3970 Y57.0365
G01 X108.3970 Y55.3364
G01 X108.4047 Y55.2981
G01 X108.4138 Y55.2808
G01 X108.4415 Y55.2531
G01 X108.4776 Y55.2384
G01 X108.7824 Y55.2364
G01 X108.8055 Y55.2110
G01 X109.0059 Y55.0474
G01 X109.2520 Y54.9173
G01 X109.4997 Y54.8427
G01 X109.7671 Y54.8162
G01 X134.2741 Y54.8162
G01 X134.4737 Y54.6169
G01 X134.4884 Y54.5752
G01 X134.6228 Y54.3245
G01 X134.8095 Y54.0974
G01 X135.0287 Y53.9166
G01 X135.2870 Y53.7764
G01 X135.5679 Y53.6892
G01 X135.8603 Y53.6585
G01 X136.1529 Y53.6854
G01 X136.4440 Y53.7721
G01 X136.7112 Y53.9166
G01 X136.9306 Y54.0974
G01 X137.1115 Y54.3166
G01 X137.2591 Y54.5932
G01 X137.3426 Y54.8752
G01 X137.3701 Y55.1579
G01 X137.4691 Y55.1383
G01 X137.4691 Y55.1777
G01 X137.4422 Y55.4507
G01 X137.4346 Y55.4891
G01 X137.3548 Y55.7517
G01 X137.3398 Y55.7881
G01 X137.2004 Y56.0469
G01 X137.0145 Y56.2747
G01 X136.9868 Y56.3027
G01 X136.7747 Y56.4766
G01 X136.7422 Y56.4985
G01 X136.5001 Y56.6278
G01 X136.4635 Y56.6417
G01 X135.8811 Y57.2257
G01 X135.6741 Y57.3969
G01 X135.6416 Y57.4187
G01 X135.4041 Y57.5445
G01 X135.1476 Y57.6235
G01 X135.1089 Y57.6311
G01 X134.8417 Y57.6565
G01 X131.5182 Y57.6565
G01 X131.4887 Y57.6270
G01 X131.5182 Y57.6565
G01 X131.5182 Y60.9191
G01 X131.5105 Y60.9222
G01 X131.5182 Y60.9191
G01 X136.4638 Y65.8663
G01 X136.5001 Y65.8802
G01 X136.7422 Y66.0095
G01 X136.7747 Y66.0314
G01 X136.9868 Y66.2054
G01 X137.0145 Y66.2330
G01 X137.2004 Y66.4611
G01 X137.3398 Y66.7200
G01 X137.3548 Y66.7563
G01 X137.4399 Y67.0413
G01 X137.4691 Y67.3303
G01 X137.4691 Y67.3697
G01 X137.4399 Y67.6585
G01 X137.3548 Y67.9437
G01 X137.3398 Y67.9801
G01 X137.2105 Y68.2221
G01 X137.1887 Y68.2546
G01 X136.9959 Y68.4863
G01 X136.7747 Y68.6686
G01 X136.7422 Y68.6905
G01 X136.4823 Y68.8282
G01 X136.2012 Y68.9145
G01 X136.1628 Y68.9221
G01 X135.8699 Y68.9501
G01 X135.6510 Y68.9295
G01 X135.6474 Y68.9196
G01 X135.6510 Y68.9295
G01 X127.0653 Y77.5152
G01 X126.9375 Y77.6219
G01 X126.8075 Y77.6986
G01 X126.6673 Y77.7542
G01 X126.5199 Y77.7870
G01 X126.3851 Y77.7969
G01 X91.8210 Y77.7969
G01 X91.6313 Y77.7781
G01 X91.4883 Y77.7324
G01 X76.1578 Y77.7334
G01 X76.1548 Y77.7258
G01 X76.1578 Y77.7334
G01 X75.6600 Y78.2315
G01 X75.5432 Y78.3275
G01 X75.4273 Y78.3902
G01 X75.3913 Y78.4052
G01 X75.2650 Y78.4426
G01 X75.1144 Y78.4573
G01 X51.2699 Y78.4573
G01 X51.1195 Y78.4426
G01 X50.9930 Y78.4052
G01 X50.9570 Y78.3902
G01 X50.8582 Y78.3374
G01 X50.8257 Y78.3156
G01 X50.7243 Y78.2315
G01 X41.6184 Y69.1256
G01 X41.5343 Y69.0242
G01 X41.5125 Y68.9917
G01 X41.4513 Y68.8751
G01 X41.4122 Y68.7497
G01 X41.4045 Y68.7111
G01 X41.3926 Y68.5800
G01 X41.3926 Y62.4840
G01 X41.4045 Y62.3529
G01 X41.4122 Y62.3143
G01 X41.4513 Y62.1889
G01 X41.5125 Y62.0723
G01 X41.5343 Y62.0395
G01 X41.6184 Y61.9384
G01 X43.6504 Y59.9064
G01 X43.7302 Y59.8376
G01 X43.8320 Y59.7723
G01 X43.9428 Y59.7238
G01 X44.0599 Y59.6930
G01 X44.1960 Y59.6806
G01 X56.1337 Y59.6811
G01 X56.2541 Y59.6930
G01 X56.3413 Y59.7139
G01 X56.4540 Y59.7581
G01 X56.5584 Y59.8190
G01 X56.6636 Y59.9064
G01 X59.9816 Y63.2244
G01 X60.0659 Y63.3255
G01 X60.0875 Y63.3583
G01 X60.1487 Y63.4746
G01 X60.1927 Y63.6194
G01 X60.2077 Y63.7700
G01 X60.2077 Y63.8569
G01 X60.1995 Y63.8609
G01 X60.2077 Y63.8569
G01 X60.2846 Y63.9214
G01 X60.4220 Y64.0875
G01 X60.4439 Y64.1200
G01 X60.5363 Y64.2930
G01 X60.5513 Y64.3293
G01 X60.6130 Y64.5358
G01 X60.6351 Y64.7504
G01 X60.6351 Y64.7896
G01 X60.6130 Y65.0042
G01 X60.5447 Y65.2292
G01 X60.4439 Y65.4197
G01 X60.4220 Y65.4525
G01 X60.2846 Y65.6186
G01 X60.1185 Y65.7560
G01 X60.0860 Y65.7779
G01 X59.9130 Y65.8703
G01 X59.8767 Y65.8853
G01 X59.6702 Y65.9470
G01 X59.4556 Y65.9691
G01 X59.4164 Y65.9691
G01 X59.2018 Y65.9470
G01 X58.9953 Y65.8853
G01 X58.9590 Y65.8703
G01 X58.7863 Y65.7779
G01 X58.7535 Y65.7560
G01 X58.5874 Y65.6186
G01 X58.4500 Y65.4525
G01 X58.4281 Y65.4197
G01 X58.3273 Y65.2292
G01 X58.2590 Y65.0042
G01 X58.2369 Y64.7896
G01 X58.2369 Y64.7504
G01 X58.2590 Y64.5358
G01 X58.3273 Y64.3108
G01 X58.4281 Y64.1200
G01 X58.4500 Y64.0875
G01 X58.5457 Y63.9707
G01 X58.5795 Y63.9689
G01 X58.5457 Y63.9707
G01 X55.7985 Y61.2234
G01 X55.8015 Y61.2158
G01 X55.7985 Y61.2234
G01 X44.5155 Y61.2234
G01 X44.5125 Y61.2158
G01 X44.5155 Y61.2234
G01 X42.9357 Y62.8035
G01 X42.9280 Y62.8005
G01 X42.9357 Y62.8035
G01 X42.9357 Y68.2605
G01 X42.9280 Y68.2635
G01 X42.9357 Y68.2605
G01 X51.5894 Y76.9145
G01 X51.5864 Y76.9219
G01 X51.5894 Y76.9145
G01 X57.4462 Y76.9145
G01 X57.5813 Y76.9485
G01 X57.6641 Y76.9584
G01 X57.7289 Y76.9612
G01 X74.6265 Y76.9612
G01 X74.7306 Y76.9544
G01 X74.8025 Y76.9424
G01 X74.8038 Y76.9455
G01 X74.8025 Y76.9424
G01 X74.8670 Y76.8990
G01 X74.9480 Y76.8274
G01 X75.3389 Y76.4370
G01 X75.4512 Y76.3382
G01 X75.5769 Y76.2475
G01 X75.6092 Y76.2282
G01 X75.6879 Y76.2053
G01 X75.8187 Y76.1914
G01 X89.8162 Y76.1903
G00 Z2.0000 ( retract )

G00 X72.9310 Y74.1484 ( rapid move to begin. )
G01 F450.0001
( Mill infeed pass 1/1 )
G01 Z-0.1270
G01 F900.0000
G01 X72.9310 Y74.1484
G01 X72.9148 Y73.9826
G01 X72.9071 Y73.9442
G01 X72.8586 Y73.7847
G01 X72.8436 Y73.7484
G01 X72.7652 Y73.6016
G01 X72.7433 Y73.5688
G01 X72.6244 Y73.4256
G01 X72.4812 Y73.3067
G01 X72.4484 Y73.2848
G01 X72.2854 Y73.1985
G01 X72.2709 Y73.2071
G01 X72.2854 Y73.1985
G01 X72.2854 Y67.4619
G01 X72.2714 Y67.4540
G01 X72.2854 Y67.4619
G01 X72.4207 Y67.3895
G01 X72.4532 Y67.3677
G01 X72.5747 Y67.2683
G01 X72.6023 Y67.2407
G01 X72.7019 Y67.1192
G01 X72.7235 Y67.0867
G01 X72.8058 Y66.9308
G01 X72.8581 Y66.7621
G01 X72.8657 Y66.7238
G01 X72.8810 Y66.5676
G01 X72.8810 Y66.5284
G01 X72.8657 Y66.3722
G01 X72.8581 Y66.3339
G01 X72.8058 Y66.1652
G01 X72.7235 Y66.0093
G01 X72.7019 Y65.9768
G01 X72.6023 Y65.8553
G01 X72.5747 Y65.8277
G01 X72.4532 Y65.7281
G01 X72.4207 Y65.7065
G01 X72.2648 Y65.6242
G01 X72.0961 Y65.5719
G01 X72.0578 Y65.5643
G01 X71.9016 Y65.5490
G01 X71.8624 Y65.5490
G01 X71.7062 Y65.5643
G01 X71.6679 Y65.5719
G01 X71.5178 Y65.6176
G01 X71.4878 Y65.6311
G01 X71.3303 Y65.7502
G01 X71.2158 Y65.8541
G01 X71.0844 Y65.9963
G01 X70.9582 Y66.1652
G01 X70.9061 Y66.3339
G01 X70.8983 Y66.3722
G01 X70.8830 Y66.5284
G01 X70.8830 Y66.5676
G01 X70.8983 Y66.7238
G01 X70.9061 Y66.7621
G01 X70.9582 Y66.9308
G01 X71.0405 Y67.0867
G01 X71.0623 Y67.1192
G01 X71.1617 Y67.2407
G01 X71.1893 Y67.2683
G01 X71.3108 Y67.3677
G01 X71.3433 Y67.3895
G01 X71.4789 Y67.4619
G01 X71.4926 Y67.4540
G01 X71.4789 Y67.4619
G01 X71.4789 Y73.1985
G01 X71.4931 Y73.2071
G01 X71.4789 Y73.1985
G01 X71.3156 Y73.2848
G01 X71.2828 Y73.3067
G01 X71.1396 Y73.4256
G01 X71.0207 Y73.5688
G01 X70.9988 Y73.6016
G01 X70.9120 Y73.7662
G01 X70.8569 Y73.9442
G01 X70.8492 Y73.9826
G01 X70.8330 Y74.1484
G01 X70.8330 Y74.1876
G01 X70.8492 Y74.3534
G01 X70.8569 Y74.3918
G01 X70.9054 Y74.5513
G01 X70.9204 Y74.5876
G01 X70.9988 Y74.7344
G01 X71.0207 Y74.7672
G01 X71.1264 Y74.8960
G01 X71.1540 Y74.9236
G01 X71.2828 Y75.0293
G01 X71.3156 Y75.0512
G01 X71.4802 Y75.1380
G01 X71.6476 Y75.1898
G01 X71.8602 Y75.2028
G01 X72.1164 Y75.1898
G01 X72.2653 Y75.1446
G01 X72.3016 Y75.1296
G01 X72.4484 Y75.0512
G01 X72.4812 Y75.0293
G01 X72.6244 Y74.9104
G01 X72.7433 Y74.7672
G01 X72.7652 Y74.7344
G01 X72.8520 Y74.5698
G01 X72.9071 Y74.3918
G01 X72.9148 Y74.3534
G01 X72.9310 Y74.1876
G01 X72.9310 Y74.1484
G01 X72.8315 Y74.1581
G01 X72.8137 Y73.9826
G01 X72.7631 Y73.8137
G01 X72.6661 Y73.6323
G01 X72.5538 Y73.4962
G01 X72.4177 Y73.3839
G01 X72.2544 Y73.2945
G01 X72.1853 Y73.2714
G01 X72.1853 Y67.3925
G01 X72.2353 Y67.3753
G01 X72.3900 Y67.2904
G01 X72.5185 Y67.1843
G01 X72.6354 Y67.0395
G01 X72.7136 Y66.8924
G01 X72.7646 Y66.7235
G01 X72.7817 Y66.5579
G01 X72.7662 Y66.3821
G01 X72.7136 Y66.2036
G01 X72.6354 Y66.0565
G01 X72.5112 Y65.9051
G01 X72.3737 Y65.7946
G01 X72.2264 Y65.7164
G01 X72.0575 Y65.6653
G01 X71.8723 Y65.6486
G01 X71.7065 Y65.6653
G01 X71.5376 Y65.7164
G01 X71.3905 Y65.7946
G01 X71.2528 Y65.9051
G01 X71.1286 Y66.0565
G01 X71.0507 Y66.2036
G01 X70.9978 Y66.3821
G01 X70.9826 Y66.5579
G01 X70.9993 Y66.7235
G01 X71.0507 Y66.8924
G01 X71.1286 Y67.0395
G01 X71.2457 Y67.1843
G01 X71.3743 Y67.2904
G01 X71.5287 Y67.3753
G01 X71.5787 Y67.3925
G01 X71.5787 Y73.2714
G01 X71.5096 Y73.2945
G01 X71.3463 Y73.3839
G01 X71.2102 Y73.4962
G01 X71.0870 Y73.6486
G01 X71.0044 Y73.8045
G01 X70.9503 Y73.9826
G01 X70.9325 Y74.1581
G01 X70.9488 Y74.3435
G01 X71.0011 Y74.5223
G01 X71.0870 Y74.6874
G01 X71.2102 Y74.8398
G01 X71.3463 Y74.9521
G01 X71.5185 Y75.0456
G01 X71.6966 Y75.0997
G01 X71.8723 Y75.1175
G01 X72.0578 Y75.1012
G01 X72.2363 Y75.0489
G01 X72.4014 Y74.9630
G01 X72.5538 Y74.8398
G01 X72.6661 Y74.7037
G01 X72.7598 Y74.5315
G01 X72.8114 Y74.3628
G01 X72.8315 Y74.1581
G00 Z2.0000 ( retract )

G00 X66.8779 Y63.5000 ( rapid move to begin. )
G01 F450.0001
( Mill infeed pass 1/1 )
G01 Z-0.1270
G01 F900.0000
G01 X66.8779 Y63.5000
G01 X66.8487 Y63.1975
G01 X66.7596 Y62.8970
G01 X66.6026 Y62.6031
G01 X66.4093 Y62.3687
G01 X66.1749 Y62.1754
G01 X65.8810 Y62.0184
G01 X65.5805 Y61.9293
G01 X65.2879 Y61.9006
G01 X64.9564 Y61.9331
G01 X64.6656 Y62.0217
G01 X64.3976 Y62.1645
G01 X64.1467 Y62.3687
G01 X63.9427 Y62.6194
G01 X63.7997 Y62.8876
G01 X63.7111 Y63.1784
G01 X63.6781 Y63.5000
G01 X63.7111 Y63.8216
G01 X63.7997 Y64.1124
G01 X63.9427 Y64.3804
G01 X64.1401 Y64.6242
G01 X64.3890 Y64.8305
G01 X64.6750 Y64.9816
G01 X64.9755 Y65.0707
G01 X65.2879 Y65.0994
G01 X65.5805 Y65.0707
G01 X65.8810 Y64.9816
G01 X66.1586 Y64.8353
G01 X66.4093 Y64.6313
G01 X66.6085 Y64.3890
G01 X66.7596 Y64.1030
G01 X66.8487 Y63.8025
G01 X66.8779 Y63.5000
G01 X66.9770 Y63.5196
G01 X66.9453 Y63.8317
G01 X66.8553 Y64.1320
G01 X66.8404 Y64.1683
G01 X66.7316 Y64.3712
G01 X66.6984 Y64.4162
G01 X66.4451 Y64.6961
G01 X66.2287 Y64.8922
G01 X66.1492 Y64.9536
G01 X65.9463 Y65.0621
G01 X65.9102 Y65.0771
G01 X65.6097 Y65.1673
G01 X65.2976 Y65.1990
G01 X65.2584 Y65.1990
G01 X64.9463 Y65.1673
G01 X64.6460 Y65.0771
G01 X64.6097 Y65.0621
G01 X64.3336 Y64.9135
G01 X64.0758 Y64.7022
G01 X63.8762 Y64.4601
G01 X63.8543 Y64.4276
G01 X63.7159 Y64.1683
G01 X63.7009 Y64.1320
G01 X63.6107 Y63.8317
G01 X63.5790 Y63.5196
G01 X63.5790 Y63.4804
G01 X63.6120 Y63.1629
G01 X63.7009 Y62.8678
G01 X63.7159 Y62.8317
G01 X63.8543 Y62.5724
G01 X63.8762 Y62.5396
G01 X64.0758 Y62.2978
G01 X64.3179 Y62.0982
G01 X64.3504 Y62.0763
G01 X64.6097 Y61.9379
G01 X64.6460 Y61.9229
G01 X64.9463 Y61.8327
G01 X65.2584 Y61.8010
G01 X65.2976 Y61.8010
G01 X65.6097 Y61.8327
G01 X65.9102 Y61.9229
G01 X65.9463 Y61.9379
G01 X66.2224 Y62.0865
G01 X66.4802 Y62.2978
G01 X66.6798 Y62.5396
G01 X66.7017 Y62.5724
G01 X66.8404 Y62.8317
G01 X66.8553 Y62.8678
G01 X66.9453 Y63.1683
G01 X66.9770 Y63.4804
G01 X66.9770 Y63.5196
G00 Z2.0000 ( retract )

G00 X76.9907 Y53.6250 ( rapid move to begin. )
G01 F450.0001
( Mill infeed pass 1/1 )
G01 Z-0.1270
G01 F900.0000
G01 X76.9907 Y53.6250
G01 X76.9732 Y53.8081
G01 X76.9188 Y53.9940
G01 X76.8182 Y54.1823
G01 X76.7011 Y54.3242
G01 X76.5592 Y54.4413
G01 X76.3803 Y54.5386
G01 X76.2493 Y54.5788
G01 X76.2493 Y58.1660
G01 X76.2434 Y58.2252
G01 X76.2295 Y58.2727
G01 X76.1982 Y58.3344
G01 X76.1604 Y58.3804
G01 X66.0949 Y68.4454
G01 X66.0560 Y68.4764
G01 X65.9945 Y68.5079
G01 X65.9468 Y68.5218
G01 X65.8876 Y68.5277
G01 X57.1233 Y68.5277
G01 X53.1553 Y72.4957
G01 X53.1553 Y73.2180
G01 X53.7215 Y73.2198
G01 X53.7576 Y73.2348
G01 X53.7728 Y73.2472
G01 X53.7944 Y73.2798
G01 X53.8000 Y73.2986
G01 X53.8020 Y75.0179
G01 X53.7944 Y75.0562
G01 X53.7853 Y75.0735
G01 X53.7576 Y75.1012
G01 X53.7215 Y75.1159
G01 X53.7020 Y75.1180
G01 X52.0019 Y75.1180
G01 X51.9826 Y75.1159
G01 X51.9466 Y75.1012
G01 X51.9313 Y75.0887
G01 X51.9097 Y75.0562
G01 X51.9021 Y75.0179
G01 X51.9039 Y73.2986
G01 X51.9097 Y73.2798
G01 X51.9313 Y73.2472
G01 X51.9466 Y73.2348
G01 X51.9826 Y73.2198
G01 X52.5488 Y73.2180
G01 X52.5493 Y72.3603
G01 X52.5546 Y72.3108
G01 X52.5686 Y72.2633
G01 X52.5998 Y72.2015
G01 X52.6377 Y72.1556
G01 X56.7832 Y68.0100
G01 X56.8292 Y67.9722
G01 X56.8726 Y67.9486
G01 X56.9384 Y67.9270
G01 X56.9976 Y67.9211
G01 X65.7621 Y67.9211
G01 X75.6427 Y58.0403
G01 X75.6427 Y54.5450
G01 X75.6145 Y54.5343
G01 X75.4444 Y54.4413
G01 X75.3024 Y54.3242
G01 X75.1743 Y54.1660
G01 X75.0880 Y54.0032
G01 X75.0341 Y53.8274
G01 X75.0128 Y53.6250
G01 X75.0303 Y53.4416
G01 X75.0880 Y53.2463
G01 X75.1853 Y53.0675
G01 X75.3024 Y52.9255
G01 X75.4444 Y52.8084
G01 X75.6234 Y52.7111
G01 X75.8185 Y52.6534
G01 X76.0115 Y52.6364
G01 X76.2043 Y52.6572
G01 X76.3803 Y52.7111
G01 X76.5429 Y52.7975
G01 X76.7011 Y52.9255
G01 X76.8292 Y53.0837
G01 X76.9155 Y53.2463
G01 X76.9694 Y53.4223
G01 X76.9907 Y53.6250
G01 X77.0898 Y53.6052
G01 X77.0898 Y53.6445
G01 X77.0727 Y53.8180
G01 X77.0651 Y53.8564
G01 X77.0146 Y54.0230
G01 X76.9996 Y54.0593
G01 X76.9173 Y54.2130
G01 X76.8955 Y54.2455
G01 X76.7718 Y54.3949
G01 X76.6227 Y54.5186
G01 X76.5899 Y54.5404
G01 X76.4184 Y54.6311
G01 X76.3494 Y54.6529
G01 X76.3308 Y54.6400
G01 X76.3494 Y54.6529
G01 X76.3494 Y58.1660
G01 X76.3458 Y58.2117
G01 X76.3062 Y58.2821
G01 X76.2605 Y58.3471
G01 X76.1977 Y58.4185
G01 X66.0984 Y68.5145
G01 X66.0382 Y68.5612
G01 X65.9707 Y68.6041
G01 X65.9336 Y68.6239
G01 X65.8876 Y68.6275
G01 X57.1647 Y68.6275
G01 X57.1614 Y68.6199
G01 X57.1647 Y68.6275
G01 X53.2552 Y72.5371
G01 X53.2475 Y72.5338
G01 X53.2552 Y72.5371
G01 X53.2552 Y73.1180
G01 X53.2262 Y73.1467
G01 X53.2552 Y73.1180
G01 X53.7020 Y73.1180
G01 X53.7411 Y73.1218
G01 X53.7787 Y73.1332
G01 X53.8132 Y73.1517
G01 X53.8434 Y73.1766
G01 X53.8683 Y73.2069
G01 X53.8869 Y73.2414
G01 X53.8983 Y73.2790
G01 X53.9021 Y73.3179
G01 X53.9021 Y75.0179
G01 X53.8985 Y75.0540
G01 X53.8815 Y75.1045
G01 X53.8577 Y75.1421
G01 X53.8262 Y75.1736
G01 X53.7853 Y75.1992
G01 X53.7411 Y75.2142
G01 X53.7020 Y75.2180
G01 X52.0019 Y75.2180
G01 X51.9631 Y75.2142
G01 X51.9189 Y75.1992
G01 X51.8952 Y75.1865
G01 X51.8607 Y75.1594
G01 X51.8333 Y75.1246
G01 X51.8208 Y75.1012
G01 X51.8058 Y75.0570
G01 X51.8020 Y75.0179
G01 X51.8020 Y73.3179
G01 X51.8058 Y73.2790
G01 X51.8208 Y73.2348
G01 X51.8335 Y73.2112
G01 X51.8607 Y73.1766
G01 X51.8952 Y73.1495
G01 X51.9189 Y73.1368
G01 X51.9631 Y73.1218
G01 X52.0019 Y73.1180
G01 X52.4487 Y73.1180
G01 X52.4777 Y73.1467
G01 X52.4487 Y73.1180
G01 X52.4487 Y72.3699
G01 X52.4538 Y72.3108
G01 X52.4614 Y72.2724
G01 X52.4878 Y72.1980
G01 X52.5168 Y72.1459
G01 X52.5668 Y72.0849
G01 X56.7126 Y67.9392
G01 X56.7474 Y67.9094
G01 X56.8660 Y67.8797
G01 X56.9417 Y67.8703
G01 X56.9984 Y67.8680
G01 X65.5511 Y67.8683
G01 X65.6534 Y67.8612
G01 X65.7347 Y67.8464
G01 X65.7362 Y67.8503
G01 X65.7347 Y67.8464
G01 X65.7990 Y67.8000
G01 X65.8739 Y67.7344
G01 X74.7956 Y58.8124
G01 X74.8393 Y58.7649
G01 X74.8911 Y58.6991
G01 X74.9625 Y58.5793
G01 X75.5429 Y57.9989
G01 X75.5505 Y58.0022
G01 X75.5429 Y57.9989
G01 X75.5429 Y54.6095
G01 X75.5566 Y54.6014
G01 X75.5429 Y54.6095
G01 X75.4136 Y54.5404
G01 X75.3811 Y54.5186
G01 X75.2318 Y54.3949
G01 X75.1081 Y54.2455
G01 X75.0862 Y54.2130
G01 X74.9958 Y54.0415
G01 X74.9750 Y53.9765
G01 X74.9534 Y53.8170
G01 X74.9450 Y53.6451
G01 X74.9534 Y53.4327
G01 X74.9750 Y53.2732
G01 X74.9884 Y53.2285
G01 X75.1114 Y53.0598
G01 X75.2785 Y52.8752
G01 X75.4367 Y52.7345
G01 X75.6054 Y52.6115
G01 X75.7702 Y52.5615
G01 X75.8088 Y52.5539
G01 X75.9821 Y52.5369
G01 X76.0214 Y52.5369
G01 X76.1949 Y52.5539
G01 X76.2333 Y52.5615
G01 X76.4184 Y52.6186
G01 X76.5899 Y52.7093
G01 X76.6227 Y52.7312
G01 X76.7718 Y52.8549
G01 X76.8955 Y53.0040
G01 X76.9173 Y53.0367
G01 X76.9996 Y53.1904
G01 X77.0146 Y53.2265
G01 X77.0651 Y53.3933
G01 X77.0727 Y53.4319
G01 X77.0898 Y53.6052
G00 Z2.0000 ( retract )

G00 X80.0171 Y56.7929 ( rapid move to begin. )
G01 F450.0001
( Mill infeed pass 1/1 )
G01 Z-0.1270
G01 F900.0000
G01 X80.0171 Y56.7929
G01 X79.9170 Y56.7929
G01 X79.8886 Y56.7639
G01 X79.9170 Y56.7929
G01 X79.9170 Y57.0365
G01 X79.9132 Y57.0753
G01 X79.9018 Y57.1129
G01 X79.8833 Y57.1475
G01 X79.8584 Y57.1777
G01 X79.8281 Y57.2026
G01 X79.7936 Y57.2211
G01 X79.7560 Y57.2325
G01 X79.7171 Y57.2364
G01 X79.4736 Y57.2364
G01 X79.4446 Y57.2079
G01 X79.4736 Y57.2364
G01 X79.4736 Y57.3364
G01 X79.4438 Y57.3662
G01 X79.4736 Y57.3364
G01 X79.7784 Y57.3354
G01 X79.8627 Y57.3032
G01 X79.9320 Y57.2513
G01 X79.9838 Y57.1823
G01 X80.0161 Y57.0977
G01 X80.0171 Y56.7929
G01 X80.1169 Y56.6928
G01 X80.1169 Y57.0789
G01 X80.1126 Y57.1205
G01 X80.0717 Y57.2300
G01 X80.0029 Y57.3222
G01 X79.9107 Y57.3910
G01 X79.8012 Y57.4319
G01 X79.7596 Y57.4363
G01 X79.3735 Y57.4363
G01 X79.3735 Y57.1363
G01 X79.7364 Y57.1345
G01 X79.7725 Y57.1195
G01 X79.8002 Y57.0918
G01 X79.8093 Y57.0746
G01 X79.8170 Y57.0365
G01 X79.8170 Y56.6928
G01 X80.1169 Y56.6928
G00 Z2.0000 ( retract )

G00 X85.3262 Y56.5686 ( rapid move to begin. )
G01 F450.0001
( Mill infeed pass 1/1 )
G01 Z-0.1270
G01 F900.0000
G01 X85.3262 Y56.5686
G01 X85.3669 Y56.4490
G01 X85.3501 Y56.3867
G01 X85.3318 Y56.1863
G01 X85.3501 Y55.9859
G01 X85.3669 Y55.9237
G01 X85.3262 Y55.8041
G01 X85.3669 Y55.9237
G01 X85.4535 Y56.0103
G01 X85.5619 Y55.9775
G01 X85.5538 Y56.0108
G01 X85.5375 Y56.1767
G01 X85.5538 Y56.3621
G01 X85.5619 Y56.3954
G01 X85.3186 Y56.6387
G01 X85.3079 Y56.6156
G01 X85.2513 Y56.4043
G01 X85.2322 Y56.1863
G01 X85.2513 Y55.9684
G01 X85.3079 Y55.7573
G01 X85.3186 Y55.7342
G01 X85.5619 Y55.9775
G01 X85.4535 Y56.0103
G01 X85.4380 Y56.1668
G01 X85.4380 Y56.2059
G01 X85.4535 Y56.3623
G01 X85.4629 Y56.3659
G01 X85.4535 Y56.3623
G01 X85.3669 Y56.4490
G00 Z2.0000 ( retract )

G00 X86.7496 Y57.3067 ( rapid move to begin. )
G01 F450.0001
( Mill infeed pass 1/1 )
G01 Z-0.1270
G01 F900.0000
G01 X86.7496 Y57.3067
G01 X86.6630 Y57.2201
G01 X86.6666 Y57.2099
G01 X86.6630 Y57.2201
G01 X86.5066 Y57.2353
G01 X86.4674 Y57.2353
G01 X86.3110 Y57.2201
G01 X86.3074 Y57.2105
G01 X86.3110 Y57.2201
G01 X86.2244 Y57.3067
G01 X86.1047 Y57.3474
G01 X86.2244 Y57.3067
G01 X86.2866 Y57.3232
G01 X86.4870 Y57.3415
G01 X86.6874 Y57.3232
G01 X86.7496 Y57.3067
G01 X86.8693 Y57.3474
G01 X86.9391 Y57.3547
G01 X86.9163 Y57.3654
G01 X86.7049 Y57.4220
G01 X86.4870 Y57.4411
G01 X86.2691 Y57.4220
G01 X86.0580 Y57.3654
G01 X86.0349 Y57.3547
G01 X86.2782 Y57.1114
G01 X86.3115 Y57.1195
G01 X86.4773 Y57.1360
G01 X86.6628 Y57.1195
G01 X86.6960 Y57.1114
G01 X86.9391 Y57.3547
G00 Z2.0000 ( retract )

G00 X87.6480 Y56.5686 ( rapid move to begin. )
G01 F450.0001
( Mill infeed pass 1/1 )
G01 Z-0.1270
G01 F900.0000
G01 X87.6480 Y56.5686
G01 X87.6071 Y56.4490
G01 X87.6239 Y56.3867
G01 X87.6414 Y56.1863
G01 X87.7418 Y56.1863
G01 X87.7227 Y55.9684
G01 X87.6661 Y55.7573
G01 X87.6554 Y55.7342
G01 X87.4121 Y55.9775
G01 X87.4202 Y56.0108
G01 X87.4365 Y56.1767
G01 X87.4202 Y56.3621
G01 X87.4121 Y56.3954
G01 X87.6554 Y56.6387
G01 X87.6661 Y56.6156
G01 X87.7227 Y56.4043
G01 X87.7418 Y56.1863
G01 X87.6414 Y56.1863
G01 X87.6239 Y55.9859
G01 X87.6071 Y55.9237
G01 X87.6480 Y55.8041
G01 X87.6071 Y55.9237
G01 X87.5208 Y56.0103
G01 X87.5106 Y56.0067
G01 X87.5208 Y56.0103
G01 X87.5360 Y56.1668
G01 X87.5360 Y56.2059
G01 X87.5208 Y56.3623
G01 X87.5111 Y56.3659
G01 X87.5208 Y56.3623
G01 X87.6071 Y56.4490
G00 Z2.0000 ( retract )

G00 X87.4365 Y53.6367 ( rapid move to begin. )
G01 F450.0001
( Mill infeed pass 1/1 )
G01 Z-0.1270
G01 F900.0000
G01 X87.4365 Y53.6367
G01 X87.4187 Y53.8317
G01 X87.3648 Y54.0098
G01 X87.2711 Y54.1820
G01 X87.1588 Y54.3182
G01 X87.0227 Y54.4304
G01 X86.8594 Y54.5198
G01 X86.6724 Y54.5780
G01 X86.4969 Y54.5960
G01 X86.2922 Y54.5757
G01 X86.1146 Y54.5198
G01 X85.9513 Y54.4304
G01 X85.8152 Y54.3182
G01 X85.7029 Y54.1820
G01 X85.6135 Y54.0187
G01 X85.5906 Y53.9496
G01 X79.7636 Y53.9496
G01 X79.7448 Y54.0098
G01 X79.6620 Y54.1658
G01 X79.5388 Y54.3182
G01 X79.3864 Y54.4413
G01 X79.2213 Y54.5274
G01 X79.0524 Y54.5780
G01 X78.8573 Y54.5960
G01 X78.6722 Y54.5757
G01 X78.5127 Y54.5274
G01 X78.4332 Y54.4871
G01 X77.7105 Y55.2094
G01 X77.7105 Y57.8541
G01 X77.7047 Y57.9133
G01 X77.6910 Y57.9608
G01 X77.6595 Y58.0225
G01 X77.6285 Y58.0611
G01 X65.4154 Y70.2742
G01 X65.3768 Y70.3052
G01 X65.3151 Y70.3367
G01 X65.2673 Y70.3506
G01 X65.2084 Y70.3565
G01 X59.6125 Y70.3565
G01 X56.2333 Y73.7354
G01 X56.2696 Y73.8045
G01 X56.3215 Y73.9732
G01 X56.3415 Y74.1581
G01 X56.3237 Y74.3534
G01 X56.2729 Y74.5223
G01 X56.2404 Y74.5876
G01 X57.8543 Y76.2015
G01 X74.4997 Y76.2015
G01 X76.1136 Y74.5876
G01 X76.0811 Y74.5223
G01 X76.0288 Y74.3435
G01 X76.0125 Y74.1581
G01 X76.0303 Y73.9826
G01 X76.0844 Y73.8045
G01 X76.1670 Y73.6486
G01 X76.2975 Y73.4896
G01 X76.4426 Y73.3730
G01 X76.5985 Y73.2902
G01 X76.7766 Y73.2363
G01 X76.9523 Y73.2185
G01 X77.1474 Y73.2363
G01 X77.3255 Y73.2902
G01 X77.4814 Y73.3730
G01 X77.6265 Y73.4896
G01 X77.7461 Y73.6323
G01 X77.8398 Y73.8045
G01 X77.8937 Y73.9826
G01 X77.9115 Y74.1581
G01 X77.8937 Y74.3534
G01 X77.8398 Y74.5315
G01 X77.7570 Y74.6874
G01 X77.6404 Y74.8325
G01 X77.4814 Y74.9630
G01 X77.3163 Y75.0489
G01 X77.1474 Y75.0997
G01 X76.9719 Y75.1175
G01 X76.7865 Y75.1012
G01 X76.6077 Y75.0489
G01 X76.5424 Y75.0164
G01 X74.8396 Y76.7192
G01 X74.7936 Y76.7568
G01 X74.7321 Y76.7883
