( pcb2gcode 2.5.0 )
( Software-independent Gcode )

( This file uses 5 drill bit sizes. )
( Bit sizes: [0.0315inch] [0.0394inch] [0.04inch] [0.0551inch] [0.0984inch] )

G94       (Inches per minute feed rate.)
G20       (Units == INCHES.)
G91.1     (Incremental arc distance mode.)
G90       (Absolute coordinates.)
G00 S12000     (RPM spindle speed.)

G00 Z0.39370 (Retract)
T1
M5      (Spindle stop.)
G04 P1.00000
(MSG, Change tool bit to drill size 0.0315inch)
M6      (Tool change.)
M0      (Temporary machine stop.)
M3      (Spindle on clockwise.)
G0 Z0.07874
G04 P1.00000

G1 F0.78740
G0 X3.15000 Y2.62000
G1 Z-0.07087
G1 Z0.07874
G0 X3.15000 Y2.22000
G1 Z-0.07087
G1 Z0.07874

G00 Z0.39370 (Retract)
T2
M5      (Spindle stop.)
G04 P1.00000
(MSG, Change tool bit to drill size 0.0394inch)
M6      (Tool change.)
M0      (Temporary machine stop.)
M3      (Spindle on clockwise.)
G0 Z0.07874
G04 P1.00000

G1 F0.78740
G0 X1.37500 Y1.31210
G1 Z-0.07087
G1 Z0.07874
G0 X1.37500 Y1.41210
G1 Z-0.07087
G1 Z0.07874
G0 X1.37500 Y1.51210
G1 Z-0.07087
G1 Z0.07874
G0 X1.37500 Y1.61210
G1 Z-0.07087
G1 Z0.07874
G0 X1.37500 Y1.71210
G1 Z-0.07087
G1 Z0.07874
G0 X1.37500 Y1.81210
G1 Z-0.07087
G1 Z0.07874
G0 X1.37500 Y1.91210
G1 Z-0.07087
G1 Z0.07874
G0 X1.37500 Y2.01210
G1 Z-0.07087
G1 Z0.07874
G0 X1.37500 Y2.11210
G1 Z-0.07087
G1 Z0.07874
G0 X1.37500 Y2.21210
G1 Z-0.07087
G1 Z0.07874
G0 X1.37000 Y2.92000
G1 Z-0.07087
G1 Z0.07874
G0 X1.47000 Y2.92000
G1 Z-0.07087
G1 Z0.07874
G0 X1.57000 Y2.92000
G1 Z-0.07087
G1 Z0.07874
G0 X1.67000 Y2.92000
G1 Z-0.07087
G1 Z0.07874
G0 X1.77000 Y2.92000
G1 Z-0.07087
G1 Z0.07874
G0 X2.45000 Y2.92000
G1 Z-0.07087
G1 Z0.07874
G0 X2.55000 Y2.92000
G1 Z-0.07087
G1 Z0.07874
G0 X2.65000 Y2.92000
G1 Z-0.07087
G1 Z0.07874
G0 X2.75000 Y2.92000
G1 Z-0.07087
G1 Z0.07874
G0 X2.85000 Y2.92000
G1 Z-0.07087
G1 Z0.07874
G0 X2.95000 Y2.92000
G1 Z-0.07087
G1 Z0.07874
G0 X3.05000 Y2.92000
G1 Z-0.07087
G1 Z0.07874
G0 X3.15000 Y2.92000
G1 Z-0.07087
G1 Z0.07874
G0 X3.25000 Y2.92000
G1 Z-0.07087
G1 Z0.07874
G0 X3.59920 Y2.92000
G1 Z-0.07087
G1 Z0.07874
G0 X3.69920 Y2.92000
G1 Z-0.07087
G1 Z0.07874
G0 X3.79920 Y2.92000
G1 Z-0.07087
G1 Z0.07874
G0 X3.89920 Y2.92000
G1 Z-0.07087
G1 Z0.07874
G0 X4.04000 Y2.55000
G1 Z-0.07087
G1 Z0.07874
G0 X3.94000 Y2.55000
G1 Z-0.07087
G1 Z0.07874
G0 X3.84000 Y2.55000
G1 Z-0.07087
G1 Z0.07874
G0 X3.74000 Y2.55000
G1 Z-0.07087
G1 Z0.07874
G0 X3.64000 Y2.55000
G1 Z-0.07087
G1 Z0.07874
G0 X3.54000 Y2.55000
G1 Z-0.07087
G1 Z0.07874
G0 X2.87500 Y2.21210
G1 Z-0.07087
G1 Z0.07874
G0 X2.87500 Y2.11210
G1 Z-0.07087
G1 Z0.07874
G0 X2.87500 Y2.01210
G1 Z-0.07087
G1 Z0.07874
G0 X2.87500 Y1.91210
G1 Z-0.07087
G1 Z0.07874
G0 X2.87500 Y1.81210
G1 Z-0.07087
G1 Z0.07874
G0 X2.87500 Y1.71210
G1 Z-0.07087
G1 Z0.07874
G0 X2.87500 Y1.61210
G1 Z-0.07087
G1 Z0.07874
G0 X2.87500 Y1.51210
G1 Z-0.07087
G1 Z0.07874
G0 X2.87500 Y1.41210
G1 Z-0.07087
G1 Z0.07874
G0 X2.87500 Y1.31210
G1 Z-0.07087
G1 Z0.07874
G0 X2.87500 Y1.21210
G1 Z-0.07087
G1 Z0.07874
G0 X2.87500 Y1.11210
G1 Z-0.07087
G1 Z0.07874
G0 X2.57500 Y1.41210
G1 Z-0.07087
G1 Z0.07874
G0 X2.57500 Y1.51210
G1 Z-0.07087
G1 Z0.07874
G0 X2.57500 Y1.61210
G1 Z-0.07087
G1 Z0.07874
G0 X2.57500 Y1.71210
G1 Z-0.07087
G1 Z0.07874
G0 X2.57500 Y1.81210
G1 Z-0.07087
G1 Z0.07874
G0 X2.57500 Y1.91210
G1 Z-0.07087
G1 Z0.07874
G0 X2.57500 Y2.01210
G1 Z-0.07087
G1 Z0.07874
G0 X2.57500 Y2.11210
G1 Z-0.07087
G1 Z0.07874
G0 X2.57500 Y2.21210
G1 Z-0.07087
G1 Z0.07874
G0 X1.67500 Y1.41210
G1 Z-0.07087
G1 Z0.07874
G0 X1.67500 Y1.31210
G1 Z-0.07087
G1 Z0.07874
G0 X1.67500 Y1.21210
G1 Z-0.07087
G1 Z0.07874
G0 X1.67500 Y1.11210
G1 Z-0.07087
G1 Z0.07874
G0 X1.67500 Y1.01210
G1 Z-0.07087
G1 Z0.07874
G0 X1.67500 Y0.91210
G1 Z-0.07087
G1 Z0.07874
G0 X1.67500 Y0.81210
G1 Z-0.07087
G1 Z0.07874
G0 X1.67500 Y0.71210
G1 Z-0.07087
G1 Z0.07874
G0 X1.67500 Y0.61210
G1 Z-0.07087
G1 Z0.07874
G0 X1.67500 Y0.51210
G1 Z-0.07087
G1 Z0.07874
G0 X1.67500 Y0.41210
G1 Z-0.07087
G1 Z0.07874
G0 X1.37500 Y0.41210
G1 Z-0.07087
G1 Z0.07874
G0 X1.37500 Y0.51210
G1 Z-0.07087
G1 Z0.07874
G0 X1.37500 Y0.61210
G1 Z-0.07087
G1 Z0.07874
G0 X1.37500 Y0.71210
G1 Z-0.07087
G1 Z0.07874
G0 X1.37500 Y0.81210
G1 Z-0.07087
G1 Z0.07874
G0 X1.37500 Y0.91210
G1 Z-0.07087
G1 Z0.07874
G0 X1.37500 Y1.01210
G1 Z-0.07087
G1 Z0.07874
G0 X1.37500 Y1.11210
G1 Z-0.07087
G1 Z0.07874
G0 X1.37500 Y1.21210
G1 Z-0.07087
G1 Z0.07874
G0 X1.67500 Y1.51210
G1 Z-0.07087
G1 Z0.07874
G0 X1.67500 Y1.61210
G1 Z-0.07087
G1 Z0.07874
G0 X1.67500 Y1.71210
G1 Z-0.07087
G1 Z0.07874
G0 X1.67500 Y1.81210
G1 Z-0.07087
G1 Z0.07874
G0 X1.67500 Y1.91210
G1 Z-0.07087
G1 Z0.07874
G0 X1.67500 Y2.01210
G1 Z-0.07087
G1 Z0.07874
G0 X1.67500 Y2.11210
G1 Z-0.07087
G1 Z0.07874
G0 X1.67500 Y2.21210
G1 Z-0.07087
G1 Z0.07874
G0 X2.57500 Y1.31210
G1 Z-0.07087
G1 Z0.07874
G0 X2.57500 Y1.21210
G1 Z-0.07087
G1 Z0.07874
G0 X2.57500 Y1.11210
G1 Z-0.07087
G1 Z0.07874
G0 X2.57500 Y1.01210
G1 Z-0.07087
G1 Z0.07874
G0 X2.57500 Y0.91210
G1 Z-0.07087
G1 Z0.07874
G0 X2.87500 Y1.01210
G1 Z-0.07087
G1 Z0.07874
G0 X2.87500 Y0.91210
G1 Z-0.07087
G1 Z0.07874
G0 X2.87500 Y0.81210
G1 Z-0.07087
G1 Z0.07874
G0 X2.87500 Y0.71210
G1 Z-0.07087
G1 Z0.07874
G0 X2.57500 Y0.81210
G1 Z-0.07087
G1 Z0.07874
G0 X2.57500 Y0.71210
G1 Z-0.07087
G1 Z0.07874
G0 X2.57500 Y0.61210
G1 Z-0.07087
G1 Z0.07874
G0 X2.57500 Y0.51210
G1 Z-0.07087
G1 Z0.07874
G0 X2.57500 Y0.41210
G1 Z-0.07087
G1 Z0.07874
G0 X2.87500 Y0.61210
G1 Z-0.07087
G1 Z0.07874
G0 X2.87500 Y0.51210
G1 Z-0.07087
G1 Z0.07874
G0 X2.87500 Y0.41210
G1 Z-0.07087
G1 Z0.07874
G0 X3.54000 Y0.25000
G1 Z-0.07087
G1 Z0.07874
G0 X3.64000 Y0.25000
G1 Z-0.07087
G1 Z0.07874
G0 X3.74000 Y0.25000
G1 Z-0.07087
G1 Z0.07874
G0 X3.84000 Y0.25000
G1 Z-0.07087
G1 Z0.07874
G0 X3.94000 Y0.25000
G1 Z-0.07087
G1 Z0.07874
G0 X4.04000 Y0.25000
G1 Z-0.07087
G1 Z0.07874
G0 X4.38000 Y0.96000
G1 Z-0.07087
G1 Z0.07874
G0 X4.38000 Y1.06000
G1 Z-0.07087
G1 Z0.07874
G0 X4.51000 Y1.31500
G1 Z-0.07087
G1 Z0.07874
G0 X4.51000 Y1.41500
G1 Z-0.07087
G1 Z0.07874
G0 X4.51000 Y1.51500
G1 Z-0.07087
G1 Z0.07874
G0 X4.51000 Y1.61500
G1 Z-0.07087
G1 Z0.07874
G0 X4.51000 Y1.71500
G1 Z-0.07087
G1 Z0.07874
G0 X4.51000 Y1.81500
G1 Z-0.07087
G1 Z0.07874
G0 X4.51000 Y1.91500
G1 Z-0.07087
G1 Z0.07874
G0 X4.51000 Y2.01500
G1 Z-0.07087
G1 Z0.07874
G0 X5.09500 Y2.22000
G1 Z-0.07087
G1 Z0.07874
G0 X5.19500 Y2.22000
G1 Z-0.07087
G1 Z0.07874
G0 X5.22000 Y2.01500
G1 Z-0.07087
G1 Z0.07874
G0 X5.22000 Y1.91500
G1 Z-0.07087
G1 Z0.07874
G0 X5.22000 Y1.81500
G1 Z-0.07087
G1 Z0.07874
G0 X5.22000 Y1.71500
G1 Z-0.07087
G1 Z0.07874
G0 X5.22000 Y1.61500
G1 Z-0.07087
G1 Z0.07874
G0 X5.22000 Y1.51500
G1 Z-0.07087
G1 Z0.07874
G0 X5.22000 Y1.41500
G1 Z-0.07087
G1 Z0.07874
G0 X5.22000 Y1.31500
G1 Z-0.07087
G1 Z0.07874

G00 Z0.39370 (Retract)
T3
M5      (Spindle stop.)
G04 P1.00000
(MSG, Change tool bit to drill size 0.04inch)
M6      (Tool change.)
M0      (Temporary machine stop.)
M3      (Spindle on clockwise.)
G0 Z0.07874
G04 P1.00000

G1 F0.78740
G0 X1.01000 Y1.07500
G1 Z-0.07087
G1 Z0.07874
G0 X1.18000 Y1.07500
G1 Z-0.07087
G1 Z0.07874
G0 X1.09500 Y1.55000
G1 Z-0.07087
G1 Z0.07874
G0 X2.98780 Y2.11120
G1 Z-0.07087
G1 Z0.07874
G0 X4.05000 Y2.70500
G1 Z-0.07087
G1 Z0.07874
G0 X4.10000 Y2.79000
G1 Z-0.07087
G1 Z0.07874
G0 X4.16000 Y2.70500
G1 Z-0.07087
G1 Z0.07874
G0 X3.06000 Y0.81000
G1 Z-0.07087
G1 Z0.07874

G00 Z0.39370 (Retract)
T4
M5      (Spindle stop.)
G04 P1.00000
(MSG, Change tool bit to drill size 0.0551inch)
M6      (Tool change.)
M0      (Temporary machine stop.)
M3      (Spindle on clockwise.)
G0 Z0.07874
G04 P1.00000

G1 F0.78740
G0 X0.63080 Y0.25160
G1 Z-0.07087
G1 Z0.07874
G0 X0.63080 Y0.44840
G1 Z-0.07087
G1 Z0.07874
G0 X0.63000 Y0.73160
G1 Z-0.07087
G1 Z0.07874
G0 X0.63000 Y0.92840
G1 Z-0.07087
G1 Z0.07874
G0 X0.63080 Y1.21160
G1 Z-0.07087
G1 Z0.07874
G0 X0.63080 Y1.40840
G1 Z-0.07087
G1 Z0.07874
G0 X0.63080 Y1.69160
G1 Z-0.07087
G1 Z0.07874
G0 X0.63080 Y1.88840
G1 Z-0.07087
G1 Z0.07874
G0 X0.63080 Y2.17160
G1 Z-0.07087
G1 Z0.07874
G0 X0.63080 Y2.36840
G1 Z-0.07087
G1 Z0.07874
G0 X0.63080 Y2.65160
G1 Z-0.07087
G1 Z0.07874
G0 X0.63080 Y2.84840
G1 Z-0.07087
G1 Z0.07874
G0 X4.72310 Y2.81000
G1 Z-0.07087
G1 Z0.07874
G0 X4.92000 Y2.81000
G1 Z-0.07087
G1 Z0.07874

G00 Z0.39370 (Retract)
T6
M5      (Spindle stop.)
G04 P1.00000
(MSG, Change tool bit to drill size 0.0984inch)
M6      (Tool change.)
M0      (Temporary machine stop.)
M3      (Spindle on clockwise.)
G0 Z0.07874
G04 P1.00000

G1 F0.78740
G0 X3.41000 Y2.50000
G1 Z-0.07087
G1 Z0.07874
G0 X4.16000 Y2.50100
G1 Z-0.07087
G1 Z0.07874
G0 X3.41000 Y0.30000
G1 Z-0.07087
G1 Z0.07874
G0 X4.16000 Y0.30000
G1 Z-0.07087
G1 Z0.07874

G00 Z0.394 ( All done -- retract )

M5      (Spindle off.)
G04 P1.000000
M9      (Coolant off.)
M2      (Program end.)

