( pcb2gcode 2.5.0 )
( Software-independent Gcode )

( This file uses 5 drill bit sizes. )
( Bit sizes: [0.0315inch] [0.0394inch] [0.04inch] [0.0551inch] [0.0984inch] )

G94       (Inches per minute feed rate.)
G21       (Units == MM.)
G91.1     (Incremental arc distance mode.)
G90       (Absolute coordinates.)
G00 S12000     (RPM spindle speed.)

G00 Z10.0000 (Retract)
T1
M5      (Spindle stop.)
(MSG, Change tool bit to drill size 0.0315inch)
M6      (Tool change.)
M0      (Temporary machine stop.)
M3      (Spindle on clockwise.)
G0 Z2.0000

G1 F20.0000
G0 X80.0100 Y66.5480
G1 Z-1.8001
G1 Z2.0000
G0 X80.0100 Y56.3880
G1 Z-1.8001
G1 Z2.0000

G00 Z10.0000 (Retract)
T2
M5      (Spindle stop.)
(MSG, Change tool bit to drill size 0.0394inch)
M6      (Tool change.)
M0      (Temporary machine stop.)
M3      (Spindle on clockwise.)
G0 Z2.0000

G1 F20.0000
G0 X34.9250 Y33.3273
G1 Z-1.8001
G1 Z2.0000
G0 X34.9250 Y35.8673
G1 Z-1.8001
G1 Z2.0000
G0 X34.9250 Y38.4073
G1 Z-1.8001
G1 Z2.0000
G0 X34.9250 Y40.9473
G1 Z-1.8001
G1 Z2.0000
G0 X34.9250 Y43.4873
G1 Z-1.8001
G1 Z2.0000
G0 X34.9250 Y46.0273
G1 Z-1.8001
G1 Z2.0000
G0 X34.9250 Y48.5673
G1 Z-1.8001
G1 Z2.0000
G0 X34.9250 Y51.1073
G1 Z-1.8001
G1 Z2.0000
G0 X34.9250 Y53.6473
G1 Z-1.8001
G1 Z2.0000
G0 X34.9250 Y56.1873
G1 Z-1.8001
G1 Z2.0000
G0 X34.7980 Y74.1680
G1 Z-1.8001
G1 Z2.0000
G0 X37.3380 Y74.1680
G1 Z-1.8001
G1 Z2.0000
G0 X39.8780 Y74.1680
G1 Z-1.8001
G1 Z2.0000
G0 X42.4180 Y74.1680
G1 Z-1.8001
G1 Z2.0000
G0 X44.9580 Y74.1680
G1 Z-1.8001
G1 Z2.0000
G0 X62.2300 Y74.1680
G1 Z-1.8001
G1 Z2.0000
G0 X64.7700 Y74.1680
G1 Z-1.8001
G1 Z2.0000
G0 X67.3100 Y74.1680
G1 Z-1.8001
G1 Z2.0000
G0 X69.8500 Y74.1680
G1 Z-1.8001
G1 Z2.0000
G0 X72.3900 Y74.1680
G1 Z-1.8001
G1 Z2.0000
G0 X74.9300 Y74.1680
G1 Z-1.8001
G1 Z2.0000
G0 X77.4700 Y74.1680
G1 Z-1.8001
G1 Z2.0000
G0 X80.0100 Y74.1680
G1 Z-1.8001
G1 Z2.0000
G0 X82.5500 Y74.1680
G1 Z-1.8001
G1 Z2.0000
G0 X91.4197 Y74.1680
G1 Z-1.8001
G1 Z2.0000
G0 X93.9597 Y74.1680
G1 Z-1.8001
G1 Z2.0000
G0 X96.4997 Y74.1680
G1 Z-1.8001
G1 Z2.0000
G0 X99.0397 Y74.1680
G1 Z-1.8001
G1 Z2.0000
G0 X102.6160 Y64.7700
G1 Z-1.8001
G1 Z2.0000
G0 X100.0760 Y64.7700
G1 Z-1.8001
G1 Z2.0000
G0 X97.5360 Y64.7700
G1 Z-1.8001
G1 Z2.0000
G0 X94.9960 Y64.7700
G1 Z-1.8001
G1 Z2.0000
G0 X92.4560 Y64.7700
G1 Z-1.8001
G1 Z2.0000
G0 X89.9160 Y64.7700
G1 Z-1.8001
G1 Z2.0000
G0 X73.0250 Y56.1873
G1 Z-1.8001
G1 Z2.0000
G0 X73.0250 Y53.6473
G1 Z-1.8001
G1 Z2.0000
G0 X73.0250 Y51.1073
G1 Z-1.8001
G1 Z2.0000
G0 X73.0250 Y48.5673
G1 Z-1.8001
G1 Z2.0000
G0 X73.0250 Y46.0273
G1 Z-1.8001
G1 Z2.0000
G0 X73.0250 Y43.4873
G1 Z-1.8001
G1 Z2.0000
G0 X73.0250 Y40.9473
G1 Z-1.8001
G1 Z2.0000
G0 X73.0250 Y38.4073
G1 Z-1.8001
G1 Z2.0000
G0 X73.0250 Y35.8673
G1 Z-1.8001
G1 Z2.0000
G0 X73.0250 Y33.3273
G1 Z-1.8001
G1 Z2.0000
G0 X73.0250 Y30.7873
G1 Z-1.8001
G1 Z2.0000
G0 X73.0250 Y28.2473
G1 Z-1.8001
G1 Z2.0000
G0 X65.4050 Y35.8673
G1 Z-1.8001
G1 Z2.0000
G0 X65.4050 Y38.4073
G1 Z-1.8001
G1 Z2.0000
G0 X65.4050 Y40.9473
G1 Z-1.8001
G1 Z2.0000
G0 X65.4050 Y43.4873
G1 Z-1.8001
G1 Z2.0000
G0 X65.4050 Y46.0273
G1 Z-1.8001
G1 Z2.0000
G0 X65.4050 Y48.5673
G1 Z-1.8001
G1 Z2.0000
G0 X65.4050 Y51.1073
G1 Z-1.8001
G1 Z2.0000
G0 X65.4050 Y53.6473
G1 Z-1.8001
G1 Z2.0000
G0 X65.4050 Y56.1873
G1 Z-1.8001
G1 Z2.0000
G0 X42.5450 Y35.8673
G1 Z-1.8001
G1 Z2.0000
G0 X42.5450 Y33.3273
G1 Z-1.8001
G1 Z2.0000
G0 X42.5450 Y30.7873
G1 Z-1.8001
G1 Z2.0000
G0 X42.5450 Y28.2473
G1 Z-1.8001
G1 Z2.0000
G0 X42.5450 Y25.7073
G1 Z-1.8001
G1 Z2.0000
G0 X42.5450 Y23.1673
G1 Z-1.8001
G1 Z2.0000
G0 X42.5450 Y20.6273
G1 Z-1.8001
G1 Z2.0000
G0 X42.5450 Y18.0873
G1 Z-1.8001
G1 Z2.0000
G0 X42.5450 Y15.5473
G1 Z-1.8001
G1 Z2.0000
G0 X42.5450 Y13.0073
G1 Z-1.8001
G1 Z2.0000
G0 X42.5450 Y10.4673
G1 Z-1.8001
G1 Z2.0000
G0 X34.9250 Y10.4673
G1 Z-1.8001
G1 Z2.0000
G0 X34.9250 Y13.0073
G1 Z-1.8001
G1 Z2.0000
G0 X34.9250 Y15.5473
G1 Z-1.8001
G1 Z2.0000
G0 X34.9250 Y18.0873
G1 Z-1.8001
G1 Z2.0000
G0 X34.9250 Y20.6273
G1 Z-1.8001
G1 Z2.0000
G0 X34.9250 Y23.1673
G1 Z-1.8001
G1 Z2.0000
G0 X34.9250 Y25.7073
G1 Z-1.8001
G1 Z2.0000
G0 X34.9250 Y28.2473
G1 Z-1.8001
G1 Z2.0000
G0 X34.9250 Y30.7873
G1 Z-1.8001
G1 Z2.0000
G0 X42.5450 Y38.4073
G1 Z-1.8001
G1 Z2.0000
G0 X42.5450 Y40.9473
G1 Z-1.8001
G1 Z2.0000
G0 X42.5450 Y43.4873
G1 Z-1.8001
G1 Z2.0000
G0 X42.5450 Y46.0273
G1 Z-1.8001
G1 Z2.0000
G0 X42.5450 Y48.5673
G1 Z-1.8001
G1 Z2.0000
G0 X42.5450 Y51.1073
G1 Z-1.8001
G1 Z2.0000
G0 X42.5450 Y53.6473
G1 Z-1.8001
G1 Z2.0000
G0 X42.5450 Y56.1873
G1 Z-1.8001
G1 Z2.0000
G0 X65.4050 Y33.3273
G1 Z-1.8001
G1 Z2.0000
G0 X65.4050 Y30.7873
G1 Z-1.8001
G1 Z2.0000
G0 X65.4050 Y28.2473
G1 Z-1.8001
G1 Z2.0000
G0 X65.4050 Y25.7073
G1 Z-1.8001
G1 Z2.0000
G0 X65.4050 Y23.1673
G1 Z-1.8001
G1 Z2.0000
G0 X73.0250 Y25.7073
G1 Z-1.8001
G1 Z2.0000
G0 X73.0250 Y23.1673
G1 Z-1.8001
G1 Z2.0000
G0 X73.0250 Y20.6273
G1 Z-1.8001
G1 Z2.0000
G0 X73.0250 Y18.0873
G1 Z-1.8001
G1 Z2.0000
G0 X65.4050 Y20.6273
G1 Z-1.8001
G1 Z2.0000
G0 X65.4050 Y18.0873
G1 Z-1.8001
G1 Z2.0000
G0 X65.4050 Y15.5473
G1 Z-1.8001
G1 Z2.0000
G0 X65.4050 Y13.0073
G1 Z-1.8001
G1 Z2.0000
G0 X65.4050 Y10.4673
G1 Z-1.8001
G1 Z2.0000
G0 X73.0250 Y15.5473
G1 Z-1.8001
G1 Z2.0000
G0 X73.0250 Y13.0073
G1 Z-1.8001
G1 Z2.0000
G0 X73.0250 Y10.4673
G1 Z-1.8001
G1 Z2.0000
G0 X89.9160 Y6.3500
G1 Z-1.8001
G1 Z2.0000
G0 X92.4560 Y6.3500
G1 Z-1.8001
G1 Z2.0000
G0 X94.9960 Y6.3500
G1 Z-1.8001
G1 Z2.0000
G0 X97.5360 Y6.3500
G1 Z-1.8001
G1 Z2.0000
G0 X100.0760 Y6.3500
G1 Z-1.8001
G1 Z2.0000
G0 X102.6160 Y6.3500
G1 Z-1.8001
G1 Z2.0000
G0 X111.2520 Y24.3840
G1 Z-1.8001
G1 Z2.0000
G0 X111.2520 Y26.9240
G1 Z-1.8001
G1 Z2.0000
G0 X114.5540 Y33.4010
G1 Z-1.8001
G1 Z2.0000
G0 X114.5540 Y35.9410
G1 Z-1.8001
G1 Z2.0000
G0 X114.5540 Y38.4810
G1 Z-1.8001
G1 Z2.0000
G0 X114.5540 Y41.0210
G1 Z-1.8001
G1 Z2.0000
G0 X114.5540 Y43.5610
G1 Z-1.8001
G1 Z2.0000
G0 X114.5540 Y46.1010
G1 Z-1.8001
G1 Z2.0000
G0 X114.5540 Y48.6410
G1 Z-1.8001
G1 Z2.0000
G0 X114.5540 Y51.1810
G1 Z-1.8001
G1 Z2.0000
G0 X129.4130 Y56.3880
G1 Z-1.8001
G1 Z2.0000
G0 X131.9530 Y56.3880
G1 Z-1.8001
G1 Z2.0000
G0 X132.5880 Y51.1810
G1 Z-1.8001
G1 Z2.0000
G0 X132.5880 Y48.6410
G1 Z-1.8001
G1 Z2.0000
G0 X132.5880 Y46.1010
G1 Z-1.8001
G1 Z2.0000
G0 X132.5880 Y43.5610
G1 Z-1.8001
G1 Z2.0000
G0 X132.5880 Y41.0210
G1 Z-1.8001
G1 Z2.0000
G0 X132.5880 Y38.4810
G1 Z-1.8001
G1 Z2.0000
G0 X132.5880 Y35.9410
G1 Z-1.8001
G1 Z2.0000
G0 X132.5880 Y33.4010
G1 Z-1.8001
G1 Z2.0000

G00 Z10.0000 (Retract)
T3
M5      (Spindle stop.)
(MSG, Change tool bit to drill size 0.04inch)
M6      (Tool change.)
M0      (Temporary machine stop.)
M3      (Spindle on clockwise.)
G0 Z2.0000

G1 F20.0000
G0 X25.6540 Y27.3050
G1 Z-1.8001
G1 Z2.0000
G0 X29.9720 Y27.3050
G1 Z-1.8001
G1 Z2.0000
G0 X27.8130 Y39.3700
G1 Z-1.8001
G1 Z2.0000
G0 X75.8901 Y53.6245
G1 Z-1.8001
G1 Z2.0000
G0 X102.8700 Y68.7070
G1 Z-1.8001
G1 Z2.0000
G0 X104.1400 Y70.8660
G1 Z-1.8001
G1 Z2.0000
G0 X105.6640 Y68.7070
G1 Z-1.8001
G1 Z2.0000
G0 X77.7240 Y20.5740
G1 Z-1.8001
G1 Z2.0000

G00 Z10.0000 (Retract)
T4
M5      (Spindle stop.)
(MSG, Change tool bit to drill size 0.0551inch)
M6      (Tool change.)
M0      (Temporary machine stop.)
M3      (Spindle on clockwise.)
G0 Z2.0000

G1 F20.0000
G0 X16.0223 Y6.3906
G1 Z-1.8001
G1 Z2.0000
G0 X16.0223 Y11.3894
G1 Z-1.8001
G1 Z2.0000
G0 X16.0020 Y18.5826
G1 Z-1.8001
G1 Z2.0000
G0 X16.0020 Y23.5814
G1 Z-1.8001
G1 Z2.0000
G0 X16.0223 Y30.7746
G1 Z-1.8001
G1 Z2.0000
G0 X16.0223 Y35.7734
G1 Z-1.8001
G1 Z2.0000
G0 X16.0223 Y42.9666
G1 Z-1.8001
G1 Z2.0000
G0 X16.0223 Y47.9654
G1 Z-1.8001
G1 Z2.0000
G0 X16.0223 Y55.1586
G1 Z-1.8001
G1 Z2.0000
G0 X16.0223 Y60.1574
G1 Z-1.8001
G1 Z2.0000
G0 X16.0223 Y67.3506
G1 Z-1.8001
G1 Z2.0000
G0 X16.0223 Y72.3494
G1 Z-1.8001
G1 Z2.0000
G0 X119.9667 Y71.3740
G1 Z-1.8001
G1 Z2.0000
G0 X124.9680 Y71.3740
G1 Z-1.8001
G1 Z2.0000

G00 Z10.0000 (Retract)
T6
M5      (Spindle stop.)
(MSG, Change tool bit to drill size 0.0984inch)
M6      (Tool change.)
M0      (Temporary machine stop.)
M3      (Spindle on clockwise.)
G0 Z2.0000

G1 F20.0000
G0 X86.6140 Y63.5000
G1 Z-1.8001
G1 Z2.0000
G0 X105.6640 Y63.5254
G1 Z-1.8001
G1 Z2.0000
G0 X86.6140 Y7.6200
G1 Z-1.8001
G1 Z2.0000
G0 X105.6640 Y7.6200
G1 Z-1.8001
G1 Z2.0000

G00 Z10.0076 ( All done -- retract )

M5      (Spindle off.)
M9      (Coolant off.)
M2      (Program end.)

