( pcb2gcode 2.5.0 )
( Software-independent Gcode )

G94 ( Inches per minute feed rate. )
G20 ( Units == INCHES. )

G90 ( Absolute coordinates. )
G00 S200 ( RPM spindle speed. )
G64 P0.00040 ( set maximum deviation from commanded toolpath )
G01 F35.43307 ( Feedrate. )


G00 Z0.39370 (Retract to tool change height)
T1
M5      (Spindle stop.)
G04 P1.00000 (Wait for spindle to stop)
(MSG, Change tool bit to mill diameter 0.00787in)
M6      (Tool change.)
M0      (Temporary machine stop.)
M3 ( Spindle on clockwise. )
G04 P1.00000 (Wait for spindle to get up to speed)
G04 P0 ( dwell for no time -- G64 should not smooth over this point )
G00 Z0.07874 ( retract )

G00 X0.00433 Y0.58168 ( rapid move to begin. )
G01 F17.71654
( Mill infeed pass 1/1 )
G01 Z-0.00500
G04 P0 ( dwell for no time -- G64 should not smooth over this point )
G01 F35.43307
G01 X0.00433 Y0.58168
G01 X0.00596 Y0.56347
G01 X0.00917 Y0.54597
G01 X0.01389 Y0.52904
G01 X0.01982 Y0.51325
G01 X0.02743 Y0.49741
G01 X0.03681 Y0.48172
G01 X0.04659 Y0.46825
G01 X0.05486 Y0.45874
G01 X0.05876 Y0.45433
G01 X0.07080 Y0.44282
G01 X0.08508 Y0.43142
G01 X0.09995 Y0.42164
G01 X0.11524 Y0.41345
G01 X0.13075 Y0.40681
G01 X0.14745 Y0.40134
G01 X0.16479 Y0.39735
G01 X0.18198 Y0.39499
G01 X0.19970 Y0.39415
G01 X0.26979 Y0.39414
G01 X0.27929 Y0.39299
G01 X0.28859 Y0.39070
G01 X0.29754 Y0.38730
G01 X0.30602 Y0.38285
G01 X0.31390 Y0.37742
G01 X0.32107 Y0.37107
G01 X0.32742 Y0.36390
G01 X0.33285 Y0.35602
G01 X0.33730 Y0.34754
G01 X0.34070 Y0.33859
G01 X0.34299 Y0.32929
G01 X0.34414 Y0.31979
G01 X0.34414 Y0.10007
G01 X0.34494 Y0.08782
G01 X0.34711 Y0.07645
G01 X0.35062 Y0.06543
G01 X0.35529 Y0.05518
G01 X0.36077 Y0.04608
G01 X0.36849 Y0.03621
G01 X0.37692 Y0.02786
G01 X0.38582 Y0.02095
G01 X0.39490 Y0.01544
G01 X0.40542 Y0.01062
G01 X0.41675 Y0.00703
G01 X0.42907 Y0.00479
G01 X0.44007 Y0.00414
G01 X5.53993 Y0.00414
G01 X5.55217 Y0.00494
G01 X5.56324 Y0.00703
G01 X5.57339 Y0.01017
G01 X5.58397 Y0.01485
G01 X5.59417 Y0.02094
G01 X5.60331 Y0.02806
G01 X5.61152 Y0.03621
G01 X5.61869 Y0.04530
G01 X5.62471 Y0.05518
G01 X5.62983 Y0.06661
G01 X5.63319 Y0.07767
G01 X5.63517 Y0.08876
G01 X5.63585 Y0.10007
G01 X5.63585 Y0.31979
G01 X5.63700 Y0.32929
G01 X5.63929 Y0.33859
G01 X5.64269 Y0.34754
G01 X5.64714 Y0.35602
G01 X5.65258 Y0.36390
G01 X5.65893 Y0.37107
G01 X5.66610 Y0.37742
G01 X5.67398 Y0.38286
G01 X5.68245 Y0.38731
G01 X5.69141 Y0.39071
G01 X5.70071 Y0.39300
G01 X5.71021 Y0.39415
G01 X5.78041 Y0.39415
G01 X5.79709 Y0.39490
G01 X5.81451 Y0.39722
G01 X5.83186 Y0.40115
G01 X5.84904 Y0.40673
G01 X5.86519 Y0.41366
G01 X5.88084 Y0.42212
G01 X5.89530 Y0.43170
G01 X5.90850 Y0.44221
G01 X5.92123 Y0.45432
G01 X5.93282 Y0.46753
G01 X5.94331 Y0.48191
G01 X5.95268 Y0.49761
G01 X5.96026 Y0.51345
G01 X5.96633 Y0.52971
G01 X5.97088 Y0.54618
G01 X5.97401 Y0.56325
G01 X5.97565 Y0.58146
G01 X5.97562 Y0.59925
G01 X5.97401 Y0.61675
G01 X5.97103 Y0.63313
G01 X5.96611 Y0.65096
G01 X5.96000 Y0.66716
G01 X5.95257 Y0.68259
G01 X5.94331 Y0.69809
G01 X5.93282 Y0.71247
G01 X5.92123 Y0.72567
G01 X5.90903 Y0.73733
G01 X5.89474 Y0.74871
G01 X5.88024 Y0.75824
G01 X5.86539 Y0.76624
G01 X5.84837 Y0.77352
G01 X5.83165 Y0.77891
G01 X5.81451 Y0.78278
G01 X5.79709 Y0.78509
G01 X5.77994 Y0.78585
G01 X5.71021 Y0.78585
G01 X5.70071 Y0.78700
G01 X5.69141 Y0.78929
G01 X5.68245 Y0.79269
G01 X5.67398 Y0.79714
G01 X5.66610 Y0.80258
G01 X5.65893 Y0.80893
G01 X5.65258 Y0.81610
G01 X5.64714 Y0.82398
G01 X5.64269 Y0.83245
G01 X5.63929 Y0.84141
G01 X5.63700 Y0.85071
G01 X5.63585 Y0.86021
G01 X5.63585 Y2.23979
G01 X5.63700 Y2.24929
G01 X5.63929 Y2.25859
G01 X5.64269 Y2.26754
G01 X5.64714 Y2.27602
G01 X5.65258 Y2.28390
G01 X5.65893 Y2.29107
G01 X5.66610 Y2.29742
G01 X5.67398 Y2.30286
G01 X5.68245 Y2.30731
G01 X5.69141 Y2.31070
G01 X5.70071 Y2.31300
G01 X5.71021 Y2.31415
G01 X5.77994 Y2.31414
G01 X5.79709 Y2.31490
G01 X5.81521 Y2.31735
G01 X5.83255 Y2.32134
G01 X5.84859 Y2.32656
G01 X5.86455 Y2.33335
G01 X5.88066 Y2.34200
G01 X5.89549 Y2.35183
G01 X5.90903 Y2.36267
G01 X5.92123 Y2.37432
G01 X5.93326 Y2.38808
G01 X5.94358 Y2.40231
G01 X5.95234 Y2.41698
G01 X5.96026 Y2.43345
G01 X5.96633 Y2.44971
G01 X5.97088 Y2.46618
G01 X5.97410 Y2.48395
G01 X5.97565 Y2.50146
G01 X5.97565 Y2.51854
G01 X5.97410 Y2.53605
G01 X5.97103 Y2.55313
G01 X5.96611 Y2.57096
G01 X5.95999 Y2.58719
G01 X5.95268 Y2.60239
G01 X5.94370 Y2.61750
G01 X5.93341 Y2.63174
G01 X5.92188 Y2.64500
G01 X5.90903 Y2.65732
G01 X5.89530 Y2.66830
G01 X5.88084 Y2.67788
G01 X5.86539 Y2.68624
G01 X5.84925 Y2.69319
G01 X5.83255 Y2.69866
G01 X5.81543 Y2.70261
G01 X5.79802 Y2.70501
G01 X5.77994 Y2.70585
G01 X5.71021 Y2.70585
G01 X5.70071 Y2.70700
G01 X5.69141 Y2.70929
G01 X5.68245 Y2.71269
G01 X5.67398 Y2.71714
G01 X5.66610 Y2.72258
G01 X5.65893 Y2.72893
G01 X5.65258 Y2.73610
G01 X5.64714 Y2.74398
G01 X5.64269 Y2.75245
G01 X5.63929 Y2.76141
G01 X5.63700 Y2.77070
G01 X5.63585 Y2.78021
G01 X5.63585 Y2.99993
G01 X5.63505 Y3.01218
G01 X5.63290 Y3.02354
G01 X5.62949 Y3.03428
G01 X5.62515 Y3.04397
G01 X5.61923 Y3.05391
G01 X5.61151 Y3.06379
G01 X5.60308 Y3.07214
G01 X5.59418 Y3.07905
G01 X5.58510 Y3.08456
G01 X5.57458 Y3.08938
G01 X5.56325 Y3.09297
G01 X5.55093 Y3.09521
G01 X5.53993 Y3.09585
G01 X0.44007 Y3.09585
G01 X0.42783 Y3.09506
G01 X0.41676 Y3.09297
G01 X0.40661 Y3.08983
G01 X0.39518 Y3.08471
G01 X0.38529 Y3.07868
G01 X0.37599 Y3.07132
G01 X0.36806 Y3.06331
G01 X0.36149 Y3.05496
G01 X0.35530 Y3.04482
G01 X0.35017 Y3.03339
G01 X0.34703 Y3.02324
G01 X0.34494 Y3.01217
G01 X0.34414 Y2.99993
G01 X0.34414 Y2.78021
G01 X0.34299 Y2.77071
G01 X0.34070 Y2.76141
G01 X0.33730 Y2.75246
G01 X0.33285 Y2.74398
G01 X0.32742 Y2.73610
G01 X0.32107 Y2.72893
G01 X0.31390 Y2.72258
G01 X0.30602 Y2.71714
G01 X0.29754 Y2.71269
G01 X0.28859 Y2.70930
G01 X0.27929 Y2.70701
G01 X0.26979 Y2.70585
G01 X0.19959 Y2.70584
G01 X0.18290 Y2.70509
G01 X0.16549 Y2.70278
G01 X0.14813 Y2.69885
G01 X0.13096 Y2.69327
G01 X0.11481 Y2.68634
G01 X0.09915 Y2.67788
G01 X0.08451 Y2.66817
G01 X0.07097 Y2.65732
G01 X0.05877 Y2.64568
G01 X0.04718 Y2.63247
G01 X0.03642 Y2.61769
G01 X0.02743 Y2.60259
G01 X0.01973 Y2.58654
G01 X0.01382 Y2.57075
G01 X0.00917 Y2.55403
G01 X0.00599 Y2.53675
G01 X0.00436 Y2.51903
G01 X0.00436 Y2.50097
G01 X0.00596 Y2.48347
G01 X0.00901 Y2.46666
G01 X0.01381 Y2.44926
G01 X0.01982 Y2.43324
G01 X0.02732 Y2.41760
G01 X0.03681 Y2.40172
G01 X0.04659 Y2.38826
G01 X0.05812 Y2.37500
G01 X0.07096 Y2.36268
G01 X0.08508 Y2.35142
G01 X0.09935 Y2.34200
G01 X0.11461 Y2.33375
G01 X0.13095 Y2.32673
G01 X0.14835 Y2.32109
G01 X0.16549 Y2.31722
G01 X0.18291 Y2.31490
G01 X0.20005 Y2.31414
G01 X0.26979 Y2.31414
G01 X0.27980 Y2.31286
G01 X0.28859 Y2.31070
G01 X0.29754 Y2.30730
G01 X0.30602 Y2.30285
G01 X0.31390 Y2.29741
G01 X0.32107 Y2.29107
G01 X0.32742 Y2.28390
G01 X0.33285 Y2.27602
G01 X0.33730 Y2.26754
G01 X0.34070 Y2.25859
G01 X0.34299 Y2.24929
G01 X0.34414 Y2.23979
G01 X0.34414 Y0.86021
G01 X0.34299 Y0.85071
G01 X0.34070 Y0.84141
G01 X0.33730 Y0.83246
G01 X0.33285 Y0.82398
G01 X0.32742 Y0.81610
G01 X0.32107 Y0.80893
G01 X0.31390 Y0.80258
G01 X0.30602 Y0.79714
G01 X0.29754 Y0.79269
G01 X0.28859 Y0.78930
G01 X0.27929 Y0.78701
G01 X0.26979 Y0.78585
G01 X0.20005 Y0.78585
G01 X0.18291 Y0.78509
G01 X0.16527 Y0.78274
G01 X0.14813 Y0.77885
G01 X0.13096 Y0.77327
G01 X0.11481 Y0.76634
G01 X0.09915 Y0.75788
G01 X0.08451 Y0.74817
G01 X0.07150 Y0.73779
G01 X0.05828 Y0.72516
G01 X0.04660 Y0.71174
G01 X0.03681 Y0.69827
G01 X0.02743 Y0.68259
G01 X0.01973 Y0.66654
G01 X0.01382 Y0.65075
G01 X0.00917 Y0.63403
G01 X0.00596 Y0.61653
G01 X0.00436 Y0.59902
G01 X0.00433 Y0.58168
G01 X0.00827 Y0.58168
G01 X0.00827 Y0.59832
G01 X0.00979 Y0.61547
G01 X0.01289 Y0.63264
G01 X0.01740 Y0.64903
G01 X0.02356 Y0.66549
G01 X0.03114 Y0.68119
G01 X0.03999 Y0.69596
G01 X0.04978 Y0.70943
G01 X0.06149 Y0.72283
G01 X0.07395 Y0.73471
G01 X0.08697 Y0.74509
G01 X0.10132 Y0.75460
G01 X0.11667 Y0.76287
G01 X0.13251 Y0.76965
G01 X0.14901 Y0.77501
G01 X0.16580 Y0.77884
G01 X0.18308 Y0.78116
G01 X0.20005 Y0.78192
G01 X0.27002 Y0.78192
G01 X0.28000 Y0.78313
G01 X0.28976 Y0.78553
G01 X0.29916 Y0.78910
G01 X0.30806 Y0.79377
G01 X0.31633 Y0.79948
G01 X0.32386 Y0.80614
G01 X0.33052 Y0.81367
G01 X0.33623 Y0.82194
G01 X0.34090 Y0.83084
G01 X0.34447 Y0.84024
G01 X0.34687 Y0.84999
G01 X0.34808 Y0.85997
G01 X0.34808 Y2.24002
G01 X0.34687 Y2.25000
G01 X0.34447 Y2.25976
G01 X0.34090 Y2.26916
G01 X0.33623 Y2.27806
G01 X0.33052 Y2.28633
G01 X0.32386 Y2.29386
G01 X0.31633 Y2.30052
G01 X0.30806 Y2.30623
G01 X0.29916 Y2.31090
G01 X0.28976 Y2.31447
G01 X0.28074 Y2.31669
G01 X0.27002 Y2.31808
G01 X0.20005 Y2.31808
G01 X0.18308 Y2.31884
G01 X0.16602 Y2.32112
G01 X0.14922 Y2.32493
G01 X0.13284 Y2.33023
G01 X0.11648 Y2.33722
G01 X0.10182 Y2.34511
G01 X0.09531 Y2.34937
G01 X0.08697 Y2.35491
G01 X0.07395 Y2.36529
G01 X0.06109 Y2.37759
G01 X0.04978 Y2.39057
G01 X0.03999 Y2.40404
G01 X0.03087 Y2.41931
G01 X0.02365 Y2.43431
G01 X0.02079 Y2.44185
G01 X0.01740 Y2.45097
G01 X0.01297 Y2.46702
G01 X0.00979 Y2.48452
G01 X0.00827 Y2.50168
G01 X0.00827 Y2.51832
G01 X0.00987 Y2.53605
G01 X0.01297 Y2.55298
G01 X0.01740 Y2.56903
G01 X0.02342 Y2.58516
G01 X0.03097 Y2.60088
G01 X0.03980 Y2.61567
G01 X0.05014 Y2.62988
G01 X0.06149 Y2.64283
G01 X0.07369 Y2.65448
G01 X0.08697 Y2.66509
G01 X0.10132 Y2.67460
G01 X0.11699 Y2.68303
G01 X0.13251 Y2.68965
G01 X0.14901 Y2.69501
G01 X0.16602 Y2.69888
G01 X0.18308 Y2.70116
G01 X0.19977 Y2.70191
G01 X0.27002 Y2.70192
G01 X0.28000 Y2.70313
G01 X0.28976 Y2.70553
G01 X0.29916 Y2.70910
G01 X0.30806 Y2.71377
G01 X0.31633 Y2.71948
G01 X0.32386 Y2.72614
G01 X0.33052 Y2.73367
G01 X0.33623 Y2.74194
G01 X0.34090 Y2.75084
G01 X0.34447 Y2.76024
G01 X0.34687 Y2.77000
G01 X0.34808 Y2.77997
G01 X0.34808 Y2.99993
G01 X0.34876 Y3.01099
G01 X0.35068 Y3.02162
G01 X0.35393 Y3.03222
G01 X0.35844 Y3.04236
G01 X0.36459 Y3.05253
G01 X0.37115 Y3.06088
G01 X0.37913 Y3.06885
G01 X0.38811 Y3.07585
G01 X0.39764 Y3.08155
G01 X0.40778 Y3.08607
G01 X0.41838 Y3.08932
G01 X0.42901 Y3.09124
G01 X0.44007 Y3.09192
G01 X5.53993 Y3.09192
G01 X5.55116 Y3.09122
G01 X5.56208 Y3.08921
G01 X5.57250 Y3.08596
G01 X5.58263 Y3.08141
G01 X5.59214 Y3.07568
G01 X5.60065 Y3.06904
G01 X5.60905 Y3.06065
G01 X5.61585 Y3.05188
G01 X5.62134 Y3.04278
G01 X5.62590 Y3.03267
G01 X5.62925 Y3.02191
G01 X5.63124 Y3.01099
G01 X5.63192 Y2.99993
G01 X5.63192 Y2.77997
G01 X5.63313 Y2.77000
G01 X5.63553 Y2.76024
G01 X5.63910 Y2.75084
G01 X5.64377 Y2.74194
G01 X5.64948 Y2.73367
G01 X5.65614 Y2.72614
G01 X5.66367 Y2.71948
G01 X5.67194 Y2.71377
G01 X5.68084 Y2.70910
G01 X5.69024 Y2.70553
G01 X5.70000 Y2.70313
G01 X5.70997 Y2.70192
G01 X5.78012 Y2.70191
G01 X5.79749 Y2.70111
G01 X5.81420 Y2.69884
G01 X5.83133 Y2.69491
G01 X5.84770 Y2.68957
G01 X5.86321 Y2.68293
G01 X5.87867 Y2.67460
G01 X5.89285 Y2.66522
G01 X5.90604 Y2.65471
G01 X5.91866 Y2.64267
G01 X5.93000 Y2.62970
G01 X5.94013 Y2.61578
G01 X5.94913 Y2.60068
G01 X5.95658 Y2.58516
G01 X5.96254 Y2.56924
G01 X5.96708 Y2.55277
G01 X5.97013 Y2.53604
G01 X5.97172 Y2.51854
G01 X5.97170 Y2.50110
G01 X5.97013 Y2.48395
G01 X5.96716 Y2.46757
G01 X5.96243 Y2.45042
G01 X5.95644 Y2.43451
G01 X5.94913 Y2.41931
G01 X5.94000 Y2.40404
G01 X5.92986 Y2.39012
G01 X5.91875 Y2.37743
G01 X5.90605 Y2.36529
G01 X5.89275 Y2.35470
G01 X5.87849 Y2.34529
G01 X5.86332 Y2.33712
G01 X5.84770 Y2.33043
G01 X5.83099 Y2.32499
G01 X5.81433 Y2.32119
G01 X5.79692 Y2.31884
G01 X5.77994 Y2.31808
G01 X5.70997 Y2.31808
G01 X5.70000 Y2.31687
G01 X5.69361 Y2.31530
G01 X5.69024 Y2.31447
G01 X5.68084 Y2.31090
G01 X5.67194 Y2.30623
G01 X5.66367 Y2.30052
G01 X5.65614 Y2.29386
G01 X5.64948 Y2.28633
G01 X5.64377 Y2.27806
G01 X5.63910 Y2.26916
G01 X5.63553 Y2.25976
G01 X5.63313 Y2.25000
G01 X5.63192 Y2.24002
G01 X5.63192 Y0.85997
G01 X5.63313 Y0.84999
G01 X5.63553 Y0.84024
G01 X5.63910 Y0.83084
G01 X5.64377 Y0.82194
G01 X5.64948 Y0.81367
G01 X5.65614 Y0.80614
G01 X5.66367 Y0.79948
G01 X5.67194 Y0.79377
G01 X5.68084 Y0.78910
G01 X5.69024 Y0.78553
G01 X5.70000 Y0.78313
G01 X5.70997 Y0.78192
G01 X5.77994 Y0.78192
G01 X5.79692 Y0.78116
G01 X5.81398 Y0.77887
G01 X5.83078 Y0.77507
G01 X5.84716 Y0.76977
G01 X5.86352 Y0.76278
G01 X5.87867 Y0.75460
G01 X5.89285 Y0.74522
G01 X5.90604 Y0.73471
G01 X5.91851 Y0.72283
G01 X5.93008 Y0.70960
G01 X5.94012 Y0.69578
G01 X5.94886 Y0.68119
G01 X5.95645 Y0.66547
G01 X5.96254 Y0.64924
G01 X5.96716 Y0.63242
G01 X5.97013 Y0.61604
G01 X5.97170 Y0.59890
G01 X5.97172 Y0.58146
G01 X5.97013 Y0.56395
G01 X5.96708 Y0.54723
G01 X5.96243 Y0.53042
G01 X5.95644 Y0.51451
G01 X5.94913 Y0.49931
G01 X5.94012 Y0.48422
G01 X5.92986 Y0.47012
G01 X5.91851 Y0.45717
G01 X5.90631 Y0.44552
G01 X5.89257 Y0.43457
G01 X5.87837 Y0.42522
G01 X5.86301 Y0.41697
G01 X5.84749 Y0.41035
G01 X5.83133 Y0.40508
G01 X5.81433 Y0.40119
G01 X5.79692 Y0.39884
G01 X5.78023 Y0.39809
G01 X5.70997 Y0.39808
G01 X5.70000 Y0.39687
G01 X5.69024 Y0.39447
G01 X5.68084 Y0.39090
G01 X5.67194 Y0.38623
G01 X5.66367 Y0.38052
G01 X5.65614 Y0.37385
G01 X5.64948 Y0.36633
G01 X5.64377 Y0.35806
G01 X5.63910 Y0.34916
G01 X5.63553 Y0.33976
G01 X5.63313 Y0.33000
G01 X5.63192 Y0.32002
G01 X5.63192 Y0.10007
G01 X5.63124 Y0.08901
G01 X5.62932 Y0.07838
G01 X5.62607 Y0.06778
G01 X5.62134 Y0.05722
G01 X5.61559 Y0.04772
G01 X5.60873 Y0.03899
G01 X5.60088 Y0.03115
G01 X5.59213 Y0.02431
G01 X5.58236 Y0.01844
G01 X5.57222 Y0.01393
G01 X5.56207 Y0.01079
G01 X5.55146 Y0.00881
G01 X5.53993 Y0.00808
G01 X0.44007 Y0.00808
G01 X0.42930 Y0.00872
G01 X0.41792 Y0.01079
G01 X0.40704 Y0.01421
G01 X0.39694 Y0.01881
G01 X0.38786 Y0.02432
G01 X0.37935 Y0.03095
G01 X0.37095 Y0.03935
G01 X0.36414 Y0.04811
G01 X0.35845 Y0.05763
G01 X0.35421 Y0.06705
G01 X0.35086 Y0.07762
G01 X0.34881 Y0.08853
G01 X0.34808 Y0.10007
G01 X0.34808 Y0.32002
G01 X0.34687 Y0.33000
G01 X0.34447 Y0.33976
G01 X0.34090 Y0.34916
G01 X0.33623 Y0.35806
G01 X0.33052 Y0.36633
G01 X0.32386 Y0.37385
G01 X0.31633 Y0.38052
G01 X0.30806 Y0.38623
G01 X0.29916 Y0.39090
G01 X0.28976 Y0.39447
G01 X0.28000 Y0.39687
G01 X0.27002 Y0.39808
G01 X0.19987 Y0.39809
G01 X0.18251 Y0.39889
G01 X0.16567 Y0.40119
G01 X0.14901 Y0.40499
G01 X0.13230 Y0.41043
G01 X0.11679 Y0.41707
G01 X0.10182 Y0.42511
G01 X0.08725 Y0.43470
G01 X0.07352 Y0.44567
G01 X0.06149 Y0.45717
G01 X0.05782 Y0.46132
G01 X0.04978 Y0.47057
G01 X0.03999 Y0.48404
G01 X0.03097 Y0.49912
G01 X0.02365 Y0.51431
G01 X0.01757 Y0.53042
G01 X0.01297 Y0.54702
G01 X0.00984 Y0.56417
G01 X0.00827 Y0.58168
G04 P0 ( dwell for no time -- G64 should not smooth over this point )
G00 Z0.07874 ( retract )

G00 X0.04230 Y0.59000 ( rapid move to begin. )
G01 F17.71654
( Mill infeed pass 1/1 )
G01 Z-0.00500
G04 P0 ( dwell for no time -- G64 should not smooth over this point )
G01 F35.43307
G01 X0.04230 Y0.59000
G01 X0.04306 Y0.60546
G01 X0.04534 Y0.62076
G01 X0.04909 Y0.63578
G01 X0.05431 Y0.65034
G01 X0.06092 Y0.66434
G01 X0.06888 Y0.67761
G01 X0.07810 Y0.69004
G01 X0.08849 Y0.70151
G01 X0.09996 Y0.71190
G01 X0.11239 Y0.72112
G01 X0.12566 Y0.72907
G01 X0.13965 Y0.73569
G01 X0.15422 Y0.74090
G01 X0.16923 Y0.74466
G01 X0.18454 Y0.74694
G01 X0.20000 Y0.74769
G01 X0.21546 Y0.74693
G01 X0.23076 Y0.74466
G01 X0.24577 Y0.74090
G01 X0.26034 Y0.73569
G01 X0.27433 Y0.72907
G01 X0.28761 Y0.72111
G01 X0.30004 Y0.71189
G01 X0.31150 Y0.70150
G01 X0.32189 Y0.69004
G01 X0.33111 Y0.67761
G01 X0.33907 Y0.66433
G01 X0.34569 Y0.65034
G01 X0.35090 Y0.63577
G01 X0.35466 Y0.62076
G01 X0.35693 Y0.60546
G01 X0.35769 Y0.59000
G01 X0.35693 Y0.57454
G01 X0.35466 Y0.55924
G01 X0.35090 Y0.54422
G01 X0.34569 Y0.52965
G01 X0.33907 Y0.51567
G01 X0.33111 Y0.50239
G01 X0.32189 Y0.48996
G01 X0.31150 Y0.47850
G01 X0.30004 Y0.46810
G01 X0.28761 Y0.45888
G01 X0.27433 Y0.45093
G01 X0.26034 Y0.44431
G01 X0.24577 Y0.43910
G01 X0.23076 Y0.43534
G01 X0.21546 Y0.43307
G01 X0.20000 Y0.43231
G01 X0.18454 Y0.43306
G01 X0.16923 Y0.43533
G01 X0.15422 Y0.43910
G01 X0.13965 Y0.44431
G01 X0.12566 Y0.45093
G01 X0.11239 Y0.45888
G01 X0.09996 Y0.46810
G01 X0.08849 Y0.47849
G01 X0.07810 Y0.48996
G01 X0.06888 Y0.50239
G01 X0.06092 Y0.51566
G01 X0.05431 Y0.52965
G01 X0.04909 Y0.54422
G01 X0.04534 Y0.55923
G01 X0.04306 Y0.57454
G01 X0.04230 Y0.59000
G01 X0.03837 Y0.59000
G01 X0.03914 Y0.57416
G01 X0.04147 Y0.55847
G01 X0.04533 Y0.54308
G01 X0.05067 Y0.52815
G01 X0.05745 Y0.51381
G01 X0.06561 Y0.50020
G01 X0.07506 Y0.48746
G01 X0.08571 Y0.47571
G01 X0.09746 Y0.46506
G01 X0.11020 Y0.45561
G01 X0.12381 Y0.44745
G01 X0.13814 Y0.44067
G01 X0.15308 Y0.43533
G01 X0.16847 Y0.43147
G01 X0.18416 Y0.42914
G01 X0.20000 Y0.42837
G01 X0.21584 Y0.42914
G01 X0.23153 Y0.43147
G01 X0.24692 Y0.43533
G01 X0.26185 Y0.44067
G01 X0.27619 Y0.44745
G01 X0.28980 Y0.45561
G01 X0.30254 Y0.46506
G01 X0.31429 Y0.47571
G01 X0.32494 Y0.48746
G01 X0.33439 Y0.50020
G01 X0.34254 Y0.51381
G01 X0.34933 Y0.52814
G01 X0.35467 Y0.54308
G01 X0.35852 Y0.55847
G01 X0.36085 Y0.57416
G01 X0.36163 Y0.59000
G01 X0.36085 Y0.60584
G01 X0.35852 Y0.62153
G01 X0.35467 Y0.63692
G01 X0.34933 Y0.65185
G01 X0.34254 Y0.66619
G01 X0.33439 Y0.67980
G01 X0.32494 Y0.69254
G01 X0.31429 Y0.70429
G01 X0.30254 Y0.71494
G01 X0.28980 Y0.72439
G01 X0.27619 Y0.73255
G01 X0.26185 Y0.73933
G01 X0.24692 Y0.74467
G01 X0.23153 Y0.74852
G01 X0.21584 Y0.75085
G01 X0.20000 Y0.75163
G01 X0.18416 Y0.75085
G01 X0.16847 Y0.74852
G01 X0.15308 Y0.74467
G01 X0.13814 Y0.73933
G01 X0.12381 Y0.73255
G01 X0.11020 Y0.72439
G01 X0.09746 Y0.71494
G01 X0.08571 Y0.70429
G01 X0.07506 Y0.69254
G01 X0.06561 Y0.67980
G01 X0.05745 Y0.66619
G01 X0.05067 Y0.65185
G01 X0.04533 Y0.63692
G01 X0.04147 Y0.62153
G01 X0.03914 Y0.60584
G01 X0.03837 Y0.59000
G01 X0.05041 Y0.58961
G01 X0.05336 Y0.56044
G01 X0.06195 Y0.53240
G01 X0.07561 Y0.50688
G01 X0.09395 Y0.48450
G01 X0.11721 Y0.46541
G01 X0.14311 Y0.45165
G01 X0.17120 Y0.44321
G01 X0.19961 Y0.44041
G01 X0.22880 Y0.44321
G01 X0.25760 Y0.45195
G01 X0.28279 Y0.46541
G01 X0.30550 Y0.48395
G01 X0.32439 Y0.50688
G01 X0.33835 Y0.53311
G01 X0.34673 Y0.56081
G01 X0.34959 Y0.58961
G01 X0.34673 Y0.61919
G01 X0.33805 Y0.64760
G01 X0.32439 Y0.67312
G01 X0.30605 Y0.69550
G01 X0.28279 Y0.71459
G01 X0.25689 Y0.72835
G01 X0.22880 Y0.73679
G01 X0.20039 Y0.73959
G01 X0.17120 Y0.73679
G01 X0.14240 Y0.72805
G01 X0.11721 Y0.71459
G01 X0.09450 Y0.69605
G01 X0.07561 Y0.67312
G01 X0.06165 Y0.64689
G01 X0.05321 Y0.61880
G01 X0.05041 Y0.58961
G01 X0.04649 Y0.58923
G01 X0.04941 Y0.56005
G01 X0.05788 Y0.53197
G01 X0.05847 Y0.53054
G01 X0.07233 Y0.50470
G01 X0.09091 Y0.48200
G01 X0.09200 Y0.48091
G01 X0.11407 Y0.46279
G01 X0.11536 Y0.46194
G01 X0.14054 Y0.44847
G01 X0.14197 Y0.44788
G01 X0.16930 Y0.43959
G01 X0.17081 Y0.43929
G01 X0.20000 Y0.43646
G01 X0.22919 Y0.43929
G01 X0.23070 Y0.43959
G01 X0.25876 Y0.44814
G01 X0.28464 Y0.46194
G01 X0.28592 Y0.46279
G01 X0.30857 Y0.48143
G01 X0.32721 Y0.50408
G01 X0.32806 Y0.50536
G01 X0.34153 Y0.53054
G01 X0.34212 Y0.53197
G01 X0.35041 Y0.55929
G01 X0.35071 Y0.56081
G01 X0.35351 Y0.58923
G01 X0.35351 Y0.59077
G01 X0.35059 Y0.61995
G01 X0.34212 Y0.64803
G01 X0.34153 Y0.64946
G01 X0.32806 Y0.67464
G01 X0.32721 Y0.67592
G01 X0.30909 Y0.69800
G01 X0.30800 Y0.69909
G01 X0.28592 Y0.71721
G01 X0.28464 Y0.71806
G01 X0.25876 Y0.73186
G01 X0.23070 Y0.74040
G01 X0.22919 Y0.74071
G01 X0.20000 Y0.74354
G01 X0.17081 Y0.74071
G01 X0.16930 Y0.74040
G01 X0.14197 Y0.73211
G01 X0.14054 Y0.73152
G01 X0.11536 Y0.71806
G01 X0.11407 Y0.71721
G01 X0.09200 Y0.69909
G01 X0.09091 Y0.69800
G01 X0.07279 Y0.67592
G01 X0.07194 Y0.67464
G01 X0.05847 Y0.64946
G01 X0.05788 Y0.64803
G01 X0.04941 Y0.61995
G01 X0.04649 Y0.59077
G01 X0.04649 Y0.58923
G04 P0 ( dwell for no time -- G64 should not smooth over this point )
G00 Z0.07874 ( retract )

G00 X0.56288 Y0.73157 ( rapid move to begin. )
G01 F17.71654
( Mill infeed pass 1/1 )
G01 Z-0.00500
G04 P0 ( dwell for no time -- G64 should not smooth over this point )
G01 F35.43307
G01 X0.56288 Y0.73157
G01 X0.56355 Y0.74113
G01 X0.56559 Y0.75049
G01 X0.56893 Y0.75946
G01 X0.57353 Y0.76787
G01 X0.57927 Y0.77553
G01 X0.58604 Y0.78231
G01 X0.59371 Y0.78805
G01 X0.60211 Y0.79264
G01 X0.61109 Y0.79599
G01 X0.62045 Y0.79802
G01 X0.63000 Y0.79870
G01 X0.63955 Y0.79802
G01 X0.64891 Y0.79599
G01 X0.65788 Y0.79263
G01 X0.66629 Y0.78804
G01 X0.67395 Y0.78230
G01 X0.68073 Y0.77553
G01 X0.68646 Y0.76786
G01 X0.69105 Y0.75946
G01 X0.69441 Y0.75049
G01 X0.69645 Y0.74113
G01 X0.69712 Y0.73157
G01 X0.69645 Y0.72202
G01 X0.69441 Y0.71266
G01 X0.69105 Y0.70369
G01 X0.68646 Y0.69529
G01 X0.68073 Y0.68762
G01 X0.67395 Y0.68085
G01 X0.66629 Y0.67511
G01 X0.65788 Y0.67052
G01 X0.64891 Y0.66716
G01 X0.63955 Y0.66513
G01 X0.63000 Y0.66444
G01 X0.62045 Y0.66513
G01 X0.61109 Y0.66716
G01 X0.60211 Y0.67051
G01 X0.59371 Y0.67510
G01 X0.58604 Y0.68084
G01 X0.57927 Y0.68761
G01 X0.57353 Y0.69528
G01 X0.56893 Y0.70369
G01 X0.56559 Y0.71266
G01 X0.56355 Y0.72202
G01 X0.56288 Y0.73157
G01 X0.55893 Y0.73157
G01 X0.55966 Y0.72146
G01 X0.56181 Y0.71155
G01 X0.56535 Y0.70205
G01 X0.57021 Y0.69315
G01 X0.57629 Y0.68503
G01 X0.58346 Y0.67787
G01 X0.59158 Y0.67179
G01 X0.60048 Y0.66693
G01 X0.60998 Y0.66339
G01 X0.61989 Y0.66123
G01 X0.63000 Y0.66051
G01 X0.64011 Y0.66123
G01 X0.65002 Y0.66339
G01 X0.65952 Y0.66693
G01 X0.66842 Y0.67179
G01 X0.67654 Y0.67787
G01 X0.68371 Y0.68503
G01 X0.68978 Y0.69315
G01 X0.69464 Y0.70205
G01 X0.69819 Y0.71155
G01 X0.70034 Y0.72146
G01 X0.70107 Y0.73157
G01 X0.70034 Y0.74169
G01 X0.69819 Y0.75160
G01 X0.69464 Y0.76110
G01 X0.68978 Y0.76999
G01 X0.68371 Y0.77811
G01 X0.67654 Y0.78528
G01 X0.66842 Y0.79136
G01 X0.65952 Y0.79622
G01 X0.65002 Y0.79976
G01 X0.64011 Y0.80192
G01 X0.63000 Y0.80264
G01 X0.61989 Y0.80192
G01 X0.60998 Y0.79976
G01 X0.60048 Y0.79622
G01 X0.59158 Y0.79136
G01 X0.58346 Y0.78528
G01 X0.57629 Y0.77811
G01 X0.57021 Y0.76999
G01 X0.56535 Y0.76110
G01 X0.56181 Y0.75160
G01 X0.55966 Y0.74169
G01 X0.55893 Y0.73157
G01 X0.57096 Y0.73119
G01 X0.57202 Y0.72044
G01 X0.57531 Y0.70934
G01 X0.58090 Y0.69876
G01 X0.58853 Y0.68956
G01 X0.59719 Y0.68247
G01 X0.60705 Y0.67718
G01 X0.61886 Y0.67360
G01 X0.63038 Y0.67254
G01 X0.64114 Y0.67360
G01 X0.65224 Y0.67688
G01 X0.66248 Y0.68227
G01 X0.67176 Y0.68982
G01 X0.67930 Y0.69910
G01 X0.68456 Y0.70898
G01 X0.68783 Y0.71968
G01 X0.68904 Y0.73196
G01 X0.68798 Y0.74271
G01 X0.68469 Y0.75381
G01 X0.67910 Y0.76438
G01 X0.67176 Y0.77333
G01 X0.66312 Y0.78045
G01 X0.65260 Y0.78613
G01 X0.64114 Y0.78955
G01 X0.63038 Y0.79061
G01 X0.61886 Y0.78955
G01 X0.60740 Y0.78613
G01 X0.59688 Y0.78045
G01 X0.58824 Y0.77333
G01 X0.58113 Y0.76469
G01 X0.57544 Y0.75417
G01 X0.57202 Y0.74271
G01 X0.57096 Y0.73119
G01 X0.56705 Y0.73080
G01 X0.56810 Y0.72005
G01 X0.56841 Y0.71854
G01 X0.57154 Y0.70820
G01 X0.57213 Y0.70677
G01 X0.57723 Y0.69724
G01 X0.57808 Y0.69596
G01 X0.58494 Y0.68761
G01 X0.58603 Y0.68651
G01 X0.59438 Y0.67966
G01 X0.59567 Y0.67880
G01 X0.60520 Y0.67371
G01 X0.60662 Y0.67312
G01 X0.61696 Y0.66998
G01 X0.61847 Y0.66968
G01 X0.63000 Y0.66858
G01 X0.64152 Y0.66968
G01 X0.64304 Y0.66998
G01 X0.65338 Y0.67312
G01 X0.65480 Y0.67371
G01 X0.66433 Y0.67880
G01 X0.66562 Y0.67966
G01 X0.67397 Y0.68651
G01 X0.67506 Y0.68761
G01 X0.68192 Y0.69596
G01 X0.68277 Y0.69724
G01 X0.68787 Y0.70677
G01 X0.68846 Y0.70820
G01 X0.69159 Y0.71854
G01 X0.69190 Y0.72005
G01 X0.69299 Y0.73157
G01 X0.69190 Y0.74310
G01 X0.69159 Y0.74461
G01 X0.68846 Y0.75495
G01 X0.68787 Y0.75638
G01 X0.68277 Y0.76591
G01 X0.68192 Y0.76719
G01 X0.67506 Y0.77554
G01 X0.67397 Y0.77663
G01 X0.66562 Y0.78349
G01 X0.66433 Y0.78435
G01 X0.65480 Y0.78944
G01 X0.65338 Y0.79003
G01 X0.64304 Y0.79317
G01 X0.64152 Y0.79347
G01 X0.63077 Y0.79453
G01 X0.62923 Y0.79453
G01 X0.61847 Y0.79347
G01 X0.61696 Y0.79317
G01 X0.60662 Y0.79003
G01 X0.60520 Y0.78944
G01 X0.59500 Y0.78395
G01 X0.58603 Y0.77663
G01 X0.58494 Y0.77554
G01 X0.57808 Y0.76719
G01 X0.57723 Y0.76591
G01 X0.57213 Y0.75638
G01 X0.57154 Y0.75495
G01 X0.56841 Y0.74461
G01 X0.56810 Y0.74310
G01 X0.56705 Y0.73235
G01 X0.56705 Y0.73080
G04 P0 ( dwell for no time -- G64 should not smooth over this point )
G00 Z0.07874 ( retract )

G00 X0.65466 Y0.51142 ( rapid move to begin. )
G01 F17.71654
( Mill infeed pass 1/1 )
G01 Z-0.00500
G04 P0 ( dwell for no time -- G64 should not smooth over this point )
G01 F35.43307
G01 X0.65466 Y0.51142
G01 X0.68590 Y0.51142
G01 X0.68744 Y0.51126
G01 X0.68892 Y0.51082
G01 X0.69028 Y0.51009
G01 X0.69147 Y0.50911
G01 X0.69245 Y0.50792
G01 X0.69318 Y0.50656
G01 X0.69363 Y0.50508
G01 X0.69378 Y0.50354
G01 X0.69378 Y0.47230
G01 X0.69263 Y0.47114
G01 X0.69378 Y0.47230
G01 X0.69771 Y0.47230
G01 X0.69887 Y0.47114
G01 X0.69771 Y0.47230
G01 X0.69776 Y0.50501
G01 X0.69761 Y0.50594
G01 X0.69643 Y0.50929
G01 X0.69437 Y0.51201
G01 X0.69165 Y0.51407
G01 X0.68831 Y0.51525
G01 X0.68737 Y0.51540
G01 X0.65466 Y0.51535
G01 X0.65351 Y0.51651
G01 X0.65466 Y0.51535
G01 X0.65466 Y0.51142
G01 X0.65072 Y0.50748
G01 X0.65072 Y0.51929
G01 X0.68758 Y0.51929
G01 X0.68922 Y0.51911
G01 X0.69353 Y0.51751
G01 X0.69715 Y0.51479
G01 X0.69987 Y0.51117
G01 X0.70148 Y0.50686
G01 X0.70165 Y0.50521
G01 X0.70165 Y0.46836
G01 X0.68984 Y0.46836
G01 X0.68984 Y0.50354
G01 X0.68977 Y0.50431
G01 X0.68918 Y0.50573
G01 X0.68809 Y0.50682
G01 X0.68741 Y0.50718
G01 X0.68590 Y0.50748
G01 X0.65072 Y0.50748
G04 P0 ( dwell for no time -- G64 should not smooth over this point )
G00 Z0.07874 ( retract )

G00 X0.56386 Y0.47230 ( rapid move to begin. )
G01 F17.71654
( Mill infeed pass 1/1 )
G01 Z-0.00500
G04 P0 ( dwell for no time -- G64 should not smooth over this point )
G01 F35.43307
G01 X0.56386 Y0.47230
G01 X0.56780 Y0.47230
G01 X0.56895 Y0.47114
G01 X0.56780 Y0.47230
G01 X0.56780 Y0.50354
G01 X0.56795 Y0.50508
G01 X0.56839 Y0.50656
G01 X0.56912 Y0.50792
G01 X0.57010 Y0.50911
G01 X0.57129 Y0.51009
G01 X0.57266 Y0.51082
G01 X0.57413 Y0.51126
G01 X0.57567 Y0.51142
G01 X0.60691 Y0.51142
G01 X0.60807 Y0.51026
G01 X0.60691 Y0.51142
G01 X0.60691 Y0.51535
G01 X0.60807 Y0.51651
G01 X0.60691 Y0.51535
G01 X0.57325 Y0.51531
G01 X0.56993 Y0.51405
G01 X0.56720 Y0.51201
G01 X0.56516 Y0.50928
G01 X0.56390 Y0.50596
G01 X0.56386 Y0.47230
G01 X0.55992 Y0.46836
G01 X0.55992 Y0.50521
G01 X0.56010 Y0.50686
G01 X0.56171 Y0.51117
G01 X0.56442 Y0.51479
G01 X0.56804 Y0.51751
G01 X0.57235 Y0.51911
G01 X0.57400 Y0.51929
G01 X0.61085 Y0.51929
G01 X0.61085 Y0.50748
G01 X0.57567 Y0.50748
G01 X0.57416 Y0.50718
G01 X0.57288 Y0.50633
G01 X0.57203 Y0.50505
G01 X0.57173 Y0.50354
G01 X0.57173 Y0.46836
G01 X0.55992 Y0.46836
G04 P0 ( dwell for no time -- G64 should not smooth over this point )
G00 Z0.07874 ( retract )

G00 X0.56386 Y0.39184 ( rapid move to begin. )
G01 F17.71654
( Mill infeed pass 1/1 )
G01 Z-0.00500
G04 P0 ( dwell for no time -- G64 should not smooth over this point )
G01 F35.43307
G01 X0.56386 Y0.39184
G01 X0.56386 Y0.42455
G01 X0.56270 Y0.42571
G01 X0.56386 Y0.42455
G01 X0.56780 Y0.42455
G01 X0.56895 Y0.42570
G01 X0.56780 Y0.42455
G01 X0.56780 Y0.39331
G01 X0.56795 Y0.39177
G01 X0.56839 Y0.39029
G01 X0.56912 Y0.38893
G01 X0.57010 Y0.38774
G01 X0.57129 Y0.38676
G01 X0.57266 Y0.38603
G01 X0.57413 Y0.38558
G01 X0.57567 Y0.38543
G01 X0.60691 Y0.38543
G01 X0.60807 Y0.38659
G01 X0.60691 Y0.38543
G01 X0.60691 Y0.38150
G01 X0.60807 Y0.38033
G01 X0.60691 Y0.38150
G01 X0.57325 Y0.38154
G01 X0.56993 Y0.38280
G01 X0.56720 Y0.38484
G01 X0.56516 Y0.38757
G01 X0.56390 Y0.39089
G01 X0.56386 Y0.39184
G01 X0.55992 Y0.39163
G01 X0.55992 Y0.42849
G01 X0.57173 Y0.42849
G01 X0.57173 Y0.39331
G01 X0.57181 Y0.39254
G01 X0.57239 Y0.39112
G01 X0.57348 Y0.39003
G01 X0.57416 Y0.38967
G01 X0.57567 Y0.38937
G01 X0.61085 Y0.38937
G01 X0.61085 Y0.37756
G01 X0.57400 Y0.37756
G01 X0.57235 Y0.37773
G01 X0.56804 Y0.37934
G01 X0.56442 Y0.38206
G01 X0.56171 Y0.38568
G01 X0.56010 Y0.38999
G01 X0.55992 Y0.39163
G04 P0 ( dwell for no time -- G64 should not smooth over this point )
G00 Z0.07874 ( retract )

G00 X0.56783 Y0.25080 ( rapid move to begin. )
G01 F17.71654
( Mill infeed pass 1/1 )
G01 Z-0.00500
G04 P0 ( dwell for no time -- G64 should not smooth over this point )
G01 F35.43307
G01 X0.56783 Y0.25080
G01 X0.56783 Y0.25235
G01 X0.56898 Y0.26372
G01 X0.57233 Y0.27495
G01 X0.57292 Y0.27638
G01 X0.57841 Y0.28657
G01 X0.58573 Y0.29554
G01 X0.58682 Y0.29663
G01 X0.59579 Y0.30395
G01 X0.60598 Y0.30944
G01 X0.60741 Y0.31003
G01 X0.61775 Y0.31317
G01 X0.61926 Y0.31347
G01 X0.63001 Y0.31453
G01 X0.63156 Y0.31453
G01 X0.64231 Y0.31347
G01 X0.64383 Y0.31317
G01 X0.65416 Y0.31003
G01 X0.65559 Y0.30944
G01 X0.66512 Y0.30435
G01 X0.66640 Y0.30349
G01 X0.67476 Y0.29663
G01 X0.67585 Y0.29554
G01 X0.68270 Y0.28719
G01 X0.68356 Y0.28591
G01 X0.68865 Y0.27638
G01 X0.68924 Y0.27495
G01 X0.69251 Y0.26410
G01 X0.69378 Y0.25157
G01 X0.69268 Y0.24005
G01 X0.69238 Y0.23854
G01 X0.68924 Y0.22820
G01 X0.68865 Y0.22677
G01 X0.68316 Y0.21658
G01 X0.67585 Y0.20761
G01 X0.67476 Y0.20651
G01 X0.66640 Y0.19966
G01 X0.66512 Y0.19880
G01 X0.65559 Y0.19371
G01 X0.65416 Y0.19312
G01 X0.64383 Y0.18998
G01 X0.64231 Y0.18968
G01 X0.63079 Y0.18858
G01 X0.61926 Y0.18968
G01 X0.61775 Y0.18998
G01 X0.60741 Y0.19312
G01 X0.60598 Y0.19371
G01 X0.59645 Y0.19880
G01 X0.59517 Y0.19966
G01 X0.58682 Y0.20651
G01 X0.58573 Y0.20761
G01 X0.57841 Y0.21658
G01 X0.57292 Y0.22677
G01 X0.57233 Y0.22820
G01 X0.56905 Y0.23909
G01 X0.56783 Y0.25080
G01 X0.57175 Y0.25119
G01 X0.57287 Y0.26310
G01 X0.57623 Y0.27417
G01 X0.58191 Y0.28469
G01 X0.58903 Y0.29333
G01 X0.59767 Y0.30045
G01 X0.60784 Y0.30597
G01 X0.61965 Y0.30955
G01 X0.63040 Y0.31061
G01 X0.64193 Y0.30955
G01 X0.65302 Y0.30626
G01 X0.66360 Y0.30068
G01 X0.67280 Y0.29305
G01 X0.68009 Y0.28405
G01 X0.68518 Y0.27452
G01 X0.68876 Y0.26271
G01 X0.68984 Y0.25157
G01 X0.68876 Y0.24044
G01 X0.68518 Y0.22863
G01 X0.67989 Y0.21876
G01 X0.67280 Y0.21010
G01 X0.66326 Y0.20227
G01 X0.65302 Y0.19688
G01 X0.64193 Y0.19360
G01 X0.63117 Y0.19254
G01 X0.61965 Y0.19360
G01 X0.60784 Y0.19718
G01 X0.59798 Y0.20247
G01 X0.58932 Y0.20956
G01 X0.58168 Y0.21876
G01 X0.57610 Y0.22934
G01 X0.57287 Y0.24005
G01 X0.57175 Y0.25119
G01 X0.55972 Y0.25157
G01 X0.56044 Y0.26169
G01 X0.56260 Y0.27159
G01 X0.56614 Y0.28110
G01 X0.57100 Y0.29000
G01 X0.57708 Y0.29811
G01 X0.58425 Y0.30528
G01 X0.59236 Y0.31136
G01 X0.60126 Y0.31622
G01 X0.61077 Y0.31976
G01 X0.62067 Y0.32192
G01 X0.63079 Y0.32264
G01 X0.64090 Y0.32192
G01 X0.65081 Y0.31976
G01 X0.65862 Y0.31685
G01 X0.66031 Y0.31622
G01 X0.66921 Y0.31136
G01 X0.67733 Y0.30528
G01 X0.68449 Y0.29811
G01 X0.69057 Y0.29000
G01 X0.69543 Y0.28110
G01 X0.69897 Y0.27160
G01 X0.70113 Y0.26169
G01 X0.70185 Y0.25157
G01 X0.70113 Y0.24146
G01 X0.69897 Y0.23155
G01 X0.69543 Y0.22205
G01 X0.69057 Y0.21315
G01 X0.68449 Y0.20503
G01 X0.67733 Y0.19786
G01 X0.66921 Y0.19179
G01 X0.66031 Y0.18693
G01 X0.65081 Y0.18339
G01 X0.64090 Y0.18123
G01 X0.63079 Y0.18051
G01 X0.62067 Y0.18123
G01 X0.61076 Y0.18339
G01 X0.60126 Y0.18693
G01 X0.59237 Y0.19179
G01 X0.58425 Y0.19787
G01 X0.57708 Y0.20503
G01 X0.57100 Y0.21315
G01 X0.56614 Y0.22205
G01 X0.56260 Y0.23155
G01 X0.56044 Y0.24146
G01 X0.55972 Y0.25157
G01 X0.56367 Y0.25157
G01 X0.56434 Y0.24202
G01 X0.56638 Y0.23266
G01 X0.56972 Y0.22369
G01 X0.57431 Y0.21528
G01 X0.58005 Y0.20761
G01 X0.58683 Y0.20084
G01 X0.59449 Y0.19510
G01 X0.60290 Y0.19051
G01 X0.61187 Y0.18716
G01 X0.62123 Y0.18513
G01 X0.63079 Y0.18444
G01 X0.64034 Y0.18513
G01 X0.64970 Y0.18716
G01 X0.65867 Y0.19051
G01 X0.66708 Y0.19510
G01 X0.67474 Y0.20085
G01 X0.68152 Y0.20761
G01 X0.68725 Y0.21529
G01 X0.69184 Y0.22369
G01 X0.69520 Y0.23266
G01 X0.69723 Y0.24202
G01 X0.69791 Y0.25157
G01 X0.69723 Y0.26113
G01 X0.69520 Y0.27049
G01 X0.69185 Y0.27946
G01 X0.68726 Y0.28787
G01 X0.68151 Y0.29553
G01 X0.67474 Y0.30230
G01 X0.66708 Y0.30805
G01 X0.65867 Y0.31263
G01 X0.64970 Y0.31599
G01 X0.64034 Y0.31802
G01 X0.63079 Y0.31870
G01 X0.62123 Y0.31802
G01 X0.61187 Y0.31599
G01 X0.60290 Y0.31264
G01 X0.59449 Y0.30805
G01 X0.58683 Y0.30231
G01 X0.58005 Y0.29553
G01 X0.57431 Y0.28787
G01 X0.56972 Y0.27946
G01 X0.56637 Y0.27049
G01 X0.56434 Y0.26113
G01 X0.56367 Y0.25157
G04 P0 ( dwell for no time -- G64 should not smooth over this point )
G00 Z0.07874 ( retract )

G00 X0.65072 Y0.37756 ( rapid move to begin. )
G01 F17.71654
( Mill infeed pass 1/1 )
G01 Z-0.00500
G04 P0 ( dwell for no time -- G64 should not smooth over this point )
G01 F35.43307
G01 X0.65072 Y0.37756
G01 X0.68758 Y0.37756
G01 X0.68922 Y0.37773
G01 X0.69353 Y0.37934
G01 X0.69715 Y0.38206
G01 X0.69987 Y0.38568
G01 X0.70148 Y0.38999
G01 X0.70165 Y0.39163
G01 X0.70165 Y0.42849
G01 X0.68984 Y0.42849
G01 X0.68984 Y0.39331
G01 X0.68954 Y0.39180
G01 X0.68869 Y0.39052
G01 X0.68741 Y0.38967
G01 X0.68590 Y0.38937
G01 X0.65072 Y0.38937
G01 X0.65072 Y0.37756
G01 X0.65466 Y0.38150
G01 X0.68832 Y0.38154
G01 X0.69164 Y0.38280
G01 X0.69437 Y0.38484
G01 X0.69641 Y0.38757
G01 X0.69768 Y0.39089
G01 X0.69771 Y0.42455
G01 X0.69888 Y0.42571
G01 X0.69771 Y0.42455
G01 X0.69378 Y0.42455
G01 X0.69263 Y0.42570
G01 X0.69378 Y0.42455
G01 X0.69378 Y0.39331
G01 X0.69363 Y0.39177
G01 X0.69318 Y0.39029
G01 X0.69245 Y0.38893
G01 X0.69147 Y0.38774
G01 X0.69028 Y0.38676
G01 X0.68892 Y0.38603
G01 X0.68744 Y0.38558
G01 X0.68590 Y0.38543
G01 X0.65466 Y0.38543
G01 X0.65351 Y0.38659
G01 X0.65466 Y0.38543
G01 X0.65466 Y0.38150
G04 P0 ( dwell for no time -- G64 should not smooth over this point )
G00 Z0.07874 ( retract )

G00 X0.92944 Y0.18499 ( rapid move to begin. )
G01 F17.71654
( Mill infeed pass 1/1 )
G01 Z-0.00500
G04 P0 ( dwell for no time -- G64 should not smooth over this point )
G01 F35.43307
G01 X0.92944 Y0.18499
G01 X0.92550 Y0.18106
G01 X0.92550 Y0.32798
G01 X1.26755 Y0.32798
G01 X1.26755 Y0.18106
G01 X0.92550 Y0.18106
G01 X0.92944 Y0.19190
G01 X0.92944 Y0.32404
G01 X0.92829 Y0.32519
G01 X0.92944 Y0.32404
G01 X1.26361 Y0.32404
G01 X1.26477 Y0.32519
G01 X1.26361 Y0.32404
G01 X1.26361 Y0.18499
G01 X1.26477 Y0.18384
G01 X1.26361 Y0.18499
G01 X0.92944 Y0.18499
G01 X0.92944 Y0.19190
G01 X0.93748 Y0.21404
G01 X0.93770 Y0.21627
G01 X0.93822 Y0.21805
G01 X0.93963 Y0.22070
G01 X0.94111 Y0.22239
G01 X0.94256 Y0.22355
G01 X0.94454 Y0.22461
G01 X0.94706 Y0.22531
G01 X0.94891 Y0.22548
G01 X0.95076 Y0.22531
G01 X0.95293 Y0.22474
G01 X0.95558 Y0.22332
G01 X0.95700 Y0.22213
G01 X0.96045 Y0.21868
G01 X0.96590 Y0.21596
G01 X0.98431 Y0.21596
G01 X0.98976 Y0.21868
G01 X0.99190 Y0.22082
G01 X0.99462 Y0.22626
G01 X0.99462 Y0.24468
G01 X0.99190 Y0.25012
G01 X0.98976 Y0.25226
G01 X0.98431 Y0.25498
G01 X0.96590 Y0.25498
G01 X0.96045 Y0.25226
G01 X0.95700 Y0.24881
G01 X0.95502 Y0.24724
G01 X0.95378 Y0.24656
G01 X0.95175 Y0.24583
G01 X0.94962 Y0.24549
G01 X0.94674 Y0.24568
G01 X0.94537 Y0.24604
G01 X0.94339 Y0.24690
G01 X0.94161 Y0.24811
G01 X0.94009 Y0.24964
G01 X0.93855 Y0.25209
G01 X0.93783 Y0.25412
G01 X0.93757 Y0.25551
G01 X0.93753 Y0.25804
G01 X0.94230 Y0.30566
G01 X0.94261 Y0.30737
G01 X0.94364 Y0.30999
G01 X0.94481 Y0.31173
G01 X0.94574 Y0.31274
G01 X0.94800 Y0.31443
G01 X0.94923 Y0.31504
G01 X0.95123 Y0.31568
G01 X0.95368 Y0.31595
G01 X1.00168 Y0.31594
G01 X1.00353 Y0.31573
G01 X1.00602 Y0.31492
G01 X1.00796 Y0.31380
G01 X1.00938 Y0.31261
G01 X1.01058 Y0.31118
G01 X1.01186 Y0.30889
G01 X1.01242 Y0.30712
G01 X1.01273 Y0.30452
G01 X1.01242 Y0.30191
G01 X1.01186 Y0.30014
G01 X1.01100 Y0.29850
G01 X1.00964 Y0.29672
G01 X1.00796 Y0.29524
G01 X1.00531 Y0.29382
G01 X1.00353 Y0.29330
G01 X1.00130 Y0.29308
G01 X0.96403 Y0.29308
G01 X0.96250 Y0.27780
G01 X0.98878 Y0.27772
G01 X0.99213 Y0.27665
G01 X1.00165 Y0.27189
G01 X1.00466 Y0.26971
G01 X1.01059 Y0.26357
G01 X1.01695 Y0.25085
G01 X1.01749 Y0.24738
G01 X1.01745 Y0.22296
G01 X1.01709 Y0.22068
G01 X1.01674 Y0.21955
G01 X1.01154 Y0.20895
G01 X1.00935 Y0.20592
G01 X1.00321 Y0.20000
G01 X0.99215 Y0.19430
G01 X0.98892 Y0.19324
G01 X0.98701 Y0.19308
G01 X0.96320 Y0.19308
G01 X0.95972 Y0.19362
G01 X0.94701 Y0.19999
G01 X0.94086 Y0.20592
G01 X0.93964 Y0.20738
G01 X0.93822 Y0.21003
G01 X0.93770 Y0.21181
G01 X0.93748 Y0.21404
G01 X0.93354 Y0.21404
G01 X0.93372 Y0.21180
G01 X0.93402 Y0.21029
G01 X0.93445 Y0.20888
G01 X0.93573 Y0.20616
G01 X0.93659 Y0.20488
G01 X0.93811 Y0.20310
G01 X0.94473 Y0.19678
G01 X0.95852 Y0.18987
G01 X0.96320 Y0.18914
G01 X0.98701 Y0.18914
G01 X0.98968 Y0.18938
G01 X0.99394 Y0.19080
G01 X1.00551 Y0.19680
G01 X1.01210 Y0.20310
G01 X1.01299 Y0.20413
G01 X1.01507 Y0.20722
G01 X1.02027 Y0.21782
G01 X1.02098 Y0.22007
G01 X1.02143 Y0.22357
G01 X1.02143 Y0.24738
G01 X1.02098 Y0.25087
G01 X1.02024 Y0.25318
G01 X1.01380 Y0.26585
G01 X1.00747 Y0.27246
G01 X1.00449 Y0.27476
G01 X0.99389 Y0.28017
G01 X0.99056 Y0.28133
G01 X0.98819 Y0.28171
G01 X0.96685 Y0.28178
G01 X0.96544 Y0.28051
G01 X0.96685 Y0.28178
G01 X0.96759 Y0.28914
G01 X0.96667 Y0.29016
G01 X0.96759 Y0.28914
G01 X1.00207 Y0.28918
G01 X1.00504 Y0.28963
G01 X1.00788 Y0.29064
G01 X1.01046 Y0.29219
G01 X1.01217 Y0.29365
G01 X1.01362 Y0.29536
G01 X1.01448 Y0.29664
G01 X1.01550 Y0.29863
G01 X1.01619 Y0.30077
G01 X1.01663 Y0.30375
G01 X1.01663 Y0.30529
G01 X1.01619 Y0.30827
G01 X1.01550 Y0.31040
G01 X1.01448 Y0.31240
G01 X1.01362 Y0.31368
G01 X1.01217 Y0.31539
G01 X1.01046 Y0.31684
G01 X1.00917 Y0.31770
G01 X1.00645 Y0.31898
G01 X1.00429 Y0.31960
G01 X1.00207 Y0.31985
G01 X0.95368 Y0.31989
G01 X0.95158 Y0.31973
G01 X0.94883 Y0.31909
G01 X0.94749 Y0.31857
G01 X0.94502 Y0.31720
G01 X0.94285 Y0.31541
G01 X0.94104 Y0.31324
G01 X0.94031 Y0.31208
G01 X0.93915 Y0.30950
G01 X0.93838 Y0.30605
G01 X0.93362 Y0.25843
G01 X0.93357 Y0.25627
G01 X0.93396 Y0.25340
G01 X0.93488 Y0.25066
G01 X0.93555 Y0.24933
G01 X0.93631 Y0.24813
G01 X0.93818 Y0.24592
G01 X0.93929 Y0.24493
G01 X0.94171 Y0.24334
G01 X0.94438 Y0.24223
G01 X0.94575 Y0.24187
G01 X0.94863 Y0.24154
G01 X0.95011 Y0.24159
G01 X0.95297 Y0.24209
G01 X0.95431 Y0.24252
G01 X0.95691 Y0.24379
G01 X0.95923 Y0.24553
G01 X0.96276 Y0.24905
G01 X0.96683 Y0.25105
G01 X0.96681 Y0.25115
G01 X0.96683 Y0.25105
G01 X0.98338 Y0.25105
G01 X0.98341 Y0.25115
G01 X0.98338 Y0.25105
G01 X0.98746 Y0.24907
G01 X0.98870 Y0.24782
G01 X0.99068 Y0.24375
G01 X0.99079 Y0.24377
G01 X0.99068 Y0.24375
G01 X0.99068 Y0.22719
G01 X0.99079 Y0.22717
G01 X0.99068 Y0.22719
G01 X0.98870 Y0.22312
G01 X0.98746 Y0.22187
G01 X0.98338 Y0.21989
G01 X0.98341 Y0.21979
G01 X0.98338 Y0.21989
G01 X0.96683 Y0.21989
G01 X0.96681 Y0.21979
G01 X0.96683 Y0.21989
G01 X0.96276 Y0.22188
G01 X0.95978 Y0.22491
G01 X0.95808 Y0.22636
G01 X0.95679 Y0.22722
G01 X0.95480 Y0.22825
G01 X0.95191 Y0.22912
G01 X0.94969 Y0.22938
G01 X0.94814 Y0.22938
G01 X0.94516 Y0.22893
G01 X0.94303 Y0.22824
G01 X0.94037 Y0.22682
G01 X0.93804 Y0.22491
G01 X0.93659 Y0.22320
G01 X0.93573 Y0.22192
G01 X0.93445 Y0.21920
G01 X0.93384 Y0.21704
G01 X0.93354 Y0.21404
G04 P0 ( dwell for no time -- G64 should not smooth over this point )
G00 Z0.07874 ( retract )

G00 X1.03273 Y0.20889 ( rapid move to begin. )
G01 F17.71654
( Mill infeed pass 1/1 )
G01 Z-0.00500
G04 P0 ( dwell for no time -- G64 should not smooth over this point )
G01 F35.43307
G01 X1.03273 Y0.20889
G01 X1.03303 Y0.20667
G01 X1.03346 Y0.20527
G01 X1.03487 Y0.20262
G01 X1.03608 Y0.20117
G01 X1.04153 Y0.19581
G01 X1.04406 Y0.19419
G01 X1.04706 Y0.19324
G01 X1.04896 Y0.19308
G01 X1.05159 Y0.19340
G01 X1.05328 Y0.19396
G01 X1.05499 Y0.19484
G01 X1.05704 Y0.19647
G01 X1.06264 Y0.20223
G01 X1.06388 Y0.20414
G01 X1.06480 Y0.20666
G01 X1.06509 Y0.20863
G01 X1.06503 Y0.21062
G01 X1.06480 Y0.21191
G01 X1.06417 Y0.21380
G01 X1.06296 Y0.21596
G01 X1.05672 Y0.22239
G01 X1.05494 Y0.22375
G01 X1.05364 Y0.22444
G01 X1.05115 Y0.22526
G01 X1.04853 Y0.22546
G01 X1.04631 Y0.22516
G01 X1.04454 Y0.22461
G01 X1.04289 Y0.22375
G01 X1.04083 Y0.22213
G01 X1.03607 Y0.21737
G01 X1.03487 Y0.21594
G01 X1.03375 Y0.21401
G01 X1.03303 Y0.21189
G01 X1.03273 Y0.20889
G01 X1.02882 Y0.20851
G01 X1.02896 Y0.21152
G01 X1.02926 Y0.21303
G01 X1.03028 Y0.21586
G01 X1.03097 Y0.21716
G01 X1.03183 Y0.21844
G01 X1.03328 Y0.22015
G01 X1.03862 Y0.22543
G01 X1.03975 Y0.22636
G01 X1.04233 Y0.22791
G01 X1.04376 Y0.22850
G01 X1.04591 Y0.22912
G01 X1.04814 Y0.22938
G01 X1.04969 Y0.22938
G01 X1.05266 Y0.22893
G01 X1.05550 Y0.22791
G01 X1.05679 Y0.22722
G01 X1.05921 Y0.22543
G01 X1.06547 Y0.21907
G01 X1.06610 Y0.21833
G01 X1.06729 Y0.21639
G01 X1.06832 Y0.21391
G01 X1.06868 Y0.21259
G01 X1.06902 Y0.20993
G01 X1.06902 Y0.20863
G01 X1.06890 Y0.20726
G01 X1.06832 Y0.20465
G01 X1.06729 Y0.20217
G01 X1.06610 Y0.20023
G01 X1.05921 Y0.19313
G01 X1.05808 Y0.19219
G01 X1.05581 Y0.19079
G01 X1.05328 Y0.18979
G01 X1.05166 Y0.18942
G01 X1.04900 Y0.18914
G01 X1.04591 Y0.18944
G01 X1.04289 Y0.19037
G01 X1.03950 Y0.19236
G01 X1.03276 Y0.19898
G01 X1.03097 Y0.20140
G01 X1.02969 Y0.20413
G01 X1.02926 Y0.20553
G01 X1.02882 Y0.20851
G01 X1.07640 Y0.26642
G01 X1.07686 Y0.27015
G01 X1.08187 Y0.29002
G01 X1.08281 Y0.29240
G01 X1.08820 Y0.30296
G01 X1.08964 Y0.30495
G01 X1.09707 Y0.31223
G01 X1.10977 Y0.31870
G01 X1.11209 Y0.31944
G01 X1.11558 Y0.31989
G01 X1.12571 Y0.31987
G01 X1.12777 Y0.31966
G01 X1.13198 Y0.31827
G01 X1.14259 Y0.31285
G01 X1.14557 Y0.31056
G01 X1.15187 Y0.30397
G01 X1.15787 Y0.29240
G01 X1.15881 Y0.29002
G01 X1.16400 Y0.26923
G01 X1.16423 Y0.26736
G01 X1.16429 Y0.24263
G01 X1.16383 Y0.23887
G01 X1.15857 Y0.21824
G01 X1.15316 Y0.20719
G01 X1.15108 Y0.20413
G01 X1.15019 Y0.20310
G01 X1.14358 Y0.19678
G01 X1.13091 Y0.19033
G01 X1.12860 Y0.18959
G01 X1.12511 Y0.18914
G01 X1.11558 Y0.18914
G01 X1.11209 Y0.18959
G01 X1.10983 Y0.19030
G01 X1.09923 Y0.19550
G01 X1.09615 Y0.19759
G01 X1.09512 Y0.19848
G01 X1.08881 Y0.20508
G01 X1.08247 Y0.21741
G01 X1.08187 Y0.21904
G01 X1.07686 Y0.23887
G01 X1.07649 Y0.24110
G01 X1.07640 Y0.26642
G01 X1.08034 Y0.26642
G01 X1.08068 Y0.26920
G01 X1.08557 Y0.28865
G01 X1.08632 Y0.29061
G01 X1.09170 Y0.30117
G01 X1.09243 Y0.30216
G01 X1.09937 Y0.30903
G01 X1.11154 Y0.31518
G01 X1.11269 Y0.31555
G01 X1.11498 Y0.31591
G01 X1.12511 Y0.31595
G01 X1.12746 Y0.31568
G01 X1.13022 Y0.31475
G01 X1.13974 Y0.30999
G01 X1.14275 Y0.30781
G01 X1.14867 Y0.30167
G01 X1.15437 Y0.29061
G01 X1.15525 Y0.28823
G01 X1.16027 Y0.26782
G01 X1.16035 Y0.24262
G01 X1.16001 Y0.23983
G01 X1.15472 Y0.21921
G01 X1.14929 Y0.20838
G01 X1.14744 Y0.20592
G01 X1.14130 Y0.19999
G01 X1.12859 Y0.19362
G01 X1.12511 Y0.19308
G01 X1.11498 Y0.19313
G01 X1.11269 Y0.19348
G01 X1.11157 Y0.19384
G01 X1.10040 Y0.19938
G01 X1.09794 Y0.20123
G01 X1.09239 Y0.20691
G01 X1.09170 Y0.20788
G01 X1.08581 Y0.21959
G01 X1.08068 Y0.23983
G01 X1.08034 Y0.24225
G01 X1.08034 Y0.26642
G04 P0 ( dwell for no time -- G64 should not smooth over this point )
G00 Z0.07874 ( retract )

G00 X1.10321 Y0.24402 ( rapid move to begin. )
G01 F17.71654
( Mill infeed pass 1/1 )
G01 Z-0.00500
G04 P0 ( dwell for no time -- G64 should not smooth over this point )
G01 F35.43307
G01 X1.10321 Y0.24402
G01 X1.10733 Y0.22756
G01 X1.11069 Y0.22082
G01 X1.11283 Y0.21868
G01 X1.11828 Y0.21596
G01 X1.12241 Y0.21596
G01 X1.12786 Y0.21868
G01 X1.12999 Y0.22082
G01 X1.13336 Y0.22756
G01 X1.13748 Y0.24402
G01 X1.13748 Y0.26501
G01 X1.13336 Y0.28148
G01 X1.12999 Y0.28822
G01 X1.12786 Y0.29036
G01 X1.12241 Y0.29308
G01 X1.11828 Y0.29308
G01 X1.11283 Y0.29036
G01 X1.11069 Y0.28822
G01 X1.10733 Y0.28148
G01 X1.10321 Y0.26501
G01 X1.10321 Y0.24402
G01 X1.10715 Y0.24451
G01 X1.11102 Y0.22892
G01 X1.11389 Y0.22312
G01 X1.11513 Y0.22187
G01 X1.11921 Y0.21989
G01 X1.11919 Y0.21979
G01 X1.11921 Y0.21989
G01 X1.12148 Y0.21989
G01 X1.12150 Y0.21979
G01 X1.12148 Y0.21989
G01 X1.12555 Y0.22187
G01 X1.12680 Y0.22312
G01 X1.12967 Y0.22892
G01 X1.13357 Y0.24450
G01 X1.13357 Y0.26453
G01 X1.12967 Y0.28011
G01 X1.12680 Y0.28592
G01 X1.12555 Y0.28716
G01 X1.12148 Y0.28914
G01 X1.12150 Y0.28925
G01 X1.12148 Y0.28914
G01 X1.11921 Y0.28914
G01 X1.11919 Y0.28925
G01 X1.11921 Y0.28914
G01 X1.11513 Y0.28716
G01 X1.11389 Y0.28592
G01 X1.11102 Y0.28011
G01 X1.10712 Y0.26453
G01 X1.10715 Y0.24451
G04 P0 ( dwell for no time -- G64 should not smooth over this point )
G00 Z0.07874 ( retract )

G00 X1.21082 Y0.24462 ( rapid move to begin. )
G01 F17.71654
( Mill infeed pass 1/1 )
G01 Z-0.00500
G04 P0 ( dwell for no time -- G64 should not smooth over this point )
G01 F35.43307
G01 X1.21082 Y0.24462
G01 X1.21082 Y0.25313
G01 X1.22957 Y0.30938
G01 X1.23080 Y0.31213
G01 X1.23254 Y0.31459
G01 X1.23414 Y0.31616
G01 X1.23660 Y0.31789
G01 X1.23798 Y0.31858
G01 X1.24009 Y0.31935
G01 X1.24230 Y0.31976
G01 X1.24384 Y0.31987
G01 X1.24608 Y0.31977
G01 X1.24827 Y0.31931
G01 X1.24974 Y0.31882
G01 X1.25242 Y0.31746
G01 X1.25479 Y0.31560
G01 X1.25630 Y0.31394
G01 X1.25790 Y0.31139
G01 X1.25874 Y0.30931
G01 X1.25915 Y0.30782
G01 X1.25951 Y0.30484
G01 X1.25941 Y0.30260
G01 X1.25874 Y0.29966
G01 X1.22513 Y0.19895
G01 X1.22381 Y0.19632
G01 X1.22298 Y0.19514
G01 X1.22097 Y0.19299
G01 X1.21978 Y0.19205
G01 X1.21724 Y0.19057
G01 X1.21590 Y0.19003
G01 X1.21304 Y0.18932
G01 X1.21154 Y0.18918
G01 X1.20860 Y0.18932
G01 X1.20574 Y0.19003
G01 X1.20306 Y0.19126
G01 X1.20185 Y0.19205
G01 X1.19964 Y0.19399
G01 X1.19866 Y0.19514
G01 X1.19783 Y0.19632
G01 X1.19651 Y0.19895
G01 X1.16290 Y0.29966
G01 X1.16237 Y0.30183
G01 X1.16213 Y0.30484
G01 X1.16607 Y0.30494
G01 X1.16658 Y0.30791
G01 X1.16745 Y0.30997
G01 X1.16845 Y0.31153
G01 X1.16999 Y0.31316
G01 X1.17150 Y0.31425
G01 X1.17387 Y0.31537
G01 X1.17568 Y0.31580
G01 X1.17791 Y0.31593
G01 X1.18087 Y0.31543
G01 X1.18294 Y0.31456
G01 X1.18418 Y0.31377
G01 X1.18636 Y0.31171
G01 X1.18760 Y0.30984
G01 X1.18834 Y0.30813
G01 X1.21082 Y0.24068
G01 X1.23330 Y0.30813
G01 X1.23443 Y0.31051
G01 X1.23551 Y0.31201
G01 X1.23685 Y0.31330
G01 X1.23904 Y0.31475
G01 X1.24113 Y0.31555
G01 X1.24296 Y0.31588
G01 X1.24596 Y0.31580
G01 X1.24813 Y0.31523
G01 X1.25014 Y0.31425
G01 X1.25134 Y0.31340
G01 X1.25341 Y0.31121
G01 X1.25438 Y0.30963
G01 X1.25506 Y0.30790
G01 X1.25557 Y0.30494
G01 X1.25550 Y0.30309
G01 X1.25500 Y0.30090
G01 X1.22153 Y0.20055
G01 X1.22058 Y0.19858
G01 X1.21975 Y0.19740
G01 X1.21764 Y0.19535
G01 X1.21576 Y0.19422
G01 X1.21370 Y0.19346
G01 X1.21154 Y0.19312
G01 X1.21010 Y0.19312
G01 X1.20721 Y0.19368
G01 X1.20521 Y0.19457
G01 X1.20400 Y0.19535
G01 X1.20189 Y0.19740
G01 X1.20069 Y0.19923
G01 X1.19997 Y0.20090
G01 X1.16664 Y0.30090
G01 X1.16621 Y0.30271
G01 X1.16607 Y0.30494
G01 X1.16213 Y0.30484
G01 X1.16249 Y0.30782
G01 X1.16290 Y0.30931
G01 X1.16342 Y0.31069
G01 X1.16490 Y0.31331
G01 X1.16685 Y0.31560
G01 X1.16922 Y0.31746
G01 X1.17056 Y0.31822
G01 X1.17263 Y0.31910
G01 X1.17480 Y0.31964
G01 X1.17633 Y0.31983
G01 X1.17858 Y0.31985
G01 X1.18079 Y0.31951
G01 X1.18228 Y0.31911
G01 X1.18436 Y0.31827
G01 X1.18691 Y0.31666
G01 X1.18857 Y0.31515
G01 X1.18958 Y0.31398
G01 X1.19084 Y0.31213
G01 X1.19207 Y0.30938
G01 X1.21082 Y0.25313
G04 P0 ( dwell for no time -- G64 should not smooth over this point )
G00 Z0.07874 ( retract )

G00 X1.17381 Y0.41989 ( rapid move to begin. )
G01 F17.71654
( Mill infeed pass 1/1 )
G01 Z-0.00500
G04 P0 ( dwell for no time -- G64 should not smooth over this point )
G01 F35.43307
G01 X1.17381 Y0.41989
G01 X1.17976 Y0.41984
G01 X1.18823 Y0.42272
G01 X1.18829 Y0.42262
G01 X1.18823 Y0.42272
G01 X1.19346 Y0.42788
G01 X1.19634 Y0.43368
G01 X1.20024 Y0.44926
G01 X1.20024 Y0.45977
G01 X1.19634 Y0.47535
G01 X1.19346 Y0.48115
G01 X1.18823 Y0.48632
G01 X1.18829 Y0.48641
G01 X1.18823 Y0.48632
G01 X1.17976 Y0.48919
G01 X1.17381 Y0.48914
G01 X1.17266 Y0.49030
G01 X1.17381 Y0.48914
G01 X1.17381 Y0.41989
G01 X1.16988 Y0.41596
G01 X1.16988 Y0.49308
G01 X1.18039 Y0.49308
G01 X1.19036 Y0.48976
G01 X1.19666 Y0.48346
G01 X1.20003 Y0.47672
G01 X1.20414 Y0.46025
G01 X1.20414 Y0.44878
G01 X1.20003 Y0.43232
G01 X1.19666 Y0.42558
G01 X1.19036 Y0.41928
G01 X1.18039 Y0.41596
G01 X1.16988 Y0.41596
G04 P0 ( dwell for no time -- G64 should not smooth over this point )
G00 Z0.07874 ( retract )

G00 X1.14700 Y0.40452 ( rapid move to begin. )
G01 F17.71654
( Mill infeed pass 1/1 )
G01 Z-0.00500
G04 P0 ( dwell for no time -- G64 should not smooth over this point )
G01 F35.43307
G01 X1.14700 Y0.40452
G01 X1.14716 Y0.40267
G01 X1.14774 Y0.40050
G01 X1.14916 Y0.39785
G01 X1.15035 Y0.39643
G01 X1.15177 Y0.39524
G01 X1.15443 Y0.39382
G01 X1.15621 Y0.39330
G01 X1.15845 Y0.39308
G01 X1.18408 Y0.39323
G01 X1.20013 Y0.39842
G01 X1.20327 Y0.40004
G01 X1.21413 Y0.41070
G01 X1.21629 Y0.41370
G01 X1.22155 Y0.42436
G01 X1.22667 Y0.44459
G01 X1.22702 Y0.44738
G01 X1.22702 Y0.46166
G01 X1.22667 Y0.46444
G01 X1.22155 Y0.48467
G01 X1.21629 Y0.49533
G01 X1.21413 Y0.49833
G01 X1.20372 Y0.50861
G01 X1.20276 Y0.50931
G01 X1.20013 Y0.51061
G01 X1.18408 Y0.51581
G01 X1.15845 Y0.51595
G01 X1.15659 Y0.51579
G01 X1.15371 Y0.51492
G01 X1.15208 Y0.51403
G01 X1.15035 Y0.51260
G01 X1.14916 Y0.51118
G01 X1.14804 Y0.50924
G01 X1.14716 Y0.50637
G01 X1.14700 Y0.50452
G01 X1.14700 Y0.40452
G01 X1.14306 Y0.40452
G01 X1.14306 Y0.50452
G01 X1.14325 Y0.50675
G01 X1.14355 Y0.50827
G01 X1.14423 Y0.51040
G01 X1.14526 Y0.51240
G01 X1.14612 Y0.51368
G01 X1.14757 Y0.51539
G01 X1.14928 Y0.51684
G01 X1.15056 Y0.51770
G01 X1.15328 Y0.51898
G01 X1.15469 Y0.51941
G01 X1.15620 Y0.51971
G01 X1.15847 Y0.51989
G01 X1.18470 Y0.51969
G01 X1.20135 Y0.51436
G01 X1.20457 Y0.51281
G01 X1.20649 Y0.51141
G01 X1.21690 Y0.50114
G01 X1.21775 Y0.50014
G01 X1.21982 Y0.49708
G01 X1.22524 Y0.48603
G01 X1.23067 Y0.46444
G01 X1.23096 Y0.46166
G01 X1.23096 Y0.44738
G01 X1.23049 Y0.44363
G01 X1.22524 Y0.42300
G01 X1.21982 Y0.41196
G01 X1.21775 Y0.40890
G01 X1.21689 Y0.40790
G01 X1.20558 Y0.39685
G01 X1.20135 Y0.39468
G01 X1.18470 Y0.38934
G01 X1.15847 Y0.38914
G01 X1.15544 Y0.38944
G01 X1.15328 Y0.39005
G01 X1.15056 Y0.39134
G01 X1.14928 Y0.39220
G01 X1.14757 Y0.39365
G01 X1.14612 Y0.39536
G01 X1.14526 Y0.39664
G01 X1.14397 Y0.39936
G01 X1.14325 Y0.40228
G01 X1.14306 Y0.40452
G04 P0 ( dwell for no time -- G64 should not smooth over this point )
G00 Z0.07874 ( retract )

G00 X1.09837 Y0.45139 ( rapid move to begin. )
G01 F17.71654
( Mill infeed pass 1/1 )
G01 Z-0.00500
G04 P0 ( dwell for no time -- G64 should not smooth over this point )
G01 F35.43307
G01 X1.09837 Y0.45139
G01 X1.09545 Y0.46241
G01 X1.09545 Y0.50452
G01 X1.09563 Y0.50675
G01 X1.09593 Y0.50827
G01 X1.09695 Y0.51110
G01 X1.09850 Y0.51368
G01 X1.09995 Y0.51539
G01 X1.10228 Y0.51730
G01 X1.10424 Y0.51839
G01 X1.10566 Y0.51898
G01 X1.10782 Y0.51960
G01 X1.11005 Y0.51985
G01 X1.11159 Y0.51985
G01 X1.11382 Y0.51960
G01 X1.11670 Y0.51872
G01 X1.11870 Y0.51770
G01 X1.12112 Y0.51591
G01 X1.12221 Y0.51482
G01 X1.12400 Y0.51240
G01 X1.12502 Y0.51040
G01 X1.12571 Y0.50827
G01 X1.12616 Y0.50529
G01 X1.12619 Y0.40452
G01 X1.12575 Y0.40094
G01 X1.12483 Y0.39822
G01 X1.12419 Y0.39697
G01 X1.12255 Y0.39461
G01 X1.12050 Y0.39260
G01 X1.11932 Y0.39172
G01 X1.11678 Y0.39037
G01 X1.11404 Y0.38950
G01 X1.11266 Y0.38927
G01 X1.10979 Y0.38920
G01 X1.10833 Y0.38936
G01 X1.10555 Y0.39009
G01 X1.10295 Y0.39133
G01 X1.10064 Y0.39302
G01 X1.09963 Y0.39400
G01 X1.09747 Y0.39689
G01 X1.06905 Y0.44663
G01 X1.06612 Y0.45765
G01 X1.06905 Y0.44663
G01 X1.06905 Y0.40452
G01 X1.06887 Y0.40228
G01 X1.06857 Y0.40077
G01 X1.06788 Y0.39863
G01 X1.06686 Y0.39664
G01 X1.06600 Y0.39536
G01 X1.06397 Y0.39313
G01 X1.06156 Y0.39134
G01 X1.06026 Y0.39064
G01 X1.05883 Y0.39005
G01 X1.05668 Y0.38944
G01 X1.05445 Y0.38918
G01 X1.05290 Y0.38918
G01 X1.05068 Y0.38944
G01 X1.04852 Y0.39005
G01 X1.04580 Y0.39134
G01 X1.04452 Y0.39220
G01 X1.04280 Y0.39365
G01 X1.04135 Y0.39536
G01 X1.04050 Y0.39664
G01 X1.03947 Y0.39863
G01 X1.03879 Y0.40077
G01 X1.03849 Y0.40228
G01 X1.03830 Y0.40452
G01 X1.04224 Y0.40452
G01 X1.04240 Y0.40267
G01 X1.04298 Y0.40050
G01 X1.04440 Y0.39785
G01 X1.04559 Y0.39643
G01 X1.04765 Y0.39481
G01 X1.04966 Y0.39382
G01 X1.05144 Y0.39330
G01 X1.05329 Y0.39310
G01 X1.05591 Y0.39330
G01 X1.05769 Y0.39382
G01 X1.05970 Y0.39481
G01 X1.06176 Y0.39643
G01 X1.06296 Y0.39785
G01 X1.06437 Y0.40050
G01 X1.06495 Y0.40267
G01 X1.06511 Y0.40452
G01 X1.06511 Y0.46145
G01 X1.10089 Y0.39884
G01 X1.10237 Y0.39682
G01 X1.10338 Y0.39585
G01 X1.10512 Y0.39461
G01 X1.10777 Y0.39351
G01 X1.10987 Y0.39313
G01 X1.11201 Y0.39315
G01 X1.11339 Y0.39339
G01 X1.11542 Y0.39406
G01 X1.11788 Y0.39554
G01 X1.11943 Y0.39701
G01 X1.12029 Y0.39812
G01 X1.12158 Y0.40068
G01 X1.12211 Y0.40275
G01 X1.12226 Y0.40452
G01 X1.12226 Y0.50452
G01 X1.12209 Y0.50637
G01 X1.12122 Y0.50924
G01 X1.12010 Y0.51118
G01 X1.11862 Y0.51286
G01 X1.11684 Y0.51423
G01 X1.11520 Y0.51508
G01 X1.11305 Y0.51574
G01 X1.11120 Y0.51594
G01 X1.10859 Y0.51574
G01 X1.10681 Y0.51521
G01 X1.10447 Y0.51403
G01 X1.10302 Y0.51286
G01 X1.10154 Y0.51118
G01 X1.10042 Y0.50924
G01 X1.09955 Y0.50637
G01 X1.09938 Y0.50452
G01 X1.09938 Y0.44758
G01 X1.06361 Y0.51019
G01 X1.06212 Y0.51221
G01 X1.06112 Y0.51319
G01 X1.05937 Y0.51442
G01 X1.05743 Y0.51531
G01 X1.05462 Y0.51590
G01 X1.05248 Y0.51588
G01 X1.05039 Y0.51546
G01 X1.04841 Y0.51466
G01 X1.04721 Y0.51394
G01 X1.04557 Y0.51257
G01 X1.04421 Y0.51091
G01 X1.04291 Y0.50835
G01 X1.04239 Y0.50628
G01 X1.04224 Y0.50452
G01 X1.04224 Y0.40452
G01 X1.03830 Y0.40452
G01 X1.03830 Y0.50452
G01 X1.03874 Y0.50810
G01 X1.03967 Y0.51082
G01 X1.04109 Y0.51331
G01 X1.04295 Y0.51550
G01 X1.04518 Y0.51731
G01 X1.04771 Y0.51867
G01 X1.05045 Y0.51953
G01 X1.05330 Y0.51987
G01 X1.05617 Y0.51967
G01 X1.05895 Y0.51894
G01 X1.06024 Y0.51840
G01 X1.06271 Y0.51694
G01 X1.06487 Y0.51504
G01 X1.06702 Y0.51214
G01 X1.09545 Y0.46241
G04 P0 ( dwell for no time -- G64 should not smooth over this point )
G00 Z0.07874 ( retract )

G00 X0.92955 Y0.38506 ( rapid move to begin. )
G01 F17.71654
( Mill infeed pass 1/1 )
G01 Z-0.00500
G04 P0 ( dwell for no time -- G64 should not smooth over this point )
G01 F35.43307
G01 X0.92955 Y0.38506
G01 X0.92561 Y0.38112
G01 X0.92561 Y0.52798
G01 X1.23888 Y0.52798
G01 X1.23888 Y0.38112
G01 X0.92561 Y0.38112
G01 X0.92955 Y0.40784
G01 X0.92955 Y0.52404
G01 X0.92840 Y0.52519
G01 X0.92955 Y0.52404
G01 X1.23494 Y0.52404
G01 X1.23610 Y0.52519
G01 X1.23494 Y0.52404
G01 X1.23494 Y0.38506
G01 X1.23610 Y0.38390
G01 X1.23494 Y0.38506
G01 X0.92955 Y0.38506
G01 X0.92955 Y0.40784
G01 X0.93773 Y0.46396
G01 X0.94295 Y0.48467
G01 X0.94820 Y0.49533
G01 X0.94994 Y0.49784
G01 X0.96123 Y0.50900
G01 X0.96437 Y0.51061
G01 X0.98042 Y0.51581
G01 X0.99651 Y0.51595
G01 X0.99942 Y0.51555
G01 X1.00055 Y0.51520
G01 X1.01114 Y0.51000
G01 X1.01307 Y0.50879
G01 X1.01443 Y0.50753
G01 X1.01617 Y0.50507
G01 X1.01691 Y0.50337
G01 X1.01740 Y0.50118
G01 X1.01747 Y0.49933
G01 X1.01717 Y0.49711
G01 X1.01610 Y0.49430
G01 X1.01484 Y0.49245
G01 X1.01324 Y0.49088
G01 X1.01205 Y0.49003
G01 X1.00930 Y0.48880
G01 X1.00749 Y0.48841
G01 X1.00563 Y0.48834
G01 X1.00267 Y0.48884
G01 X1.00094 Y0.48953
G01 X0.99383 Y0.49308
G01 X0.98410 Y0.49308
G01 X0.97414 Y0.48976
G01 X0.96784 Y0.48346
G01 X0.96447 Y0.47672
G01 X0.96035 Y0.46025
G01 X0.96035 Y0.44878
G01 X0.96447 Y0.43232
G01 X0.96784 Y0.42558
G01 X0.97414 Y0.41928
G01 X0.98410 Y0.41596
G01 X0.98992 Y0.41596
G01 X0.99938 Y0.41911
G01 X0.99938 Y0.43594
G01 X0.99177 Y0.43594
G01 X0.98954 Y0.43616
G01 X0.98705 Y0.43697
G01 X0.98511 Y0.43810
G01 X0.98397 Y0.43903
G01 X0.98206 Y0.44135
G01 X0.98108 Y0.44336
G01 X0.98055 Y0.44514
G01 X0.98035 Y0.44776
G01 X0.98055 Y0.44961
G01 X0.98121 Y0.45175
G01 X0.98249 Y0.45404
G01 X0.98369 Y0.45546
G01 X0.98511 Y0.45665
G01 X0.98740 Y0.45794
G01 X0.98954 Y0.45859
G01 X0.99177 Y0.45881
G01 X1.01082 Y0.45881
G01 X1.01305 Y0.45859
G01 X1.01555 Y0.45778
G01 X1.01748 Y0.45665
G01 X1.01891 Y0.45546
G01 X1.02010 Y0.45404
G01 X1.02138 Y0.45175
G01 X1.02209 Y0.44922
G01 X1.02226 Y0.44738
G01 X1.02226 Y0.41404
G01 X1.02209 Y0.41210
G01 X1.02101 Y0.40885
G01 X1.01890 Y0.40595
G01 X1.01414 Y0.40119
G01 X1.01130 Y0.39911
G01 X0.99360 Y0.39323
G01 X0.98043 Y0.39323
G01 X0.96437 Y0.39842
G01 X0.96259 Y0.39919
G01 X0.95986 Y0.40121
G01 X0.94916 Y0.41211
G01 X0.94346 Y0.42318
G01 X0.94258 Y0.42556
G01 X0.93756 Y0.44598
G01 X0.93748 Y0.46165
G01 X0.93354 Y0.46163
G01 X0.93366 Y0.44549
G01 X0.93876 Y0.42462
G01 X0.93958 Y0.42224
G01 X0.94597 Y0.40981
G01 X0.95705 Y0.39844
G01 X0.95801 Y0.39762
G01 X0.96065 Y0.39576
G01 X0.96253 Y0.39491
G01 X0.97981 Y0.38934
G01 X0.99297 Y0.38924
G01 X0.99423 Y0.38934
G01 X1.01198 Y0.39514
G01 X1.01310 Y0.39562
G01 X1.01600 Y0.39762
G01 X1.02249 Y0.40411
G01 X1.02452 Y0.40706
G01 X1.02572 Y0.41043
G01 X1.02608 Y0.41225
G01 X1.02619 Y0.41404
G01 X1.02619 Y0.44738
G01 X1.02601 Y0.44961
G01 X1.02571 Y0.45112
G01 X1.02469 Y0.45396
G01 X1.02314 Y0.45654
G01 X1.02169 Y0.45825
G01 X1.01998 Y0.45970
G01 X1.01870 Y0.46055
G01 X1.01598 Y0.46184
G01 X1.01305 Y0.46257
G01 X1.01082 Y0.46275
G01 X0.99100 Y0.46271
G01 X0.98877 Y0.46245
G01 X0.98662 Y0.46184
G01 X0.98389 Y0.46055
G01 X0.98261 Y0.45970
G01 X0.98090 Y0.45825
G01 X0.97945 Y0.45654
G01 X0.97859 Y0.45525
G01 X0.97757 Y0.45326
G01 X0.97669 Y0.45037
G01 X0.97644 Y0.44815
G01 X0.97644 Y0.44660
G01 X0.97688 Y0.44363
G01 X0.97790 Y0.44079
G01 X0.97899 Y0.43883
G01 X0.98038 Y0.43708
G01 X0.98261 Y0.43505
G01 X0.98389 Y0.43419
G01 X0.98662 Y0.43291
G01 X0.98954 Y0.43218
G01 X0.99177 Y0.43200
G01 X0.99545 Y0.43200
G01 X0.99654 Y0.43305
G01 X0.99545 Y0.43200
G01 X0.99545 Y0.42195
G01 X0.99619 Y0.42141
G01 X0.99545 Y0.42195
G01 X0.98929 Y0.41984
G01 X0.98474 Y0.41984
G01 X0.97627 Y0.42272
G01 X0.97621 Y0.42262
G01 X0.97627 Y0.42272
G01 X0.97103 Y0.42788
G01 X0.96816 Y0.43368
G01 X0.96426 Y0.44926
G01 X0.96426 Y0.45977
G01 X0.96816 Y0.47535
G01 X0.97103 Y0.48115
G01 X0.97627 Y0.48632
G01 X0.97621 Y0.48641
G01 X0.97627 Y0.48632
G01 X0.98474 Y0.48919
G01 X0.99291 Y0.48914
G01 X0.99293 Y0.48925
G01 X0.99291 Y0.48914
G01 X0.99989 Y0.48569
G01 X1.00275 Y0.48476
G01 X1.00420 Y0.48451
G01 X1.00574 Y0.48440
G01 X1.00874 Y0.48464
G01 X1.01164 Y0.48545
G01 X1.01367 Y0.48640
G01 X1.01552 Y0.48766
G01 X1.01770 Y0.48974
G01 X1.01943 Y0.49221
G01 X1.02012 Y0.49359
G01 X1.02088 Y0.49569
G01 X1.02130 Y0.49790
G01 X1.02141 Y0.49944
G01 X1.02131 Y0.50168
G01 X1.02064 Y0.50462
G01 X1.01976 Y0.50668
G01 X1.01815 Y0.50922
G01 X1.01714 Y0.51039
G01 X1.01548 Y0.51190
G01 X1.01361 Y0.51313
G01 X1.00229 Y0.51873
G01 X1.00118 Y0.51917
G01 X0.99775 Y0.51980
G01 X0.99648 Y0.51989
G01 X0.97979 Y0.51969
G01 X0.96315 Y0.51436
G01 X0.95993 Y0.51281
G01 X0.95800 Y0.51141
G01 X0.94760 Y0.50114
G01 X0.94675 Y0.50014
G01 X0.94467 Y0.49708
G01 X0.93925 Y0.48603
G01 X0.93400 Y0.46541
G01 X0.93354 Y0.46163
G04 P0 ( dwell for no time -- G64 should not smooth over this point )
G00 Z0.07874 ( retract )

G00 X0.92944 Y0.66500 ( rapid move to begin. )
G01 F17.71654
( Mill infeed pass 1/1 )
G01 Z-0.00500
G04 P0 ( dwell for no time -- G64 should not smooth over this point )
G01 F35.43307
G01 X0.92944 Y0.66500
G01 X0.92550 Y0.66106
G01 X0.92550 Y0.80798
G01 X1.26755 Y0.80798
G01 X1.26755 Y0.66106
G01 X0.92550 Y0.66106
G01 X0.92944 Y0.67190
G01 X0.92944 Y0.80404
G01 X0.92829 Y0.80519
G01 X0.92944 Y0.80404
G01 X1.26361 Y0.80404
G01 X1.26477 Y0.80519
G01 X1.26361 Y0.80404
G01 X1.26361 Y0.66500
G01 X1.26477 Y0.66384
G01 X1.26361 Y0.66500
G01 X0.92944 Y0.66500
G01 X0.92944 Y0.67190
G01 X0.93748 Y0.69404
G01 X0.93770 Y0.69627
G01 X0.93822 Y0.69805
G01 X0.93963 Y0.70070
G01 X0.94083 Y0.70213
G01 X0.94289 Y0.70375
G01 X0.94490 Y0.70474
G01 X0.94668 Y0.70526
G01 X0.94853 Y0.70546
G01 X0.95115 Y0.70526
G01 X0.95293 Y0.70474
G01 X0.95558 Y0.70332
G01 X0.95700 Y0.70213
G01 X0.96045 Y0.69868
G01 X0.96590 Y0.69595
G01 X0.98431 Y0.69595
G01 X0.98976 Y0.69868
G01 X0.99190 Y0.70081
G01 X0.99462 Y0.70626
G01 X0.99462 Y0.72467
G01 X0.99190 Y0.73012
G01 X0.98976 Y0.73226
G01 X0.98431 Y0.73498
G01 X0.96590 Y0.73498
G01 X0.96045 Y0.73226
G01 X0.95700 Y0.72881
G01 X0.95502 Y0.72724
G01 X0.95378 Y0.72656
G01 X0.95175 Y0.72583
G01 X0.94962 Y0.72550
G01 X0.94674 Y0.72568
G01 X0.94537 Y0.72604
G01 X0.94339 Y0.72690
G01 X0.94161 Y0.72811
G01 X0.94009 Y0.72964
G01 X0.93855 Y0.73209
G01 X0.93783 Y0.73412
G01 X0.93757 Y0.73551
G01 X0.93753 Y0.73804
G01 X0.94230 Y0.78566
G01 X0.94261 Y0.78737
G01 X0.94364 Y0.78999
G01 X0.94481 Y0.79173
G01 X0.94574 Y0.79274
G01 X0.94800 Y0.79443
G01 X0.94923 Y0.79504
G01 X0.95123 Y0.79568
G01 X0.95368 Y0.79595
G01 X1.00168 Y0.79594
G01 X1.00353 Y0.79573
G01 X1.00602 Y0.79492
G01 X1.00796 Y0.79380
G01 X1.00938 Y0.79261
G01 X1.01058 Y0.79118
G01 X1.01186 Y0.78889
G01 X1.01242 Y0.78712
G01 X1.01273 Y0.78452
G01 X1.01242 Y0.78191
G01 X1.01186 Y0.78014
G01 X1.01100 Y0.77850
G01 X1.00964 Y0.77672
G01 X1.00765 Y0.77501
G01 X1.00531 Y0.77382
G01 X1.00353 Y0.77330
G01 X1.00130 Y0.77308
G01 X0.96403 Y0.77308
G01 X0.96250 Y0.75780
G01 X0.98878 Y0.75772
G01 X0.99213 Y0.75665
G01 X1.00165 Y0.75189
G01 X1.00466 Y0.74971
G01 X1.01059 Y0.74357
G01 X1.01695 Y0.73085
G01 X1.01749 Y0.72737
G01 X1.01745 Y0.70296
G01 X1.01709 Y0.70068
G01 X1.01674 Y0.69955
G01 X1.01154 Y0.68895
G01 X1.00935 Y0.68592
G01 X1.00321 Y0.68000
G01 X0.99215 Y0.67430
G01 X0.98892 Y0.67324
G01 X0.98701 Y0.67308
G01 X0.96320 Y0.67308
G01 X0.95972 Y0.67362
G01 X0.94701 Y0.67999
G01 X0.94086 Y0.68592
G01 X0.93964 Y0.68737
G01 X0.93822 Y0.69003
G01 X0.93770 Y0.69181
G01 X0.93748 Y0.69404
G01 X0.93354 Y0.69404
G01 X0.93372 Y0.69180
G01 X0.93402 Y0.69029
G01 X0.93445 Y0.68888
G01 X0.93573 Y0.68616
G01 X0.93659 Y0.68488
G01 X0.93811 Y0.68310
G01 X0.94473 Y0.67678
G01 X0.95852 Y0.66987
G01 X0.96320 Y0.66914
G01 X0.98701 Y0.66914
G01 X0.98968 Y0.66938
G01 X0.99394 Y0.67080
G01 X1.00551 Y0.67680
G01 X1.01210 Y0.68310
G01 X1.01299 Y0.68413
G01 X1.01507 Y0.68722
G01 X1.02027 Y0.69782
G01 X1.02098 Y0.70007
G01 X1.02143 Y0.70356
G01 X1.02143 Y0.72737
G01 X1.02098 Y0.73087
G01 X1.02024 Y0.73318
G01 X1.01380 Y0.74585
G01 X1.00747 Y0.75246
G01 X1.00449 Y0.75475
G01 X0.99389 Y0.76017
G01 X0.99056 Y0.76133
G01 X0.98819 Y0.76171
G01 X0.96685 Y0.76178
G01 X0.96544 Y0.76051
G01 X0.96685 Y0.76178
G01 X0.96759 Y0.76914
G01 X0.96667 Y0.77016
G01 X0.96759 Y0.76914
G01 X1.00207 Y0.76918
G01 X1.00504 Y0.76963
G01 X1.00788 Y0.77064
G01 X1.00984 Y0.77173
G01 X1.01217 Y0.77365
G01 X1.01362 Y0.77536
G01 X1.01448 Y0.77664
G01 X1.01550 Y0.77863
G01 X1.01619 Y0.78077
G01 X1.01663 Y0.78375
G01 X1.01663 Y0.78529
G01 X1.01619 Y0.78827
G01 X1.01550 Y0.79040
G01 X1.01448 Y0.79240
G01 X1.01269 Y0.79482
G01 X1.01159 Y0.79591
G01 X1.00984 Y0.79730
G01 X1.00788 Y0.79839
G01 X1.00645 Y0.79898
G01 X1.00429 Y0.79960
G01 X1.00207 Y0.79985
G01 X0.95368 Y0.79989
G01 X0.95158 Y0.79973
G01 X0.94883 Y0.79909
G01 X0.94749 Y0.79857
G01 X0.94502 Y0.79720
G01 X0.94285 Y0.79541
G01 X0.94104 Y0.79324
G01 X0.94031 Y0.79208
G01 X0.93915 Y0.78950
G01 X0.93838 Y0.78605
G01 X0.93362 Y0.73843
G01 X0.93357 Y0.73627
G01 X0.93396 Y0.73340
G01 X0.93488 Y0.73066
G01 X0.93555 Y0.72933
G01 X0.93631 Y0.72813
G01 X0.93818 Y0.72592
G01 X0.93929 Y0.72493
G01 X0.94171 Y0.72334
G01 X0.94438 Y0.72223
G01 X0.94575 Y0.72187
G01 X0.94863 Y0.72154
G01 X0.95011 Y0.72159
G01 X0.95297 Y0.72209
G01 X0.95431 Y0.72252
G01 X0.95691 Y0.72379
G01 X0.95923 Y0.72553
G01 X0.96276 Y0.72905
G01 X0.96683 Y0.73105
G01 X0.96681 Y0.73115
G01 X0.96683 Y0.73105
G01 X0.98338 Y0.73105
G01 X0.98341 Y0.73115
G01 X0.98338 Y0.73105
G01 X0.98746 Y0.72907
G01 X0.98870 Y0.72782
G01 X0.99068 Y0.72375
G01 X0.99079 Y0.72377
G01 X0.99068 Y0.72375
G01 X0.99068 Y0.70719
G01 X0.99079 Y0.70717
G01 X0.99068 Y0.70719
G01 X0.98870 Y0.70312
G01 X0.98746 Y0.70187
G01 X0.98338 Y0.69989
G01 X0.98341 Y0.69979
G01 X0.98338 Y0.69989
G01 X0.96683 Y0.69989
G01 X0.96681 Y0.69979
G01 X0.96683 Y0.69989
G01 X0.96276 Y0.70188
G01 X0.95978 Y0.70491
G01 X0.95808 Y0.70636
G01 X0.95679 Y0.70722
G01 X0.95480 Y0.70825
G01 X0.95191 Y0.70912
G01 X0.94969 Y0.70938
G01 X0.94814 Y0.70938
G01 X0.94591 Y0.70912
G01 X0.94376 Y0.70850
G01 X0.94103 Y0.70722
G01 X0.93975 Y0.70636
G01 X0.93752 Y0.70434
G01 X0.93573 Y0.70192
G01 X0.93471 Y0.69992
G01 X0.93384 Y0.69704
G01 X0.93354 Y0.69404
G04 P0 ( dwell for no time -- G64 should not smooth over this point )
G00 Z0.07874 ( retract )

G00 X1.03273 Y0.68889 ( rapid move to begin. )
G01 F17.71654
( Mill infeed pass 1/1 )
G01 Z-0.00500
G04 P0 ( dwell for no time -- G64 should not smooth over this point )
G01 F35.43307
G01 X1.03273 Y0.68889
G01 X1.03303 Y0.68667
G01 X1.03346 Y0.68527
G01 X1.03487 Y0.68262
G01 X1.03608 Y0.68117
G01 X1.04153 Y0.67581
G01 X1.04406 Y0.67419
G01 X1.04706 Y0.67324
G01 X1.04896 Y0.67308
G01 X1.05159 Y0.67340
G01 X1.05328 Y0.67396
G01 X1.05499 Y0.67484
G01 X1.05704 Y0.67647
G01 X1.06264 Y0.68223
G01 X1.06388 Y0.68414
G01 X1.06480 Y0.68666
G01 X1.06509 Y0.68863
G01 X1.06503 Y0.69062
G01 X1.06480 Y0.69190
G01 X1.06417 Y0.69380
G01 X1.06296 Y0.69596
G01 X1.05672 Y0.70239
G01 X1.05494 Y0.70375
G01 X1.05364 Y0.70444
G01 X1.05115 Y0.70526
G01 X1.04853 Y0.70546
G01 X1.04631 Y0.70516
G01 X1.04454 Y0.70461
G01 X1.04289 Y0.70375
G01 X1.04083 Y0.70213
G01 X1.03607 Y0.69737
G01 X1.03487 Y0.69594
G01 X1.03375 Y0.69401
G01 X1.03303 Y0.69189
G01 X1.03273 Y0.68889
G01 X1.02882 Y0.68851
G01 X1.02896 Y0.69151
G01 X1.02926 Y0.69303
G01 X1.03028 Y0.69586
G01 X1.03097 Y0.69716
G01 X1.03183 Y0.69844
G01 X1.03328 Y0.70015
G01 X1.03862 Y0.70543
G01 X1.03975 Y0.70636
G01 X1.04233 Y0.70791
G01 X1.04376 Y0.70850
G01 X1.04591 Y0.70912
G01 X1.04814 Y0.70938
G01 X1.04969 Y0.70938
G01 X1.05266 Y0.70893
G01 X1.05550 Y0.70791
G01 X1.05679 Y0.70722
G01 X1.05921 Y0.70543
G01 X1.06547 Y0.69907
G01 X1.06610 Y0.69833
G01 X1.06729 Y0.69639
G01 X1.06832 Y0.69391
G01 X1.06868 Y0.69259
G01 X1.06902 Y0.68993
G01 X1.06902 Y0.68863
G01 X1.06890 Y0.68726
G01 X1.06832 Y0.68465
G01 X1.06729 Y0.68217
G01 X1.06610 Y0.68023
G01 X1.05921 Y0.67313
G01 X1.05808 Y0.67219
G01 X1.05581 Y0.67079
G01 X1.05328 Y0.66979
G01 X1.05166 Y0.66942
G01 X1.04900 Y0.66914
G01 X1.04591 Y0.66944
G01 X1.04289 Y0.67037
G01 X1.03950 Y0.67236
G01 X1.03276 Y0.67898
G01 X1.03097 Y0.68140
G01 X1.02969 Y0.68412
G01 X1.02926 Y0.68553
G01 X1.02882 Y0.68851
G01 X1.07640 Y0.74642
G01 X1.07686 Y0.75015
G01 X1.08187 Y0.77002
G01 X1.08281 Y0.77240
G01 X1.08820 Y0.78296
G01 X1.08964 Y0.78495
G01 X1.09707 Y0.79223
G01 X1.10977 Y0.79870
G01 X1.11209 Y0.79944
G01 X1.11558 Y0.79989
G01 X1.12571 Y0.79987
G01 X1.12777 Y0.79966
G01 X1.13198 Y0.79827
G01 X1.14259 Y0.79285
G01 X1.14557 Y0.79056
G01 X1.15187 Y0.78397
G01 X1.15787 Y0.77240
G01 X1.15881 Y0.77002
G01 X1.16400 Y0.74923
G01 X1.16423 Y0.74736
G01 X1.16429 Y0.72263
G01 X1.16383 Y0.71887
G01 X1.15857 Y0.69824
G01 X1.15316 Y0.68719
G01 X1.15108 Y0.68413
G01 X1.15019 Y0.68310
G01 X1.14358 Y0.67678
G01 X1.13091 Y0.67033
G01 X1.12860 Y0.66959
G01 X1.12511 Y0.66914
G01 X1.11558 Y0.66914
G01 X1.11209 Y0.66959
G01 X1.10983 Y0.67030
G01 X1.09923 Y0.67550
G01 X1.09615 Y0.67759
G01 X1.09512 Y0.67848
G01 X1.08881 Y0.68508
G01 X1.08247 Y0.69741
G01 X1.08187 Y0.69904
G01 X1.07686 Y0.71887
G01 X1.07649 Y0.72110
G01 X1.07640 Y0.74642
G01 X1.08034 Y0.74642
G01 X1.08068 Y0.74920
G01 X1.08557 Y0.76865
G01 X1.08632 Y0.77061
G01 X1.09170 Y0.78117
G01 X1.09243 Y0.78216
G01 X1.09937 Y0.78903
G01 X1.11154 Y0.79518
G01 X1.11269 Y0.79555
G01 X1.11498 Y0.79591
G01 X1.12511 Y0.79595
G01 X1.12746 Y0.79568
G01 X1.13022 Y0.79475
G01 X1.13974 Y0.78999
G01 X1.14275 Y0.78781
G01 X1.14867 Y0.78167
G01 X1.15437 Y0.77061
G01 X1.15525 Y0.76823
G01 X1.16027 Y0.74782
G01 X1.16035 Y0.72262
G01 X1.16001 Y0.71983
G01 X1.15472 Y0.69922
G01 X1.14929 Y0.68838
G01 X1.14744 Y0.68592
G01 X1.14130 Y0.67999
G01 X1.12859 Y0.67362
G01 X1.12511 Y0.67308
G01 X1.11498 Y0.67313
G01 X1.11269 Y0.67348
G01 X1.11157 Y0.67384
G01 X1.10040 Y0.67938
G01 X1.09794 Y0.68123
G01 X1.09239 Y0.68690
G01 X1.09170 Y0.68788
G01 X1.08581 Y0.69959
G01 X1.08068 Y0.71983
G01 X1.08034 Y0.72225
G01 X1.08034 Y0.74642
G04 P0 ( dwell for no time -- G64 should not smooth over this point )
G00 Z0.07874 ( retract )

G00 X1.10321 Y0.72402 ( rapid move to begin. )
G01 F17.71654
( Mill infeed pass 1/1 )
G01 Z-0.00500
G04 P0 ( dwell for no time -- G64 should not smooth over this point )
G01 F35.43307
G01 X1.10321 Y0.72402
G01 X1.10733 Y0.70756
G01 X1.11069 Y0.70082
G01 X1.11283 Y0.69868
G01 X1.11828 Y0.69595
G01 X1.12241 Y0.69595
G01 X1.12786 Y0.69868
G01 X1.12999 Y0.70082
G01 X1.13336 Y0.70756
G01 X1.13748 Y0.72402
G01 X1.13748 Y0.74501
G01 X1.13336 Y0.76148
G01 X1.12999 Y0.76822
G01 X1.12786 Y0.77036
G01 X1.12241 Y0.77308
G01 X1.11828 Y0.77308
G01 X1.11283 Y0.77036
G01 X1.11069 Y0.76822
G01 X1.10733 Y0.76148
G01 X1.10321 Y0.74501
G01 X1.10321 Y0.72402
G01 X1.10715 Y0.72450
G01 X1.11102 Y0.70892
G01 X1.11389 Y0.70312
G01 X1.11513 Y0.70187
G01 X1.11921 Y0.69989
G01 X1.11919 Y0.69979
G01 X1.11921 Y0.69989
G01 X1.12148 Y0.69989
G01 X1.12150 Y0.69979
G01 X1.12148 Y0.69989
G01 X1.12555 Y0.70187
G01 X1.12680 Y0.70312
G01 X1.12967 Y0.70892
G01 X1.13357 Y0.72450
G01 X1.13357 Y0.74453
G01 X1.12967 Y0.76011
G01 X1.12680 Y0.76592
G01 X1.12555 Y0.76716
G01 X1.12148 Y0.76914
G01 X1.12150 Y0.76925
G01 X1.12148 Y0.76914
G01 X1.11921 Y0.76914
G01 X1.11919 Y0.76925
G01 X1.11921 Y0.76914
G01 X1.11513 Y0.76716
G01 X1.11389 Y0.76592
G01 X1.11102 Y0.76011
G01 X1.10712 Y0.74453
G01 X1.10715 Y0.72450
G04 P0 ( dwell for no time -- G64 should not smooth over this point )
G00 Z0.07874 ( retract )

G00 X1.21082 Y0.72462 ( rapid move to begin. )
G01 F17.71654
( Mill infeed pass 1/1 )
G01 Z-0.00500
G04 P0 ( dwell for no time -- G64 should not smooth over this point )
G01 F35.43307
G01 X1.21082 Y0.72462
G01 X1.21082 Y0.73313
G01 X1.22957 Y0.78938
G01 X1.23080 Y0.79213
G01 X1.23254 Y0.79459
G01 X1.23414 Y0.79616
G01 X1.23536 Y0.79711
G01 X1.23728 Y0.79827
G01 X1.24009 Y0.79935
G01 X1.24306 Y0.79985
G01 X1.24531 Y0.79983
G01 X1.24684 Y0.79964
G01 X1.24974 Y0.79882
G01 X1.25242 Y0.79746
G01 X1.25479 Y0.79560
G01 X1.25630 Y0.79394
G01 X1.25790 Y0.79139
G01 X1.25874 Y0.78931
G01 X1.25915 Y0.78782
G01 X1.25951 Y0.78483
G01 X1.25927 Y0.78183
G01 X1.25874 Y0.77966
G01 X1.22513 Y0.67895
G01 X1.22381 Y0.67632
G01 X1.22298 Y0.67514
G01 X1.22097 Y0.67299
G01 X1.21978 Y0.67205
G01 X1.21724 Y0.67057
G01 X1.21590 Y0.67003
G01 X1.21304 Y0.66932
G01 X1.21154 Y0.66918
G01 X1.20860 Y0.66932
G01 X1.20574 Y0.67003
G01 X1.20306 Y0.67127
G01 X1.20185 Y0.67205
G01 X1.19964 Y0.67399
G01 X1.19866 Y0.67514
G01 X1.19783 Y0.67632
G01 X1.19651 Y0.67895
G01 X1.16290 Y0.77966
G01 X1.16237 Y0.78183
G01 X1.16213 Y0.78483
G01 X1.16607 Y0.78494
G01 X1.16658 Y0.78791
G01 X1.16745 Y0.78997
G01 X1.16845 Y0.79153
G01 X1.16999 Y0.79316
G01 X1.17150 Y0.79425
G01 X1.17387 Y0.79537
G01 X1.17568 Y0.79580
G01 X1.17791 Y0.79593
G01 X1.18087 Y0.79543
G01 X1.18294 Y0.79456
G01 X1.18418 Y0.79377
G01 X1.18636 Y0.79171
G01 X1.18742 Y0.79018
G01 X1.18834 Y0.78813
G01 X1.21082 Y0.72068
G01 X1.23330 Y0.78813
G01 X1.23443 Y0.79051
G01 X1.23551 Y0.79201
G01 X1.23685 Y0.79330
G01 X1.23904 Y0.79475
G01 X1.24113 Y0.79555
G01 X1.24296 Y0.79588
G01 X1.24596 Y0.79580
G01 X1.24813 Y0.79523
G01 X1.25014 Y0.79425
G01 X1.25134 Y0.79340
G01 X1.25341 Y0.79121
G01 X1.25438 Y0.78963
G01 X1.25506 Y0.78790
G01 X1.25557 Y0.78494
G01 X1.25550 Y0.78309
G01 X1.25500 Y0.78090
G01 X1.22153 Y0.68055
G01 X1.22058 Y0.67858
G01 X1.21975 Y0.67740
G01 X1.21764 Y0.67535
G01 X1.21576 Y0.67422
G01 X1.21370 Y0.67346
G01 X1.21154 Y0.67312
G01 X1.21010 Y0.67312
G01 X1.20721 Y0.67368
G01 X1.20521 Y0.67457
G01 X1.20400 Y0.67535
G01 X1.20189 Y0.67740
G01 X1.20069 Y0.67923
G01 X1.19997 Y0.68090
G01 X1.16664 Y0.78090
G01 X1.16621 Y0.78271
G01 X1.16607 Y0.78494
G01 X1.16213 Y0.78483
G01 X1.16249 Y0.78782
G01 X1.16290 Y0.78931
G01 X1.16342 Y0.79069
G01 X1.16490 Y0.79331
G01 X1.16685 Y0.79560
G01 X1.16922 Y0.79746
G01 X1.17056 Y0.79822
G01 X1.17263 Y0.79910
G01 X1.17480 Y0.79964
G01 X1.17633 Y0.79983
G01 X1.17858 Y0.79985
G01 X1.18079 Y0.79951
G01 X1.18228 Y0.79910
G01 X1.18436 Y0.79827
G01 X1.18691 Y0.79666
G01 X1.18857 Y0.79515
G01 X1.18958 Y0.79398
G01 X1.19084 Y0.79213
G01 X1.19207 Y0.78938
G01 X1.21082 Y0.73313
G04 P0 ( dwell for no time -- G64 should not smooth over this point )
G00 Z0.07874 ( retract )

G00 X1.16988 Y0.89595 ( rapid move to begin. )
G01 F17.71654
( Mill infeed pass 1/1 )
G01 Z-0.00500
G04 P0 ( dwell for no time -- G64 should not smooth over this point )
G01 F35.43307
G01 X1.16988 Y0.89595
G01 X1.18039 Y0.89595
G01 X1.19036 Y0.89928
G01 X1.19666 Y0.90558
G01 X1.20003 Y0.91232
G01 X1.20414 Y0.92878
G01 X1.20414 Y0.94025
G01 X1.20003 Y0.95672
G01 X1.19666 Y0.96346
G01 X1.19036 Y0.96976
G01 X1.18039 Y0.97308
G01 X1.16988 Y0.97308
G01 X1.16988 Y0.89595
G01 X1.17381 Y0.89989
G01 X1.17381 Y0.96914
G01 X1.17266 Y0.97030
G01 X1.17381 Y0.96914
G01 X1.17976 Y0.96919
G01 X1.18823 Y0.96632
G01 X1.18829 Y0.96641
G01 X1.18823 Y0.96632
G01 X1.19346 Y0.96115
G01 X1.19634 Y0.95535
G01 X1.20024 Y0.93977
G01 X1.20024 Y0.92926
G01 X1.19634 Y0.91368
G01 X1.19346 Y0.90788
G01 X1.18823 Y0.90272
G01 X1.18829 Y0.90263
G01 X1.18823 Y0.90272
G01 X1.17976 Y0.89984
G01 X1.17381 Y0.89989
G04 P0 ( dwell for no time -- G64 should not smooth over this point )
G00 Z0.07874 ( retract )

G00 X1.14700 Y0.88452 ( rapid move to begin. )
G01 F17.71654
( Mill infeed pass 1/1 )
G01 Z-0.00500
G04 P0 ( dwell for no time -- G64 should not smooth over this point )
G01 F35.43307
G01 X1.14700 Y0.88452
G01 X1.14716 Y0.88267
G01 X1.14774 Y0.88050
G01 X1.14916 Y0.87785
G01 X1.15035 Y0.87643
G01 X1.15177 Y0.87524
G01 X1.15443 Y0.87382
G01 X1.15621 Y0.87330
G01 X1.15845 Y0.87308
G01 X1.18408 Y0.87323
G01 X1.20013 Y0.87842
G01 X1.20327 Y0.88004
G01 X1.21413 Y0.89070
G01 X1.21629 Y0.89370
G01 X1.22155 Y0.90436
G01 X1.22667 Y0.92459
G01 X1.22702 Y0.92737
G01 X1.22702 Y0.94166
G01 X1.22667 Y0.94444
G01 X1.22155 Y0.96467
G01 X1.21629 Y0.97533
G01 X1.21413 Y0.97833
G01 X1.20372 Y0.98861
G01 X1.20276 Y0.98931
G01 X1.20013 Y0.99061
G01 X1.18408 Y0.99581
G01 X1.15845 Y0.99595
G01 X1.15659 Y0.99579
G01 X1.15371 Y0.99492
G01 X1.15208 Y0.99403
G01 X1.15035 Y0.99260
G01 X1.14916 Y0.99118
G01 X1.14804 Y0.98924
G01 X1.14716 Y0.98637
G01 X1.14700 Y0.98452
G01 X1.14700 Y0.88452
G01 X1.14306 Y0.88452
G01 X1.14306 Y0.98452
G01 X1.14325 Y0.98675
G01 X1.14355 Y0.98827
G01 X1.14423 Y0.99040
G01 X1.14526 Y0.99240
G01 X1.14612 Y0.99368
G01 X1.14757 Y0.99539
G01 X1.14928 Y0.99684
G01 X1.15056 Y0.99770
G01 X1.15328 Y0.99898
G01 X1.15469 Y0.99941
G01 X1.15620 Y0.99971
G01 X1.15847 Y0.99989
G01 X1.18470 Y0.99969
G01 X1.20135 Y0.99435
G01 X1.20457 Y0.99281
G01 X1.20649 Y0.99141
G01 X1.21690 Y0.98114
G01 X1.21775 Y0.98014
G01 X1.21982 Y0.97708
G01 X1.22524 Y0.96603
G01 X1.23067 Y0.94444
G01 X1.23096 Y0.94166
G01 X1.23096 Y0.92737
G01 X1.23049 Y0.92363
G01 X1.22524 Y0.90300
G01 X1.21982 Y0.89196
G01 X1.21775 Y0.88889
G01 X1.21689 Y0.88790
G01 X1.20558 Y0.87685
G01 X1.20135 Y0.87468
G01 X1.18470 Y0.86934
G01 X1.15847 Y0.86914
G01 X1.15544 Y0.86944
G01 X1.15328 Y0.87005
G01 X1.15186 Y0.87064
G01 X1.14990 Y0.87173
G01 X1.14757 Y0.87365
G01 X1.14612 Y0.87536
G01 X1.14526 Y0.87664
G01 X1.14397 Y0.87936
G01 X1.14325 Y0.88228
G01 X1.14306 Y0.88452
G04 P0 ( dwell for no time -- G64 should not smooth over this point )
G00 Z0.07874 ( retract )

G00 X1.09837 Y0.93139 ( rapid move to begin. )
G01 F17.71654
( Mill infeed pass 1/1 )
G01 Z-0.00500
G04 P0 ( dwell for no time -- G64 should not smooth over this point )
G01 F35.43307
G01 X1.09837 Y0.93139
G01 X1.09545 Y0.94241
G01 X1.09545 Y0.98452
G01 X1.09563 Y0.98675
G01 X1.09593 Y0.98827
G01 X1.09695 Y0.99110
G01 X1.09850 Y0.99368
G01 X1.09995 Y0.99539
G01 X1.10228 Y0.99730
G01 X1.10424 Y0.99839
G01 X1.10566 Y0.99898
G01 X1.10782 Y0.99960
G01 X1.11005 Y0.99985
G01 X1.11159 Y0.99985
G01 X1.11382 Y0.99960
G01 X1.11670 Y0.99872
G01 X1.11870 Y0.99770
G01 X1.12112 Y0.99591
G01 X1.12221 Y0.99482
G01 X1.12400 Y0.99240
G01 X1.12502 Y0.99040
G01 X1.12571 Y0.98827
G01 X1.12616 Y0.98529
G01 X1.12619 Y0.88452
G01 X1.12575 Y0.88094
G01 X1.12483 Y0.87822
G01 X1.12419 Y0.87697
G01 X1.12255 Y0.87461
G01 X1.12050 Y0.87260
G01 X1.11932 Y0.87172
G01 X1.11678 Y0.87037
G01 X1.11404 Y0.86950
G01 X1.11266 Y0.86927
G01 X1.10979 Y0.86920
G01 X1.10833 Y0.86936
G01 X1.10555 Y0.87009
G01 X1.10295 Y0.87133
G01 X1.10064 Y0.87302
G01 X1.09963 Y0.87400
G01 X1.09747 Y0.87689
G01 X1.06905 Y0.92663
G01 X1.06612 Y0.93765
G01 X1.06905 Y0.92663
G01 X1.06905 Y0.88452
G01 X1.06887 Y0.88228
G01 X1.06857 Y0.88077
G01 X1.06788 Y0.87863
G01 X1.06686 Y0.87664
G01 X1.06600 Y0.87536
G01 X1.06397 Y0.87313
G01 X1.06222 Y0.87173
G01 X1.06026 Y0.87064
G01 X1.05883 Y0.87005
G01 X1.05668 Y0.86944
G01 X1.05445 Y0.86918
G01 X1.05290 Y0.86918
G01 X1.05068 Y0.86944
G01 X1.04852 Y0.87005
G01 X1.04710 Y0.87064
G01 X1.04513 Y0.87173
G01 X1.04280 Y0.87365
G01 X1.04135 Y0.87536
G01 X1.04050 Y0.87664
G01 X1.03947 Y0.87863
G01 X1.03879 Y0.88077
G01 X1.03849 Y0.88228
G01 X1.03830 Y0.88452
G01 X1.04224 Y0.88452
G01 X1.04240 Y0.88267
G01 X1.04298 Y0.88050
G01 X1.04440 Y0.87785
G01 X1.04559 Y0.87643
G01 X1.04732 Y0.87501
G01 X1.04895 Y0.87412
G01 X1.05144 Y0.87330
G01 X1.05329 Y0.87310
G01 X1.05591 Y0.87330
G01 X1.05769 Y0.87382
G01 X1.05970 Y0.87481
G01 X1.06176 Y0.87643
G01 X1.06296 Y0.87785
G01 X1.06437 Y0.88050
G01 X1.06495 Y0.88267
G01 X1.06511 Y0.88452
G01 X1.06511 Y0.94145
G01 X1.10089 Y0.87884
G01 X1.10237 Y0.87682
G01 X1.10338 Y0.87585
G01 X1.10512 Y0.87461
G01 X1.10777 Y0.87351
G01 X1.10987 Y0.87313
G01 X1.11201 Y0.87315
G01 X1.11339 Y0.87339
G01 X1.11542 Y0.87406
G01 X1.11788 Y0.87554
G01 X1.11943 Y0.87701
G01 X1.12029 Y0.87812
G01 X1.12158 Y0.88068
G01 X1.12211 Y0.88275
G01 X1.12226 Y0.88452
G01 X1.12226 Y0.98452
G01 X1.12209 Y0.98637
G01 X1.12122 Y0.98924
G01 X1.12010 Y0.99118
G01 X1.11862 Y0.99286
G01 X1.11684 Y0.99423
G01 X1.11520 Y0.99508
G01 X1.11305 Y0.99574
G01 X1.11120 Y0.99594
G01 X1.10821 Y0.99564
G01 X1.10609 Y0.99492
G01 X1.10415 Y0.99380
G01 X1.10273 Y0.99260
G01 X1.10111 Y0.99054
G01 X1.10025 Y0.98889
G01 X1.09955 Y0.98637
G01 X1.09938 Y0.98452
G01 X1.09938 Y0.92758
G01 X1.06361 Y0.99019
G01 X1.06212 Y0.99221
G01 X1.06112 Y0.99319
G01 X1.05937 Y0.99442
G01 X1.05743 Y0.99531
G01 X1.05462 Y0.99590
G01 X1.05248 Y0.99588
G01 X1.05039 Y0.99546
G01 X1.04841 Y0.99466
G01 X1.04721 Y0.99394
G01 X1.04557 Y0.99257
G01 X1.04421 Y0.99091
G01 X1.04291 Y0.98835
G01 X1.04239 Y0.98628
G01 X1.04224 Y0.98452
G01 X1.04224 Y0.88452
G01 X1.03830 Y0.88452
G01 X1.03830 Y0.98452
G01 X1.03874 Y0.98810
G01 X1.03967 Y0.99082
G01 X1.04109 Y0.99331
G01 X1.04295 Y0.99550
G01 X1.04518 Y0.99731
G01 X1.04771 Y0.99867
G01 X1.05045 Y0.99953
G01 X1.05330 Y0.99987
G01 X1.05617 Y0.99967
G01 X1.05895 Y0.99894
G01 X1.06024 Y0.99840
G01 X1.06271 Y0.99694
G01 X1.06487 Y0.99504
G01 X1.06702 Y0.99215
G01 X1.09545 Y0.94241
G04 P0 ( dwell for no time -- G64 should not smooth over this point )
G00 Z0.07874 ( retract )

G00 X1.03273 Y1.16889 ( rapid move to begin. )
G01 F17.71654
( Mill infeed pass 1/1 )
G01 Z-0.00500
G04 P0 ( dwell for no time -- G64 should not smooth over this point )
G01 F35.43307
G01 X1.03273 Y1.16889
G01 X1.03303 Y1.16667
G01 X1.03346 Y1.16527
G01 X1.03487 Y1.16262
G01 X1.03608 Y1.16117
G01 X1.04153 Y1.15581
G01 X1.04406 Y1.15419
G01 X1.04706 Y1.15324
G01 X1.04896 Y1.15308
G01 X1.05159 Y1.15340
G01 X1.05328 Y1.15396
G01 X1.05499 Y1.15484
G01 X1.05704 Y1.15647
G01 X1.06264 Y1.16223
G01 X1.06388 Y1.16414
G01 X1.06480 Y1.16665
G01 X1.06509 Y1.16863
G01 X1.06503 Y1.17062
G01 X1.06480 Y1.17190
G01 X1.06417 Y1.17380
G01 X1.06296 Y1.17596
G01 X1.05672 Y1.18239
G01 X1.05494 Y1.18375
G01 X1.05364 Y1.18444
G01 X1.05152 Y1.18516
G01 X1.04853 Y1.18546
G01 X1.04631 Y1.18516
G01 X1.04454 Y1.18461
G01 X1.04289 Y1.18375
G01 X1.04083 Y1.18213
G01 X1.03607 Y1.17737
G01 X1.03487 Y1.17594
G01 X1.03375 Y1.17401
G01 X1.03303 Y1.17189
G01 X1.03273 Y1.16889
G01 X1.02882 Y1.16851
G01 X1.02896 Y1.17152
G01 X1.02926 Y1.17303
G01 X1.03028 Y1.17586
G01 X1.03097 Y1.17716
G01 X1.03183 Y1.17844
G01 X1.03328 Y1.18015
G01 X1.03862 Y1.18543
G01 X1.03975 Y1.18636
G01 X1.04233 Y1.18791
G01 X1.04376 Y1.18850
G01 X1.04591 Y1.18912
G01 X1.04892 Y1.18941
G01 X1.05115 Y1.18923
G01 X1.05266 Y1.18893
G01 X1.05550 Y1.18791
G01 X1.05679 Y1.18722
G01 X1.05921 Y1.18543
G01 X1.06547 Y1.17907
G01 X1.06610 Y1.17833
G01 X1.06729 Y1.17639
G01 X1.06832 Y1.17392
G01 X1.06868 Y1.17259
G01 X1.06902 Y1.16993
G01 X1.06902 Y1.16863
G01 X1.06890 Y1.16726
G01 X1.06832 Y1.16465
G01 X1.06729 Y1.16217
G01 X1.06610 Y1.16023
G01 X1.05921 Y1.15313
G01 X1.05808 Y1.15219
G01 X1.05581 Y1.15079
G01 X1.05328 Y1.14979
G01 X1.05166 Y1.14942
G01 X1.04900 Y1.14914
G01 X1.04591 Y1.14944
G01 X1.04289 Y1.15037
G01 X1.03950 Y1.15236
G01 X1.03276 Y1.15898
G01 X1.03097 Y1.16140
G01 X1.02969 Y1.16413
G01 X1.02926 Y1.16553
G01 X1.02882 Y1.16851
G01 X1.07640 Y1.22642
G01 X1.07686 Y1.23015
G01 X1.08187 Y1.25002
G01 X1.08281 Y1.25240
G01 X1.08820 Y1.26296
G01 X1.08964 Y1.26495
G01 X1.09707 Y1.27223
G01 X1.10977 Y1.27870
G01 X1.11209 Y1.27944
G01 X1.11558 Y1.27989
G01 X1.12571 Y1.27987
G01 X1.12777 Y1.27966
G01 X1.13198 Y1.27827
G01 X1.14259 Y1.27285
G01 X1.14557 Y1.27056
G01 X1.15187 Y1.26397
G01 X1.15787 Y1.25240
G01 X1.15881 Y1.25002
G01 X1.16400 Y1.22923
G01 X1.16423 Y1.22736
G01 X1.16429 Y1.20263
G01 X1.16383 Y1.19887
G01 X1.15857 Y1.17824
G01 X1.15316 Y1.16719
G01 X1.15108 Y1.16413
G01 X1.15019 Y1.16310
G01 X1.14358 Y1.15678
G01 X1.13091 Y1.15033
G01 X1.12860 Y1.14959
G01 X1.12511 Y1.14914
G01 X1.11558 Y1.14914
G01 X1.11209 Y1.14959
G01 X1.10983 Y1.15030
G01 X1.09923 Y1.15550
G01 X1.09615 Y1.15759
G01 X1.09512 Y1.15848
G01 X1.08881 Y1.16508
G01 X1.08247 Y1.17741
G01 X1.08187 Y1.17904
G01 X1.07686 Y1.19887
G01 X1.07649 Y1.20110
G01 X1.07640 Y1.22642
G01 X1.08034 Y1.22642
G01 X1.08068 Y1.22920
G01 X1.08557 Y1.24865
G01 X1.08632 Y1.25061
G01 X1.09170 Y1.26117
G01 X1.09243 Y1.26216
G01 X1.09937 Y1.26903
G01 X1.11154 Y1.27518
G01 X1.11269 Y1.27555
G01 X1.11498 Y1.27591
G01 X1.12511 Y1.27595
G01 X1.12746 Y1.27568
G01 X1.13022 Y1.27475
G01 X1.13974 Y1.26998
G01 X1.14275 Y1.26781
G01 X1.14867 Y1.26167
G01 X1.15437 Y1.25061
G01 X1.15525 Y1.24823
G01 X1.16027 Y1.22782
G01 X1.16035 Y1.20262
G01 X1.16001 Y1.19983
G01 X1.15472 Y1.17921
G01 X1.14929 Y1.16838
G01 X1.14744 Y1.16592
G01 X1.14130 Y1.15999
G01 X1.12859 Y1.15362
G01 X1.12511 Y1.15308
G01 X1.11498 Y1.15313
G01 X1.11269 Y1.15348
G01 X1.11157 Y1.15384
G01 X1.10040 Y1.15938
G01 X1.09794 Y1.16123
G01 X1.09239 Y1.16691
G01 X1.09170 Y1.16788
G01 X1.08581 Y1.17959
G01 X1.08068 Y1.19983
G01 X1.08034 Y1.20225
G01 X1.08034 Y1.22642
G04 P0 ( dwell for no time -- G64 should not smooth over this point )
G00 Z0.07874 ( retract )

G00 X1.10321 Y1.20402 ( rapid move to begin. )
G01 F17.71654
( Mill infeed pass 1/1 )
G01 Z-0.00500
G04 P0 ( dwell for no time -- G64 should not smooth over this point )
G01 F35.43307
G01 X1.10321 Y1.20402
G01 X1.10733 Y1.18756
G01 X1.11069 Y1.18082
G01 X1.11283 Y1.17868
G01 X1.11828 Y1.17596
G01 X1.12241 Y1.17596
G01 X1.12786 Y1.17868
G01 X1.12999 Y1.18082
G01 X1.13336 Y1.18756
G01 X1.13748 Y1.20402
G01 X1.13748 Y1.22501
G01 X1.13336 Y1.24148
G01 X1.12999 Y1.24822
G01 X1.12786 Y1.25036
G01 X1.12241 Y1.25308
G01 X1.11828 Y1.25308
G01 X1.11283 Y1.25036
G01 X1.11069 Y1.24822
G01 X1.10733 Y1.24148
G01 X1.10321 Y1.22501
G01 X1.10321 Y1.20402
G01 X1.10715 Y1.20450
G01 X1.11102 Y1.18892
G01 X1.11389 Y1.18312
G01 X1.11513 Y1.18187
G01 X1.11921 Y1.17989
G01 X1.11919 Y1.17979
G01 X1.11921 Y1.17989
G01 X1.12148 Y1.17989
G01 X1.12150 Y1.17979
G01 X1.12148 Y1.17989
G01 X1.12555 Y1.18187
G01 X1.12680 Y1.18312
G01 X1.12967 Y1.18892
G01 X1.13357 Y1.20450
G01 X1.13357 Y1.22453
G01 X1.12967 Y1.24011
G01 X1.12680 Y1.24592
G01 X1.12555 Y1.24716
G01 X1.12148 Y1.24914
G01 X1.12150 Y1.24925
G01 X1.12148 Y1.24914
G01 X1.11921 Y1.24914
G01 X1.11919 Y1.24925
G01 X1.11921 Y1.24914
G01 X1.11513 Y1.24716
G01 X1.11389 Y1.24592
G01 X1.11102 Y1.24011
G01 X1.10712 Y1.22453
G01 X1.10715 Y1.20450
G04 P0 ( dwell for no time -- G64 should not smooth over this point )
G00 Z0.07874 ( retract )

G00 X1.21082 Y1.20462 ( rapid move to begin. )
G01 F17.71654
( Mill infeed pass 1/1 )
G01 Z-0.00500
G04 P0 ( dwell for no time -- G64 should not smooth over this point )
G01 F35.43307
G01 X1.21082 Y1.20462
G01 X1.21082 Y1.21313
G01 X1.22957 Y1.26938
G01 X1.23080 Y1.27213
G01 X1.23254 Y1.27459
G01 X1.23414 Y1.27616
G01 X1.23536 Y1.27711
G01 X1.23728 Y1.27827
G01 X1.24009 Y1.27935
G01 X1.24230 Y1.27976
G01 X1.24384 Y1.27987
G01 X1.24608 Y1.27977
G01 X1.24827 Y1.27931
G01 X1.24974 Y1.27882
G01 X1.25242 Y1.27746
G01 X1.25479 Y1.27560
G01 X1.25674 Y1.27331
G01 X1.25790 Y1.27139
G01 X1.25874 Y1.26931
G01 X1.25915 Y1.26782
G01 X1.25951 Y1.26483
G01 X1.25941 Y1.26259
G01 X1.25874 Y1.25966
G01 X1.22513 Y1.15895
G01 X1.22381 Y1.15632
G01 X1.22298 Y1.15514
G01 X1.22097 Y1.15299
G01 X1.21978 Y1.15205
G01 X1.21724 Y1.15057
G01 X1.21590 Y1.15003
G01 X1.21304 Y1.14932
G01 X1.21154 Y1.14918
G01 X1.20860 Y1.14932
G01 X1.20574 Y1.15003
G01 X1.20306 Y1.15126
G01 X1.20185 Y1.15205
G01 X1.19964 Y1.15399
G01 X1.19866 Y1.15514
G01 X1.19783 Y1.15632
G01 X1.19651 Y1.15895
G01 X1.16290 Y1.25966
G01 X1.16223 Y1.26259
G01 X1.16213 Y1.26483
G01 X1.16607 Y1.26494
G01 X1.16658 Y1.26791
G01 X1.16745 Y1.26997
G01 X1.16845 Y1.27153
G01 X1.16971 Y1.27289
G01 X1.17150 Y1.27425
G01 X1.17387 Y1.27537
G01 X1.17568 Y1.27580
G01 X1.17791 Y1.27593
G01 X1.18087 Y1.27543
G01 X1.18294 Y1.27456
G01 X1.18418 Y1.27377
G01 X1.18636 Y1.27171
G01 X1.18760 Y1.26984
G01 X1.18834 Y1.26813
G01 X1.21082 Y1.20068
G01 X1.23330 Y1.26813
G01 X1.23443 Y1.27051
G01 X1.23551 Y1.27201
G01 X1.23685 Y1.27330
G01 X1.23904 Y1.27475
G01 X1.24151 Y1.27563
G01 X1.24373 Y1.27593
G01 X1.24558 Y1.27587
G01 X1.24813 Y1.27523
G01 X1.24982 Y1.27445
G01 X1.25165 Y1.27316
G01 X1.25341 Y1.27121
G01 X1.25438 Y1.26963
G01 X1.25506 Y1.26791
G01 X1.25557 Y1.26494
G01 X1.25550 Y1.26309
G01 X1.25500 Y1.26090
G01 X1.22153 Y1.16055
G01 X1.22058 Y1.15857
G01 X1.21975 Y1.15740
G01 X1.21764 Y1.15535
G01 X1.21576 Y1.15422
G01 X1.21370 Y1.15346
G01 X1.21154 Y1.15311
G01 X1.21010 Y1.15311
G01 X1.20721 Y1.15368
G01 X1.20521 Y1.15457
G01 X1.20400 Y1.15535
G01 X1.20189 Y1.15740
G01 X1.20069 Y1.15923
G01 X1.19997 Y1.16090
G01 X1.16664 Y1.26090
G01 X1.16621 Y1.26271
G01 X1.16607 Y1.26494
G01 X1.16213 Y1.26483
G01 X1.16249 Y1.26782
G01 X1.16290 Y1.26931
G01 X1.16374 Y1.27139
G01 X1.16490 Y1.27331
G01 X1.16685 Y1.27560
G01 X1.16802 Y1.27661
G01 X1.16987 Y1.27787
G01 X1.17263 Y1.27910
G01 X1.17480 Y1.27964
G01 X1.17633 Y1.27983
G01 X1.17858 Y1.27985
G01 X1.18079 Y1.27951
G01 X1.18228 Y1.27910
G01 X1.18436 Y1.27827
G01 X1.18691 Y1.27666
G01 X1.18857 Y1.27515
G01 X1.18958 Y1.27398
G01 X1.19119 Y1.27144
G01 X1.19207 Y1.26938
G01 X1.21082 Y1.21313
G04 P0 ( dwell for no time -- G64 should not smooth over this point )
G00 Z0.07874 ( retract )

G00 X1.17381 Y1.37989 ( rapid move to begin. )
G01 F17.71654
( Mill infeed pass 1/1 )
G01 Z-0.00500
G04 P0 ( dwell for no time -- G64 should not smooth over this point )
G01 F35.43307
G01 X1.17381 Y1.37989
G01 X1.17976 Y1.37984
G01 X1.18823 Y1.38272
G01 X1.18829 Y1.38262
G01 X1.18823 Y1.38272
G01 X1.19346 Y1.38788
G01 X1.19634 Y1.39368
G01 X1.20024 Y1.40926
G01 X1.20024 Y1.41977
G01 X1.19634 Y1.43535
G01 X1.19346 Y1.44115
G01 X1.18823 Y1.44632
G01 X1.18829 Y1.44641
G01 X1.18823 Y1.44632
G01 X1.17976 Y1.44919
G01 X1.17381 Y1.44914
G01 X1.17266 Y1.45030
G01 X1.17381 Y1.44914
G01 X1.17381 Y1.37989
G01 X1.16988 Y1.37596
G01 X1.16988 Y1.45308
G01 X1.18039 Y1.45308
G01 X1.19036 Y1.44976
G01 X1.19666 Y1.44346
G01 X1.20003 Y1.43672
G01 X1.20414 Y1.42025
G01 X1.20414 Y1.40878
G01 X1.20003 Y1.39232
G01 X1.19666 Y1.38558
G01 X1.19036 Y1.37928
G01 X1.18039 Y1.37596
G01 X1.16988 Y1.37596
G04 P0 ( dwell for no time -- G64 should not smooth over this point )
G00 Z0.07874 ( retract )

G00 X1.14700 Y1.36452 ( rapid move to begin. )
G01 F17.71654
( Mill infeed pass 1/1 )
G01 Z-0.00500
G04 P0 ( dwell for no time -- G64 should not smooth over this point )
G01 F35.43307
G01 X1.14700 Y1.36452
G01 X1.14716 Y1.36267
G01 X1.14774 Y1.36051
G01 X1.14916 Y1.35785
G01 X1.15035 Y1.35643
G01 X1.15177 Y1.35524
G01 X1.15443 Y1.35382
G01 X1.15659 Y1.35324
G01 X1.15845 Y1.35308
G01 X1.18408 Y1.35323
G01 X1.20013 Y1.35842
G01 X1.20327 Y1.36004
G01 X1.21413 Y1.37070
G01 X1.21629 Y1.37370
G01 X1.22155 Y1.38436
G01 X1.22667 Y1.40459
G01 X1.22702 Y1.40738
G01 X1.22702 Y1.42166
G01 X1.22667 Y1.42444
G01 X1.22155 Y1.44467
G01 X1.21629 Y1.45533
G01 X1.21413 Y1.45833
G01 X1.20372 Y1.46861
G01 X1.20276 Y1.46931
G01 X1.20013 Y1.47061
G01 X1.18408 Y1.47581
G01 X1.15845 Y1.47595
G01 X1.15659 Y1.47579
G01 X1.15371 Y1.47492
G01 X1.15177 Y1.47380
G01 X1.15035 Y1.47260
G01 X1.14916 Y1.47118
G01 X1.14804 Y1.46924
G01 X1.14716 Y1.46637
G01 X1.14700 Y1.46452
G01 X1.14700 Y1.36452
G01 X1.14306 Y1.36452
G01 X1.14306 Y1.46452
G01 X1.14325 Y1.46675
G01 X1.14355 Y1.46827
G01 X1.14423 Y1.47040
G01 X1.14526 Y1.47240
G01 X1.14612 Y1.47368
G01 X1.14757 Y1.47539
G01 X1.14928 Y1.47684
G01 X1.15056 Y1.47770
G01 X1.15255 Y1.47872
G01 X1.15469 Y1.47941
G01 X1.15620 Y1.47971
G01 X1.15847 Y1.47989
G01 X1.18470 Y1.47969
G01 X1.20135 Y1.47436
G01 X1.20457 Y1.47281
G01 X1.20649 Y1.47141
G01 X1.21690 Y1.46114
G01 X1.21775 Y1.46014
G01 X1.21982 Y1.45708
G01 X1.22524 Y1.44603
G01 X1.23067 Y1.42444
G01 X1.23096 Y1.42166
G01 X1.23096 Y1.40738
G01 X1.23049 Y1.40363
G01 X1.22524 Y1.38300
G01 X1.21982 Y1.37196
G01 X1.21775 Y1.36889
G01 X1.21689 Y1.36790
G01 X1.20558 Y1.35685
G01 X1.20135 Y1.35468
G01 X1.18470 Y1.34934
G01 X1.15847 Y1.34914
G01 X1.15620 Y1.34933
G01 X1.15469 Y1.34963
G01 X1.15255 Y1.35031
G01 X1.15056 Y1.35134
G01 X1.14814 Y1.35313
G01 X1.14705 Y1.35422
G01 X1.14526 Y1.35664
G01 X1.14423 Y1.35863
G01 X1.14355 Y1.36077
G01 X1.14325 Y1.36228
G01 X1.14306 Y1.36452
G04 P0 ( dwell for no time -- G64 should not smooth over this point )
G00 Z0.07874 ( retract )

G00 X1.09837 Y1.41139 ( rapid move to begin. )
G01 F17.71654
( Mill infeed pass 1/1 )
G01 Z-0.00500
G04 P0 ( dwell for no time -- G64 should not smooth over this point )
G01 F35.43307
G01 X1.09837 Y1.41139
G01 X1.09545 Y1.42241
G01 X1.09545 Y1.46452
G01 X1.09563 Y1.46675
G01 X1.09593 Y1.46827
G01 X1.09695 Y1.47110
G01 X1.09850 Y1.47368
G01 X1.09995 Y1.47539
G01 X1.10166 Y1.47684
G01 X1.10294 Y1.47770
G01 X1.10566 Y1.47898
G01 X1.10858 Y1.47971
G01 X1.11159 Y1.47985
G01 X1.11457 Y1.47941
G01 X1.11670 Y1.47872
G01 X1.11870 Y1.47770
G01 X1.12112 Y1.47591
G01 X1.12221 Y1.47482
G01 X1.12400 Y1.47240
G01 X1.12502 Y1.47040
G01 X1.12571 Y1.46827
G01 X1.12616 Y1.46529
G01 X1.12619 Y1.36452
G01 X1.12575 Y1.36094
G01 X1.12483 Y1.35822
G01 X1.12419 Y1.35697
G01 X1.12255 Y1.35461
G01 X1.12050 Y1.35260
G01 X1.11932 Y1.35173
G01 X1.11678 Y1.35037
G01 X1.11404 Y1.34950
G01 X1.11266 Y1.34927
G01 X1.10979 Y1.34919
G01 X1.10833 Y1.34936
G01 X1.10555 Y1.35009
G01 X1.10295 Y1.35133
G01 X1.10064 Y1.35302
G01 X1.09963 Y1.35400
G01 X1.09747 Y1.35689
G01 X1.06905 Y1.40663
G01 X1.06612 Y1.41765
G01 X1.06905 Y1.40663
G01 X1.06905 Y1.36452
G01 X1.06887 Y1.36228
G01 X1.06857 Y1.36077
G01 X1.06788 Y1.35863
G01 X1.06686 Y1.35664
G01 X1.06600 Y1.35536
G01 X1.06397 Y1.35313
G01 X1.06156 Y1.35134
G01 X1.05956 Y1.35031
G01 X1.05743 Y1.34963
G01 X1.05591 Y1.34933
G01 X1.05368 Y1.34914
G01 X1.05144 Y1.34933
G01 X1.04993 Y1.34963
G01 X1.04779 Y1.35031
G01 X1.04580 Y1.35134
G01 X1.04452 Y1.35220
G01 X1.04280 Y1.35365
G01 X1.04135 Y1.35536
G01 X1.04050 Y1.35664
G01 X1.03947 Y1.35863
G01 X1.03879 Y1.36077
G01 X1.03849 Y1.36228
G01 X1.03830 Y1.36452
G01 X1.04224 Y1.36452
G01 X1.04255 Y1.36191
G01 X1.04311 Y1.36014
G01 X1.04397 Y1.35850
G01 X1.04533 Y1.35672
G01 X1.04701 Y1.35524
G01 X1.04895 Y1.35412
G01 X1.05183 Y1.35324
G01 X1.05368 Y1.35308
G01 X1.05628 Y1.35339
G01 X1.05805 Y1.35395
G01 X1.05970 Y1.35481
G01 X1.06176 Y1.35643
G01 X1.06296 Y1.35785
G01 X1.06437 Y1.36051
G01 X1.06495 Y1.36267
G01 X1.06511 Y1.36452
G01 X1.06511 Y1.42145
G01 X1.10089 Y1.35884
G01 X1.10237 Y1.35682
G01 X1.10338 Y1.35585
G01 X1.10512 Y1.35461
G01 X1.10777 Y1.35351
G01 X1.10987 Y1.35313
G01 X1.11201 Y1.35315
G01 X1.11339 Y1.35339
G01 X1.11542 Y1.35406
G01 X1.11788 Y1.35554
G01 X1.11943 Y1.35701
G01 X1.12029 Y1.35812
G01 X1.12158 Y1.36068
G01 X1.12211 Y1.36275
G01 X1.12226 Y1.36452
G01 X1.12226 Y1.46452
G01 X1.12209 Y1.46637
G01 X1.12122 Y1.46924
G01 X1.12010 Y1.47118
G01 X1.11862 Y1.47286
G01 X1.11684 Y1.47423
G01 X1.11520 Y1.47508
G01 X1.11343 Y1.47564
G01 X1.11082 Y1.47595
G01 X1.10821 Y1.47564
G01 X1.10644 Y1.47508
G01 X1.10480 Y1.47423
G01 X1.10302 Y1.47286
G01 X1.10154 Y1.47118
G01 X1.10042 Y1.46924
G01 X1.09955 Y1.46637
G01 X1.09938 Y1.46452
G01 X1.09938 Y1.40758
G01 X1.06361 Y1.47019
G01 X1.06212 Y1.47221
G01 X1.06112 Y1.47319
G01 X1.05937 Y1.47442
G01 X1.05743 Y1.47531
G01 X1.05462 Y1.47590
G01 X1.05248 Y1.47588
G01 X1.05039 Y1.47546
G01 X1.04841 Y1.47466
G01 X1.04721 Y1.47393
G01 X1.04557 Y1.47256
G01 X1.04421 Y1.47091
G01 X1.04291 Y1.46835
G01 X1.04239 Y1.46628
G01 X1.04224 Y1.46452
G01 X1.04224 Y1.36452
G01 X1.03830 Y1.36452
G01 X1.03830 Y1.46452
G01 X1.03874 Y1.46810
G01 X1.03967 Y1.47082
G01 X1.04109 Y1.47331
G01 X1.04295 Y1.47550
G01 X1.04518 Y1.47731
G01 X1.04771 Y1.47867
G01 X1.05045 Y1.47953
G01 X1.05330 Y1.47987
G01 X1.05617 Y1.47967
G01 X1.05895 Y1.47894
G01 X1.06024 Y1.47840
G01 X1.06271 Y1.47694
G01 X1.06487 Y1.47504
G01 X1.06702 Y1.47215
G01 X1.09545 Y1.42241
G04 P0 ( dwell for no time -- G64 should not smooth over this point )
G00 Z0.07874 ( retract )

G00 X0.93354 Y1.42163 ( rapid move to begin. )
G01 F17.71654
( Mill infeed pass 1/1 )
G01 Z-0.00500
G04 P0 ( dwell for no time -- G64 should not smooth over this point )
G01 F35.43307
G01 X0.93354 Y1.42163
G01 X0.93400 Y1.42541
G01 X0.93925 Y1.44603
G01 X0.94467 Y1.45708
G01 X0.94675 Y1.46014
G01 X0.94760 Y1.46114
G01 X0.95800 Y1.47141
G01 X0.95993 Y1.47281
G01 X0.96315 Y1.47436
G01 X0.97979 Y1.47969
G01 X0.99648 Y1.47989
G01 X0.99775 Y1.47980
G01 X1.00118 Y1.47917
G01 X1.00229 Y1.47873
G01 X1.01361 Y1.47313
G01 X1.01548 Y1.47190
G01 X1.01714 Y1.47039
G01 X1.01815 Y1.46922
G01 X1.01976 Y1.46668
G01 X1.02085 Y1.46387
G01 X1.02137 Y1.46091
G01 X1.02130 Y1.45790
G01 X1.02064 Y1.45496
G01 X1.01943 Y1.45221
G01 X1.01770 Y1.44974
G01 X1.01552 Y1.44766
G01 X1.01298 Y1.44605
G01 X1.01092 Y1.44517
G01 X1.00798 Y1.44450
G01 X1.00574 Y1.44440
G01 X1.00420 Y1.44451
G01 X1.00199 Y1.44493
G01 X0.99989 Y1.44569
G01 X0.99291 Y1.44914
G01 X0.99293 Y1.44925
G01 X0.99291 Y1.44914
G01 X0.98474 Y1.44919
G01 X0.97627 Y1.44632
G01 X0.97621 Y1.44641
G01 X0.97627 Y1.44632
G01 X0.97103 Y1.44115
G01 X0.96816 Y1.43535
G01 X0.96426 Y1.41977
G01 X0.96426 Y1.40926
G01 X0.96816 Y1.39368
G01 X0.97103 Y1.38788
G01 X0.97627 Y1.38272
G01 X0.97621 Y1.38262
G01 X0.97627 Y1.38272
G01 X0.98474 Y1.37984
G01 X0.98929 Y1.37984
G01 X0.99545 Y1.38195
G01 X0.99619 Y1.38141
G01 X0.99545 Y1.38195
G01 X0.99545 Y1.39200
G01 X0.99656 Y1.39308
G01 X0.99545 Y1.39200
G01 X0.99177 Y1.39200
G01 X0.98954 Y1.39218
G01 X0.98662 Y1.39291
G01 X0.98389 Y1.39419
G01 X0.98261 Y1.39505
G01 X0.98090 Y1.39650
G01 X0.97899 Y1.39883
G01 X0.97790 Y1.40079
G01 X0.97688 Y1.40363
G01 X0.97644 Y1.40660
G01 X0.97644 Y1.40815
G01 X0.97669 Y1.41037
G01 X0.97757 Y1.41326
G01 X0.97859 Y1.41525
G01 X0.97945 Y1.41654
G01 X0.98090 Y1.41825
G01 X0.98261 Y1.41970
G01 X0.98389 Y1.42056
G01 X0.98662 Y1.42184
G01 X0.98802 Y1.42226
G01 X0.99100 Y1.42271
G01 X1.01082 Y1.42275
G01 X1.01305 Y1.42257
G01 X1.01457 Y1.42226
G01 X1.01670 Y1.42158
G01 X1.01870 Y1.42056
G01 X1.01998 Y1.41970
G01 X1.02169 Y1.41825
G01 X1.02314 Y1.41654
G01 X1.02469 Y1.41396
G01 X1.02571 Y1.41112
G01 X1.02601 Y1.40961
G01 X1.02619 Y1.40738
G01 X1.02619 Y1.37404
G01 X1.02608 Y1.37225
G01 X1.02572 Y1.37043
G01 X1.02452 Y1.36706
G01 X1.02249 Y1.36411
G01 X1.01600 Y1.35762
G01 X1.01310 Y1.35562
G01 X1.01198 Y1.35514
G01 X0.99423 Y1.34934
G01 X0.99297 Y1.34924
G01 X0.97981 Y1.34934
G01 X0.96253 Y1.35491
G01 X0.96065 Y1.35576
G01 X0.95801 Y1.35762
G01 X0.95705 Y1.35844
G01 X0.94597 Y1.36981
G01 X0.93958 Y1.38224
G01 X0.93876 Y1.38462
G01 X0.93366 Y1.40549
G01 X0.93354 Y1.42163
G01 X0.93748 Y1.42165
G01 X0.93756 Y1.40597
G01 X0.94258 Y1.38556
G01 X0.94346 Y1.38318
G01 X0.94916 Y1.37211
G01 X0.95986 Y1.36121
G01 X0.96259 Y1.35919
G01 X0.96437 Y1.35842
G01 X0.98043 Y1.35323
G01 X0.99360 Y1.35323
G01 X1.01130 Y1.35912
G01 X1.01414 Y1.36119
G01 X1.01890 Y1.36595
G01 X1.02101 Y1.36885
G01 X1.02209 Y1.37210
G01 X1.02226 Y1.37404
G01 X1.02226 Y1.40738
G01 X1.02209 Y1.40922
G01 X1.02138 Y1.41175
G01 X1.02010 Y1.41404
G01 X1.01891 Y1.41546
G01 X1.01748 Y1.41665
G01 X1.01520 Y1.41794
G01 X1.01343 Y1.41850
G01 X1.01082 Y1.41881
G01 X0.99177 Y1.41881
G01 X0.98992 Y1.41865
G01 X0.98740 Y1.41794
G01 X0.98511 Y1.41665
G01 X0.98369 Y1.41546
G01 X0.98249 Y1.41404
G01 X0.98121 Y1.41175
G01 X0.98055 Y1.40961
G01 X0.98035 Y1.40776
G01 X0.98055 Y1.40514
G01 X0.98108 Y1.40336
G01 X0.98206 Y1.40135
G01 X0.98397 Y1.39903
G01 X0.98511 Y1.39810
G01 X0.98705 Y1.39697
G01 X0.98917 Y1.39625
G01 X0.99177 Y1.39594
G01 X0.99938 Y1.39594
G01 X0.99938 Y1.37911
G01 X0.98992 Y1.37596
G01 X0.98410 Y1.37596
G01 X0.97414 Y1.37928
G01 X0.96784 Y1.38558
G01 X0.96447 Y1.39232
G01 X0.96035 Y1.40878
G01 X0.96035 Y1.42025
G01 X0.96447 Y1.43672
G01 X0.96784 Y1.44346
G01 X0.97414 Y1.44976
G01 X0.98410 Y1.45308
G01 X0.99383 Y1.45308
G01 X1.00094 Y1.44953
G01 X1.00303 Y1.44873
G01 X1.00563 Y1.44834
G01 X1.00749 Y1.44841
G01 X1.00930 Y1.44880
G01 X1.01205 Y1.45003
G01 X1.01324 Y1.45088
G01 X1.01484 Y1.45245
G01 X1.01610 Y1.45430
G01 X1.01717 Y1.45711
G01 X1.01747 Y1.45933
G01 X1.01740 Y1.46118
G01 X1.01691 Y1.46337
G01 X1.01617 Y1.46507
G01 X1.01443 Y1.46753
G01 X1.01307 Y1.46879
G01 X1.01114 Y1.47000
G01 X1.00055 Y1.47520
G01 X0.99942 Y1.47555
G01 X0.99651 Y1.47595
G01 X0.98042 Y1.47581
G01 X0.96437 Y1.47061
G01 X0.96123 Y1.46900
G01 X0.94994 Y1.45784
G01 X0.94820 Y1.45533
G01 X0.94295 Y1.44467
G01 X0.93773 Y1.42396
G01 X0.92955 Y1.36784
G01 X0.92955 Y1.34506
G01 X1.23494 Y1.34506
G01 X1.23610 Y1.34390
G01 X1.23494 Y1.34506
G01 X1.23494 Y1.48404
G01 X1.23610 Y1.48519
G01 X1.23494 Y1.48404
G01 X0.92955 Y1.48404
G01 X0.92840 Y1.48519
G01 X0.92955 Y1.48404
G01 X0.92955 Y1.36784
G01 X0.92561 Y1.34112
G01 X1.23888 Y1.34112
G01 X1.23888 Y1.48798
G01 X0.92561 Y1.48798
G01 X0.92561 Y1.34112
G01 X0.92955 Y1.34506
G04 P0 ( dwell for no time -- G64 should not smooth over this point )
G00 Z0.07874 ( retract )

G00 X0.93354 Y1.17404 ( rapid move to begin. )
G01 F17.71654
( Mill infeed pass 1/1 )
G01 Z-0.00500
G04 P0 ( dwell for no time -- G64 should not smooth over this point )
G01 F35.43307
G01 X0.93354 Y1.17404
G01 X0.93372 Y1.17627
G01 X0.93402 Y1.17779
G01 X0.93471 Y1.17992
G01 X0.93573 Y1.18192
G01 X0.93752 Y1.18434
G01 X0.93975 Y1.18636
G01 X0.94103 Y1.18722
G01 X0.94376 Y1.18850
G01 X0.94591 Y1.18912
G01 X0.94814 Y1.18938
G01 X0.95115 Y1.18923
G01 X0.95266 Y1.18893
G01 X0.95549 Y1.18792
G01 X0.95745 Y1.18682
G01 X0.95921 Y1.18543
G01 X0.96276 Y1.18188
G01 X0.96683 Y1.17989
G01 X0.96681 Y1.17979
G01 X0.96683 Y1.17989
G01 X0.98338 Y1.17989
G01 X0.98341 Y1.17979
G01 X0.98338 Y1.17989
G01 X0.98746 Y1.18187
G01 X0.98870 Y1.18312
G01 X0.99068 Y1.18719
G01 X0.99079 Y1.18717
G01 X0.99068 Y1.18719
G01 X0.99068 Y1.20375
G01 X0.99079 Y1.20377
G01 X0.99068 Y1.20375
G01 X0.98870 Y1.20782
G01 X0.98746 Y1.20907
G01 X0.98338 Y1.21105
G01 X0.98341 Y1.21115
G01 X0.98338 Y1.21105
G01 X0.96683 Y1.21105
G01 X0.96681 Y1.21115
G01 X0.96683 Y1.21105
G01 X0.96276 Y1.20905
G01 X0.95923 Y1.20553
G01 X0.95691 Y1.20379
G01 X0.95431 Y1.20252
G01 X0.95297 Y1.20209
G01 X0.95011 Y1.20159
G01 X0.94863 Y1.20154
G01 X0.94575 Y1.20187
G01 X0.94438 Y1.20223
G01 X0.94171 Y1.20334
G01 X0.93929 Y1.20493
G01 X0.93818 Y1.20592
G01 X0.93631 Y1.20813
G01 X0.93555 Y1.20933
G01 X0.93488 Y1.21066
G01 X0.93396 Y1.21340
G01 X0.93357 Y1.21627
G01 X0.93362 Y1.21843
G01 X0.93838 Y1.26605
G01 X0.93915 Y1.26950
G01 X0.94031 Y1.27208
G01 X0.94104 Y1.27324
G01 X0.94285 Y1.27541
G01 X0.94502 Y1.27720
G01 X0.94749 Y1.27857
G01 X0.94883 Y1.27909
G01 X0.95158 Y1.27973
G01 X0.95368 Y1.27989
G01 X1.00207 Y1.27985
G01 X1.00504 Y1.27941
G01 X1.00718 Y1.27872
G01 X1.00917 Y1.27770
G01 X1.01046 Y1.27684
G01 X1.01217 Y1.27539
G01 X1.01362 Y1.27368
G01 X1.01448 Y1.27240
G01 X1.01550 Y1.27040
G01 X1.01619 Y1.26827
G01 X1.01663 Y1.26529
G01 X1.01663 Y1.26375
G01 X1.01619 Y1.26077
G01 X1.01550 Y1.25863
G01 X1.01448 Y1.25664
G01 X1.01362 Y1.25536
G01 X1.01217 Y1.25365
G01 X1.01046 Y1.25219
G01 X1.00917 Y1.25134
G01 X1.00718 Y1.25031
G01 X1.00504 Y1.24963
G01 X1.00207 Y1.24918
G01 X0.96759 Y1.24914
G01 X0.96667 Y1.25016
G01 X0.96759 Y1.24914
G01 X0.96685 Y1.24178
G01 X0.96544 Y1.24051
G01 X0.96685 Y1.24178
G01 X0.98819 Y1.24171
G01 X0.99056 Y1.24133
G01 X0.99389 Y1.24017
G01 X1.00449 Y1.23476
G01 X1.00747 Y1.23246
G01 X1.01380 Y1.22585
G01 X1.02024 Y1.21318
G01 X1.02098 Y1.21087
G01 X1.02143 Y1.20738
G01 X1.02143 Y1.18356
G01 X1.02098 Y1.18007
G01 X1.02027 Y1.17782
G01 X1.01507 Y1.16722
G01 X1.01299 Y1.16413
G01 X1.01210 Y1.16310
