( pcb2gcode 2.5.0 )
( Software-independent Gcode )

G94 ( Inches per minute feed rate. )
G21 ( Units == MM. )

G90 ( Absolute coordinates. )
G00 S200 ( RPM spindle speed. )
G64 P0.00040 ( set maximum deviation from commanded toolpath )
G01 F900.0000 ( Feedrate. )


G00 Z10.0000 (Retract to tool change height)
T1
M5      (Spindle stop.)
(MSG, Change tool bit to mill diameter 0.00787in)
M6      (Tool change.)
M0      (Temporary machine stop.)
M3 ( Spindle on clockwise. )
G00 Z2.0000 ( retract )

G00 X0.1100 Y14.7747 ( rapid move to begin. )
G01 F450.0001
( Mill infeed pass 1/1 )
G01 Z-0.1270
G01 F900.0000
G01 X0.1100 Y14.7747
G01 X0.1514 Y14.3121
G01 X0.2329 Y13.8676
G01 X0.3528 Y13.4376
G01 X0.5034 Y13.0365
G01 X0.6967 Y12.6342
G01 X0.9350 Y12.2357
G01 X1.1834 Y11.8935
G01 X1.3934 Y11.6520
G01 X1.4925 Y11.5400
G01 X1.7983 Y11.2476
G01 X2.1610 Y10.9581
G01 X2.5387 Y10.7097
G01 X2.9271 Y10.5016
G01 X3.3211 Y10.3330
G01 X3.7452 Y10.1940
G01 X4.1857 Y10.0927
G01 X4.6223 Y10.0327
G01 X5.0724 Y10.0114
G01 X6.8527 Y10.0112
G01 X7.0940 Y9.9819
G01 X7.3302 Y9.9238
G01 X7.5575 Y9.8374
G01 X7.7729 Y9.7244
G01 X7.9731 Y9.5865
G01 X8.1552 Y9.4252
G01 X8.3165 Y9.2431
G01 X8.4544 Y9.0429
G01 X8.5674 Y8.8275
G01 X8.6538 Y8.6002
G01 X8.7119 Y8.3640
G01 X8.7412 Y8.1227
G01 X8.7412 Y2.5418
G01 X8.7615 Y2.2306
G01 X8.8166 Y1.9418
G01 X8.9057 Y1.6619
G01 X9.0244 Y1.4016
G01 X9.1636 Y1.1704
G01 X9.3596 Y0.9197
G01 X9.5738 Y0.7076
G01 X9.7998 Y0.5321
G01 X10.0305 Y0.3922
G01 X10.2977 Y0.2697
G01 X10.5854 Y0.1786
G01 X10.8984 Y0.1217
G01 X11.1778 Y0.1052
G01 X140.7142 Y0.1052
G01 X141.0251 Y0.1255
G01 X141.3063 Y0.1786
G01 X141.5641 Y0.2583
G01 X141.8328 Y0.3772
G01 X142.0919 Y0.5319
G01 X142.3241 Y0.7127
G01 X142.5326 Y0.9197
G01 X142.7147 Y1.1506
G01 X142.8676 Y1.4016
G01 X142.9977 Y1.6919
G01 X143.0830 Y1.9728
G01 X143.1333 Y2.2545
G01 X143.1506 Y2.5418
G01 X143.1506 Y8.1227
G01 X143.1798 Y8.3640
G01 X143.2380 Y8.6002
G01 X143.3243 Y8.8275
G01 X143.4374 Y9.0429
G01 X143.5755 Y9.2431
G01 X143.7368 Y9.4252
G01 X143.9189 Y9.5865
G01 X144.1191 Y9.7246
G01 X144.3342 Y9.8377
G01 X144.5618 Y9.9240
G01 X144.7980 Y9.9822
G01 X145.0393 Y10.0114
G01 X146.8224 Y10.0114
G01 X147.2461 Y10.0305
G01 X147.6886 Y10.0894
G01 X148.1292 Y10.1892
G01 X148.5656 Y10.3309
G01 X148.9758 Y10.5070
G01 X149.3733 Y10.7218
G01 X149.7406 Y10.9652
G01 X150.0759 Y11.2321
G01 X150.3992 Y11.5397
G01 X150.6936 Y11.8753
G01 X150.9601 Y12.2405
G01 X151.1981 Y12.6393
G01 X151.3906 Y13.0416
G01 X151.5448 Y13.4546
G01 X151.6604 Y13.8730
G01 X151.7399 Y14.3065
G01 X151.7815 Y14.7691
G01 X151.7807 Y15.2209
G01 X151.7399 Y15.6654
G01 X151.6642 Y16.0815
G01 X151.5392 Y16.5344
G01 X151.3840 Y16.9459
G01 X151.1953 Y17.3378
G01 X150.9601 Y17.7315
G01 X150.6936 Y18.0967
G01 X150.3992 Y18.4320
G01 X150.0894 Y18.7282
G01 X149.7264 Y19.0172
G01 X149.3581 Y19.2593
G01 X148.9809 Y19.4625
G01 X148.5486 Y19.6474
G01 X148.1239 Y19.7843
G01 X147.6886 Y19.8826
G01 X147.2461 Y19.9413
G01 X146.8105 Y19.9606
G01 X145.0393 Y19.9606
G01 X144.7980 Y19.9898
G01 X144.5618 Y20.0480
G01 X144.3342 Y20.1343
G01 X144.1191 Y20.2474
G01 X143.9189 Y20.3855
G01 X143.7368 Y20.5468
G01 X143.5755 Y20.7289
G01 X143.4374 Y20.9291
G01 X143.3243 Y21.1442
G01 X143.2380 Y21.3718
G01 X143.1798 Y21.6080
G01 X143.1506 Y21.8493
G01 X143.1506 Y56.8907
G01 X143.1798 Y57.1320
G01 X143.2380 Y57.3682
G01 X143.3243 Y57.5955
G01 X143.4374 Y57.8109
G01 X143.5755 Y58.0111
G01 X143.7368 Y58.1932
G01 X143.9189 Y58.3545
G01 X144.1191 Y58.4926
G01 X144.3342 Y58.6057
G01 X144.5618 Y58.6918
G01 X144.7980 Y58.7502
G01 X145.0393 Y58.7794
G01 X146.8105 Y58.7792
G01 X147.2461 Y58.7985
G01 X147.7063 Y58.8607
G01 X148.1468 Y58.9620
G01 X148.5542 Y59.0946
G01 X148.9596 Y59.2671
G01 X149.3688 Y59.4868
G01 X149.7454 Y59.7365
G01 X150.0894 Y60.0118
G01 X150.3992 Y60.3077
G01 X150.7048 Y60.6572
G01 X150.9669 Y61.0187
G01 X151.1894 Y61.3913
G01 X151.3906 Y61.8096
G01 X151.5448 Y62.2226
G01 X151.6604 Y62.6410
G01 X151.7421 Y63.0923
G01 X151.7815 Y63.5371
G01 X151.7815 Y63.9709
G01 X151.7421 Y64.4157
G01 X151.6642 Y64.8495
G01 X151.5392 Y65.3024
G01 X151.3837 Y65.7146
G01 X151.1981 Y66.1007
G01 X150.9700 Y66.4845
G01 X150.7086 Y66.8462
G01 X150.4158 Y67.1830
G01 X150.0894 Y67.4959
G01 X149.7406 Y67.7748
G01 X149.3733 Y68.0182
G01 X148.9809 Y68.2305
G01 X148.5709 Y68.4070
G01 X148.1468 Y68.5460
G01 X147.7119 Y68.6463
G01 X147.2697 Y68.7073
G01 X146.8105 Y68.7286
G01 X145.0393 Y68.7286
G01 X144.7980 Y68.7578
G01 X144.5618 Y68.8160
G01 X144.3342 Y68.9023
G01 X144.1191 Y69.0154
G01 X143.9189 Y69.1535
G01 X143.7368 Y69.3148
G01 X143.5755 Y69.4969
G01 X143.4374 Y69.6971
G01 X143.3243 Y69.9122
G01 X143.2380 Y70.1398
G01 X143.1798 Y70.3758
G01 X143.1506 Y70.6173
G01 X143.1506 Y76.1982
G01 X143.1303 Y76.5094
G01 X143.0757 Y76.7979
G01 X142.9890 Y77.0707
G01 X142.8788 Y77.3168
G01 X142.7284 Y77.5693
G01 X142.5324 Y77.8203
G01 X142.3182 Y78.0324
G01 X142.0922 Y78.2079
G01 X141.8615 Y78.3478
G01 X141.5943 Y78.4703
G01 X141.3065 Y78.5614
G01 X140.9936 Y78.6183
G01 X140.7142 Y78.6346
G01 X11.1778 Y78.6346
G01 X10.8669 Y78.6145
G01 X10.5857 Y78.5614
G01 X10.3279 Y78.4817
G01 X10.0376 Y78.3516
G01 X9.7864 Y78.1985
G01 X9.5501 Y78.0115
G01 X9.3487 Y77.8081
G01 X9.1818 Y77.5960
G01 X9.0246 Y77.3384
G01 X8.8943 Y77.0481
G01 X8.8146 Y76.7903
G01 X8.7615 Y76.5091
G01 X8.7412 Y76.1982
G01 X8.7412 Y70.6173
G01 X8.7119 Y70.3760
G01 X8.6538 Y70.1398
G01 X8.5674 Y69.9125
G01 X8.4544 Y69.6971
G01 X8.3165 Y69.4969
G01 X8.1552 Y69.3148
G01 X7.9731 Y69.1535
G01 X7.7729 Y69.0154
G01 X7.5575 Y68.9023
G01 X7.3302 Y68.8162
G01 X7.0940 Y68.7581
G01 X6.8527 Y68.7286
G01 X5.0696 Y68.7283
G01 X4.6457 Y68.7093
G01 X4.2034 Y68.6506
G01 X3.7625 Y68.5508
G01 X3.3264 Y68.4091
G01 X2.9162 Y68.2330
G01 X2.5184 Y68.0182
G01 X2.1466 Y67.7715
G01 X1.8026 Y67.4959
G01 X1.4928 Y67.2003
G01 X1.1984 Y66.8647
G01 X0.9251 Y66.4893
G01 X0.6967 Y66.1058
G01 X0.5011 Y65.6981
G01 X0.3510 Y65.2970
G01 X0.2329 Y64.8724
G01 X0.1521 Y64.4334
G01 X0.1107 Y63.9834
G01 X0.1107 Y63.5246
G01 X0.1514 Y63.0801
G01 X0.2289 Y62.6532
G01 X0.3508 Y62.2112
G01 X0.5034 Y61.8043
G01 X0.6939 Y61.4070
G01 X0.9350 Y61.0037
G01 X1.1834 Y60.6618
G01 X1.4762 Y60.3250
G01 X1.8024 Y60.0121
G01 X2.1610 Y59.7261
G01 X2.5235 Y59.4868
G01 X2.9111 Y59.2773
G01 X3.3261 Y59.0989
G01 X3.7681 Y58.9557
G01 X4.2034 Y58.8574
G01 X4.6459 Y58.7985
G01 X5.0813 Y58.7792
G01 X6.8527 Y58.7792
G01 X7.1069 Y58.7466
G01 X7.3302 Y58.6918
G01 X7.5575 Y58.6054
G01 X7.7729 Y58.4924
G01 X7.9731 Y58.3542
G01 X8.1552 Y58.1932
G01 X8.3165 Y58.0111
G01 X8.4544 Y57.8109
G01 X8.5674 Y57.5955
G01 X8.6538 Y57.3682
G01 X8.7119 Y57.1320
G01 X8.7412 Y56.8907
G01 X8.7412 Y21.8493
G01 X8.7119 Y21.6080
G01 X8.6538 Y21.3718
G01 X8.5674 Y21.1445
G01 X8.4544 Y20.9291
G01 X8.3165 Y20.7289
G01 X8.1552 Y20.5468
G01 X7.9731 Y20.3855
G01 X7.7729 Y20.2474
G01 X7.5575 Y20.1343
G01 X7.3302 Y20.0482
G01 X7.0940 Y19.9901
G01 X6.8527 Y19.9606
G01 X5.0813 Y19.9606
G01 X4.6459 Y19.9413
G01 X4.1979 Y19.8816
G01 X3.7625 Y19.7828
G01 X3.3264 Y19.6411
G01 X2.9162 Y19.4650
G01 X2.5184 Y19.2502
G01 X2.1466 Y19.0035
G01 X1.8161 Y18.7399
G01 X1.4803 Y18.4191
G01 X1.1836 Y18.0782
G01 X0.9350 Y17.7361
G01 X0.6967 Y17.3378
G01 X0.5011 Y16.9301
G01 X0.3510 Y16.5291
G01 X0.2329 Y16.1044
G01 X0.1514 Y15.6599
G01 X0.1107 Y15.2151
G01 X0.1100 Y14.7747
G01 X0.2101 Y14.7747
G01 X0.2101 Y15.1973
G01 X0.2487 Y15.6329
G01 X0.3274 Y16.0691
G01 X0.4420 Y16.4854
G01 X0.5984 Y16.9034
G01 X0.7910 Y17.3022
G01 X1.0157 Y17.6774
G01 X1.2644 Y18.0195
G01 X1.5618 Y18.3599
G01 X1.8783 Y18.6616
G01 X2.2090 Y18.9253
G01 X2.5735 Y19.1668
G01 X2.9634 Y19.3769
G01 X3.3658 Y19.5491
G01 X3.7849 Y19.6853
G01 X4.2113 Y19.7825
G01 X4.6502 Y19.8415
G01 X5.0813 Y19.8608
G01 X6.8585 Y19.8608
G01 X7.1120 Y19.8915
G01 X7.3599 Y19.9525
G01 X7.5987 Y20.0431
G01 X7.8247 Y20.1618
G01 X8.0348 Y20.3068
G01 X8.2260 Y20.4760
G01 X8.3952 Y20.6672
G01 X8.5402 Y20.8773
G01 X8.6589 Y21.1033
G01 X8.7495 Y21.3421
G01 X8.8105 Y21.5897
G01 X8.8412 Y21.8432
G01 X8.8412 Y56.8965
G01 X8.8105 Y57.1500
G01 X8.7495 Y57.3979
G01 X8.6589 Y57.6367
G01 X8.5402 Y57.8627
G01 X8.3952 Y58.0728
G01 X8.2260 Y58.2640
G01 X8.0348 Y58.4332
G01 X7.8247 Y58.5782
G01 X7.5987 Y58.6969
G01 X7.3599 Y58.7875
G01 X7.1308 Y58.8439
G01 X6.8585 Y58.8792
G01 X5.0813 Y58.8792
G01 X4.6502 Y58.8985
G01 X4.2169 Y58.9564
G01 X3.7902 Y59.0532
G01 X3.3741 Y59.1878
G01 X2.9586 Y59.3654
G01 X2.5862 Y59.5658
G01 X2.4209 Y59.6740
G01 X2.2090 Y59.8147
G01 X1.8783 Y60.0784
G01 X1.5517 Y60.3908
G01 X1.2644 Y60.7205
G01 X1.0157 Y61.0626
G01 X0.7841 Y61.4505
G01 X0.6007 Y61.8315
G01 X0.5281 Y62.0230
G01 X0.4420 Y62.2546
G01 X0.3294 Y62.6623
G01 X0.2487 Y63.1068
G01 X0.2101 Y63.5427
G01 X0.2101 Y63.9653
G01 X0.2507 Y64.4157
G01 X0.3294 Y64.8457
G01 X0.4420 Y65.2534
G01 X0.5949 Y65.6631
G01 X0.7866 Y66.0624
G01 X1.0109 Y66.4380
G01 X1.2736 Y66.7990
G01 X1.5618 Y67.1279
G01 X1.8717 Y67.4238
G01 X2.2090 Y67.6933
G01 X2.5735 Y67.9348
G01 X2.9715 Y68.1490
G01 X3.3658 Y68.3171
G01 X3.7849 Y68.4533
G01 X4.2169 Y68.5516
G01 X4.6502 Y68.6095
G01 X5.0742 Y68.6285
G01 X6.8585 Y68.6288
G01 X7.1120 Y68.6595
G01 X7.3599 Y68.7205
G01 X7.5987 Y68.8111
G01 X7.8247 Y68.9298
G01 X8.0348 Y69.0748
G01 X8.2260 Y69.2440
G01 X8.3952 Y69.4352
G01 X8.5402 Y69.6453
G01 X8.6589 Y69.8713
G01 X8.7495 Y70.1101
G01 X8.8105 Y70.3580
G01 X8.8412 Y70.6112
G01 X8.8412 Y76.1982
G01 X8.8585 Y76.4791
G01 X8.9073 Y76.7491
G01 X8.9898 Y77.0184
G01 X9.1044 Y77.2759
G01 X9.2606 Y77.5343
G01 X9.4272 Y77.7464
G01 X9.6299 Y77.9488
G01 X9.8580 Y78.1266
G01 X10.1001 Y78.2714
G01 X10.3576 Y78.3862
G01 X10.6269 Y78.4687
G01 X10.8969 Y78.5175
G01 X11.1778 Y78.5348
G01 X140.7142 Y78.5348
G01 X140.9995 Y78.5170
G01 X141.2768 Y78.4659
G01 X141.5415 Y78.3834
G01 X141.7988 Y78.2678
G01 X142.0404 Y78.1223
G01 X142.2565 Y77.9536
G01 X142.4699 Y77.7405
G01 X142.6426 Y77.5178
G01 X142.7820 Y77.2866
G01 X142.8979 Y77.0298
G01 X142.9829 Y76.7565
G01 X143.0335 Y76.4791
G01 X143.0508 Y76.1982
G01 X143.0508 Y70.6112
G01 X143.0815 Y70.3580
G01 X143.1425 Y70.1101
G01 X143.2331 Y69.8713
G01 X143.3518 Y69.6453
G01 X143.4968 Y69.4352
G01 X143.6660 Y69.2440
G01 X143.8572 Y69.0748
G01 X144.0673 Y68.9298
G01 X144.2933 Y68.8111
G01 X144.5321 Y68.7205
G01 X144.7800 Y68.6595
G01 X145.0332 Y68.6288
G01 X146.8150 Y68.6285
G01 X147.2562 Y68.6082
G01 X147.6807 Y68.5505
G01 X148.1158 Y68.4507
G01 X148.5316 Y68.3151
G01 X148.9255 Y68.1464
G01 X149.3182 Y67.9348
G01 X149.6784 Y67.6966
G01 X150.0134 Y67.4296
G01 X150.3340 Y67.1238
G01 X150.6220 Y66.7944
G01 X150.8793 Y66.4408
G01 X151.1079 Y66.0573
G01 X151.2971 Y65.6631
G01 X151.4485 Y65.2587
G01 X151.5638 Y64.8404
G01 X151.6413 Y64.4154
G01 X151.6817 Y63.9709
G01 X151.6812 Y63.5279
G01 X151.6413 Y63.0923
G01 X151.5659 Y62.6763
G01 X151.4457 Y62.2407
G01 X151.2936 Y61.8366
G01 X151.1079 Y61.4505
G01 X150.8760 Y61.0626
G01 X150.6184 Y60.7090
G01 X150.3363 Y60.3867
G01 X150.0137 Y60.0784
G01 X149.6758 Y59.8094
G01 X149.3136 Y59.5704
G01 X148.9283 Y59.3628
G01 X148.5316 Y59.1929
G01 X148.1071 Y59.0547
G01 X147.6840 Y58.9582
G01 X147.2418 Y58.8985
G01 X146.8105 Y58.8792
G01 X145.0332 Y58.8792
G01 X144.7800 Y58.8485
G01 X144.6177 Y58.8086
G01 X144.5321 Y58.7875
G01 X144.2933 Y58.6969
G01 X144.0673 Y58.5782
G01 X143.8572 Y58.4332
G01 X143.6660 Y58.2640
G01 X143.4968 Y58.0728
G01 X143.3518 Y57.8627
G01 X143.2331 Y57.6367
G01 X143.1425 Y57.3979
G01 X143.0815 Y57.1500
G01 X143.0508 Y56.8965
G01 X143.0508 Y21.8432
G01 X143.0815 Y21.5897
G01 X143.1425 Y21.3421
G01 X143.2331 Y21.1033
G01 X143.3518 Y20.8773
G01 X143.4968 Y20.6672
G01 X143.6660 Y20.4760
G01 X143.8572 Y20.3068
G01 X144.0673 Y20.1618
G01 X144.2933 Y20.0431
G01 X144.5321 Y19.9525
G01 X144.7800 Y19.8915
G01 X145.0332 Y19.8608
G01 X146.8105 Y19.8608
G01 X147.2418 Y19.8415
G01 X147.6751 Y19.7833
G01 X148.1018 Y19.6868
G01 X148.5179 Y19.5522
G01 X148.9334 Y19.3746
G01 X149.3182 Y19.1668
G01 X149.6784 Y18.9286
G01 X150.0134 Y18.6616
G01 X150.3302 Y18.3599
G01 X150.6240 Y18.0238
G01 X150.8790 Y17.6728
G01 X151.1010 Y17.3022
G01 X151.2938 Y16.9029
G01 X151.4485 Y16.4907
G01 X151.5659 Y16.0635
G01 X151.6413 Y15.6474
G01 X151.6812 Y15.2121
G01 X151.6817 Y14.7691
G01 X151.6413 Y14.3243
G01 X151.5638 Y13.8996
G01 X151.4457 Y13.4727
G01 X151.2936 Y13.0686
G01 X151.1079 Y12.6825
G01 X150.8790 Y12.2992
G01 X150.6184 Y11.9410
G01 X150.3302 Y11.6121
G01 X150.0203 Y11.3162
G01 X149.6713 Y11.0381
G01 X149.3106 Y10.8006
G01 X148.9205 Y10.5910
G01 X148.5262 Y10.4229
G01 X148.1158 Y10.2890
G01 X147.6840 Y10.1902
G01 X147.2418 Y10.1305
G01 X146.8178 Y10.1115
G01 X145.0332 Y10.1112
G01 X144.7800 Y10.0805
G01 X144.5321 Y10.0195
G01 X144.2933 Y9.9289
G01 X144.0673 Y9.8102
G01 X143.8572 Y9.6652
G01 X143.6660 Y9.4958
G01 X143.4968 Y9.3048
G01 X143.3518 Y9.0947
G01 X143.2331 Y8.8687
G01 X143.1425 Y8.6299
G01 X143.0815 Y8.3820
G01 X143.0508 Y8.1285
G01 X143.0508 Y2.5418
G01 X143.0335 Y2.2609
G01 X142.9847 Y1.9909
G01 X142.9022 Y1.7216
G01 X142.7820 Y1.4534
G01 X142.6360 Y1.2121
G01 X142.4617 Y0.9903
G01 X142.2624 Y0.7912
G01 X142.0401 Y0.6175
G01 X141.7919 Y0.4684
G01 X141.5344 Y0.3538
G01 X141.2766 Y0.2741
G01 X141.0071 Y0.2238
G01 X140.7142 Y0.2052
G01 X11.1778 Y0.2052
G01 X10.9042 Y0.2215
G01 X10.6152 Y0.2741
G01 X10.3388 Y0.3609
G01 X10.0823 Y0.4778
G01 X9.8516 Y0.6177
G01 X9.6355 Y0.7861
G01 X9.4221 Y0.9995
G01 X9.2492 Y1.2220
G01 X9.1046 Y1.4638
G01 X8.9969 Y1.7031
G01 X8.9118 Y1.9715
G01 X8.8598 Y2.2487
G01 X8.8412 Y2.5418
G01 X8.8412 Y8.1285
G01 X8.8105 Y8.3820
G01 X8.7495 Y8.6299
G01 X8.6589 Y8.8687
G01 X8.5402 Y9.0947
G01 X8.3952 Y9.3048
G01 X8.2260 Y9.4958
G01 X8.0348 Y9.6652
G01 X7.8247 Y9.8102
G01 X7.5987 Y9.9289
G01 X7.3599 Y10.0195
G01 X7.1120 Y10.0805
G01 X6.8585 Y10.1112
G01 X5.0767 Y10.1115
G01 X4.6358 Y10.1318
G01 X4.2080 Y10.1902
G01 X3.7849 Y10.2867
G01 X3.3604 Y10.4249
G01 X2.9665 Y10.5936
G01 X2.5862 Y10.7978
G01 X2.2161 Y11.0414
G01 X1.8674 Y11.3200
G01 X1.5618 Y11.6121
G01 X1.4686 Y11.7175
G01 X1.2644 Y11.9525
G01 X1.0157 Y12.2946
G01 X0.7866 Y12.6776
G01 X0.6007 Y13.0635
G01 X0.4463 Y13.4727
G01 X0.3294 Y13.8943
G01 X0.2499 Y14.3299
G01 X0.2101 Y14.7747
G00 Z2.0000 ( retract )

G00 X1.0744 Y14.9860 ( rapid move to begin. )
G01 F450.0001
( Mill infeed pass 1/1 )
G01 Z-0.1270
G01 F900.0000
G01 X1.0744 Y14.9860
G01 X1.0937 Y15.3787
G01 X1.1516 Y15.7673
G01 X1.2469 Y16.1488
G01 X1.3795 Y16.5186
G01 X1.5474 Y16.8742
G01 X1.7496 Y17.2113
G01 X1.9837 Y17.5270
G01 X2.2476 Y17.8184
G01 X2.5390 Y18.0823
G01 X2.8547 Y18.3164
G01 X3.1918 Y18.5184
G01 X3.5471 Y18.6865
G01 X3.9172 Y18.8189
G01 X4.2984 Y18.9144
G01 X4.6873 Y18.9723
G01 X5.0800 Y18.9913
G01 X5.4727 Y18.9720
G01 X5.8613 Y18.9144
G01 X6.2426 Y18.8189
G01 X6.6126 Y18.6865
G01 X6.9680 Y18.5184
G01 X7.3053 Y18.3162
G01 X7.6210 Y18.0820
G01 X7.9121 Y17.8181
G01 X8.1760 Y17.5270
G01 X8.4102 Y17.2113
G01 X8.6124 Y16.8740
G01 X8.7805 Y16.5186
G01 X8.9129 Y16.1486
G01 X9.0084 Y15.7673
G01 X9.0660 Y15.3787
G01 X9.0853 Y14.9860
G01 X9.0660 Y14.5933
G01 X9.0084 Y14.2047
G01 X8.9129 Y13.8232
G01 X8.7805 Y13.4531
G01 X8.6124 Y13.0980
G01 X8.4102 Y12.7607
G01 X8.1760 Y12.4450
G01 X7.9121 Y12.1539
G01 X7.6210 Y11.8897
G01 X7.3053 Y11.6556
G01 X6.9680 Y11.4536
G01 X6.6126 Y11.2855
G01 X6.2426 Y11.1531
G01 X5.8613 Y11.0576
G01 X5.4727 Y11.0000
G01 X5.0800 Y10.9807
G01 X4.6873 Y10.9997
G01 X4.2984 Y11.0574
G01 X3.9172 Y11.1531
G01 X3.5471 Y11.2855
G01 X3.1918 Y11.4536
G01 X2.8547 Y11.6556
G01 X2.5390 Y11.8897
G01 X2.2476 Y12.1536
G01 X1.9837 Y12.4450
G01 X1.7496 Y12.7607
G01 X1.5474 Y13.0978
G01 X1.3795 Y13.4531
G01 X1.2469 Y13.8232
G01 X1.1516 Y14.2044
G01 X1.0937 Y14.5933
G01 X1.0744 Y14.9860
G01 X0.9746 Y14.9860
G01 X0.9942 Y14.5837
G01 X1.0533 Y14.1851
G01 X1.1514 Y13.7942
G01 X1.2870 Y13.4150
G01 X1.4592 Y13.0508
G01 X1.6665 Y12.7051
G01 X1.9065 Y12.3815
G01 X2.1770 Y12.0830
G01 X2.4755 Y11.8125
G01 X2.7991 Y11.5725
G01 X3.1448 Y11.3652
G01 X3.5088 Y11.1930
G01 X3.8882 Y11.0574
G01 X4.2791 Y10.9593
G01 X4.6777 Y10.9002
G01 X5.0800 Y10.8806
G01 X5.4823 Y10.9002
G01 X5.8809 Y10.9593
G01 X6.2718 Y11.0574
G01 X6.6510 Y11.1930
G01 X7.0152 Y11.3652
G01 X7.3609 Y11.5725
G01 X7.6845 Y11.8125
G01 X7.9830 Y12.0830
G01 X8.2535 Y12.3815
G01 X8.4935 Y12.7051
G01 X8.7005 Y13.0508
G01 X8.8730 Y13.4148
G01 X9.0086 Y13.7942
G01 X9.1064 Y14.1851
G01 X9.1656 Y14.5837
G01 X9.1854 Y14.9860
G01 X9.1656 Y15.3883
G01 X9.1064 Y15.7869
G01 X9.0086 Y16.1778
G01 X8.8730 Y16.5570
G01 X8.7005 Y16.9212
G01 X8.4935 Y17.2669
G01 X8.2535 Y17.5905
G01 X7.9830 Y17.8890
G01 X7.6845 Y18.1595
G01 X7.3609 Y18.3995
G01 X7.0152 Y18.6068
G01 X6.6510 Y18.7790
G01 X6.2718 Y18.9146
G01 X5.8809 Y19.0124
G01 X5.4823 Y19.0716
G01 X5.0800 Y19.0914
G01 X4.6777 Y19.0716
G01 X4.2791 Y19.0124
G01 X3.8882 Y18.9146
G01 X3.5088 Y18.7790
G01 X3.1448 Y18.6068
G01 X2.7991 Y18.3995
G01 X2.4755 Y18.1595
G01 X2.1770 Y17.8890
G01 X1.9065 Y17.5905
G01 X1.6665 Y17.2669
G01 X1.4592 Y16.9212
G01 X1.2870 Y16.5570
G01 X1.1514 Y16.1778
G01 X1.0533 Y15.7869
G01 X0.9942 Y15.3883
G01 X0.9746 Y14.9860
G01 X1.2804 Y14.9761
G01 X1.3553 Y14.2352
G01 X1.5735 Y13.5230
G01 X1.9205 Y12.8748
G01 X2.3863 Y12.3063
G01 X2.9771 Y11.8214
G01 X3.6350 Y11.4719
G01 X4.3485 Y11.2575
G01 X5.0701 Y11.1864
G01 X5.8115 Y11.2575
G01 X6.5430 Y11.4795
G01 X7.1829 Y11.8214
G01 X7.7597 Y12.2923
G01 X8.2395 Y12.8748
G01 X8.5941 Y13.5410
G01 X8.8069 Y14.2446
G01 X8.8796 Y14.9761
G01 X8.8069 Y15.7274
G01 X8.5865 Y16.4490
G01 X8.2395 Y17.0972
G01 X7.7737 Y17.6657
G01 X7.1829 Y18.1506
G01 X6.5250 Y18.5001
G01 X5.8115 Y18.7145
G01 X5.0899 Y18.7856
G01 X4.3485 Y18.7145
G01 X3.6170 Y18.4925
G01 X2.9771 Y18.1506
G01 X2.4003 Y17.6797
G01 X1.9205 Y17.0972
G01 X1.5659 Y16.4310
G01 X1.3515 Y15.7175
G01 X1.2804 Y14.9761
G01 X1.1808 Y14.9664
G01 X1.2550 Y14.2253
G01 X1.4702 Y13.5120
G01 X1.4851 Y13.4757
G01 X1.8372 Y12.8194
G01 X2.3091 Y12.2428
G01 X2.3368 Y12.2151
G01 X2.8974 Y11.7549
G01 X2.9301 Y11.7333
G01 X3.5697 Y11.3911
G01 X3.6060 Y11.3762
G01 X4.3002 Y11.1656
G01 X4.3386 Y11.1580
G01 X5.0800 Y11.0861
G01 X5.8214 Y11.1580
G01 X5.8598 Y11.1656
G01 X6.5725 Y11.3828
G01 X7.2299 Y11.7333
G01 X7.2624 Y11.7549
G01 X7.8377 Y12.2283
G01 X8.3111 Y12.8036
G01 X8.3327 Y12.8361
G01 X8.6749 Y13.4757
G01 X8.6898 Y13.5120
G01 X8.9004 Y14.2060
G01 X8.9080 Y14.2446
G01 X8.9792 Y14.9664
G01 X8.9792 Y15.0056
G01 X8.9050 Y15.7467
G01 X8.6898 Y16.4600
G01 X8.6749 Y16.4963
G01 X8.3327 Y17.1359
G01 X8.3111 Y17.1684
G01 X7.8509 Y17.7292
G01 X7.8232 Y17.7569
G01 X7.2624 Y18.2171
G01 X7.2299 Y18.2387
G01 X6.5725 Y18.5892
G01 X5.8598 Y18.8062
G01 X5.8214 Y18.8140
G01 X5.0800 Y18.8859
G01 X4.3386 Y18.8140
G01 X4.3002 Y18.8062
G01 X3.6060 Y18.5956
G01 X3.5697 Y18.5806
G01 X2.9301 Y18.2387
G01 X2.8974 Y18.2171
G01 X2.3368 Y17.7569
G01 X2.3091 Y17.7292
G01 X1.8489 Y17.1684
G01 X1.8273 Y17.1359
G01 X1.4851 Y16.4963
G01 X1.4702 Y16.4600
G01 X1.2550 Y15.7467
G01 X1.1808 Y15.0056
G01 X1.1808 Y14.9664
G00 Z2.0000 ( retract )

G00 X14.2972 Y18.5819 ( rapid move to begin. )
G01 F450.0001
( Mill infeed pass 1/1 )
G01 Z-0.1270
G01 F900.0000
G01 X14.2972 Y18.5819
G01 X14.3142 Y18.8247
G01 X14.3660 Y19.0624
G01 X14.4508 Y19.2903
G01 X14.5677 Y19.5039
G01 X14.7135 Y19.6985
G01 X14.8854 Y19.8707
G01 X15.0802 Y20.0165
G01 X15.2936 Y20.1331
G01 X15.5217 Y20.2181
G01 X15.7594 Y20.2697
G01 X16.0020 Y20.2870
G01 X16.2446 Y20.2697
G01 X16.4823 Y20.2181
G01 X16.7102 Y20.1328
G01 X16.9238 Y20.0162
G01 X17.1183 Y19.8704
G01 X17.2905 Y19.6985
G01 X17.4361 Y19.5036
G01 X17.5527 Y19.2903
G01 X17.6380 Y19.0624
G01 X17.6898 Y18.8247
G01 X17.7068 Y18.5819
G01 X17.6898 Y18.3393
G01 X17.6380 Y18.1016
G01 X17.5527 Y17.8737
G01 X17.4361 Y17.6604
G01 X17.2905 Y17.4655
G01 X17.1183 Y17.2936
G01 X16.9238 Y17.1478
G01 X16.7102 Y17.0312
G01 X16.4823 Y16.9459
G01 X16.2446 Y16.8943
G01 X16.0020 Y16.8768
G01 X15.7594 Y16.8943
G01 X15.5217 Y16.9459
G01 X15.2936 Y17.0310
G01 X15.0802 Y17.1475
G01 X14.8854 Y17.2933
G01 X14.7135 Y17.4653
G01 X14.5677 Y17.6601
G01 X14.4508 Y17.8737
G01 X14.3660 Y18.1016
G01 X14.3142 Y18.3393
G01 X14.2972 Y18.5819
G01 X14.1968 Y18.5819
G01 X14.2154 Y18.3251
G01 X14.2700 Y18.0734
G01 X14.3599 Y17.8321
G01 X14.4833 Y17.6060
G01 X14.6378 Y17.3998
G01 X14.8199 Y17.2179
G01 X15.0261 Y17.0635
G01 X15.2522 Y16.9400
G01 X15.4935 Y16.8501
G01 X15.7452 Y16.7952
G01 X16.0020 Y16.7770
G01 X16.2588 Y16.7952
G01 X16.5105 Y16.8501
G01 X16.7518 Y16.9400
G01 X16.9779 Y17.0635
G01 X17.1841 Y17.2179
G01 X17.3662 Y17.3998
G01 X17.5204 Y17.6060
G01 X17.6439 Y17.8321
G01 X17.7340 Y18.0734
G01 X17.7886 Y18.3251
G01 X17.8072 Y18.5819
G01 X17.7886 Y18.8389
G01 X17.7340 Y19.0906
G01 X17.6439 Y19.3319
G01 X17.5204 Y19.5577
G01 X17.3662 Y19.7640
G01 X17.1841 Y19.9461
G01 X16.9779 Y20.1005
G01 X16.7518 Y20.2240
G01 X16.5105 Y20.3139
G01 X16.2588 Y20.3688
G01 X16.0020 Y20.3871
G01 X15.7452 Y20.3688
G01 X15.4935 Y20.3139
G01 X15.2522 Y20.2240
G01 X15.0261 Y20.1005
G01 X14.8199 Y19.9461
G01 X14.6378 Y19.7640
G01 X14.4833 Y19.5577
G01 X14.3599 Y19.3319
G01 X14.2700 Y19.0906
G01 X14.2154 Y18.8389
G01 X14.1968 Y18.5819
G01 X14.5024 Y18.5722
G01 X14.5293 Y18.2992
G01 X14.6129 Y18.0172
G01 X14.7549 Y17.7485
G01 X14.9487 Y17.5148
G01 X15.1686 Y17.3347
G01 X15.4191 Y17.2004
G01 X15.7190 Y17.1094
G01 X16.0117 Y17.0825
G01 X16.2850 Y17.1094
G01 X16.5669 Y17.1928
G01 X16.8270 Y17.3297
G01 X17.0627 Y17.5214
G01 X17.2542 Y17.7571
G01 X17.3878 Y18.0081
G01 X17.4709 Y18.2799
G01 X17.5016 Y18.5918
G01 X17.4747 Y18.8648
G01 X17.3911 Y19.1468
G01 X17.2491 Y19.4153
G01 X17.0627 Y19.6426
G01 X16.8432 Y19.8234
G01 X16.5760 Y19.9677
G01 X16.2850 Y20.0546
G01 X16.0117 Y20.0815
G01 X15.7190 Y20.0546
G01 X15.4280 Y19.9677
G01 X15.1608 Y19.8234
G01 X14.9413 Y19.6426
G01 X14.7607 Y19.4231
G01 X14.6162 Y19.1559
G01 X14.5293 Y18.8648
G01 X14.5024 Y18.5722
G01 X14.4031 Y18.5623
G01 X14.4297 Y18.2893
G01 X14.4376 Y18.2509
G01 X14.5171 Y17.9883
G01 X14.5321 Y17.9520
G01 X14.6616 Y17.7099
G01 X14.6832 Y17.6774
G01 X14.8575 Y17.4653
G01 X14.8852 Y17.4374
G01 X15.0973 Y17.2634
G01 X15.1300 Y17.2415
G01 X15.3721 Y17.1122
G01 X15.4081 Y17.0972
G01 X15.6708 Y17.0175
G01 X15.7091 Y17.0099
G01 X16.0020 Y16.9819
G01 X16.2946 Y17.0099
G01 X16.3332 Y17.0175
G01 X16.5959 Y17.0972
G01 X16.6319 Y17.1122
G01 X16.8740 Y17.2415
G01 X16.9067 Y17.2634
G01 X17.1188 Y17.4374
G01 X17.1465 Y17.4653
G01 X17.3208 Y17.6774
G01 X17.3424 Y17.7099
G01 X17.4719 Y17.9520
G01 X17.4869 Y17.9883
G01 X17.5664 Y18.2509
G01 X17.5743 Y18.2893
G01 X17.6019 Y18.5819
G01 X17.5743 Y18.8747
G01 X17.5664 Y18.9131
G01 X17.4869 Y19.1757
G01 X17.4719 Y19.2121
G01 X17.3424 Y19.4541
G01 X17.3208 Y19.4866
G01 X17.1465 Y19.6987
G01 X17.1188 Y19.7264
G01 X16.9067 Y19.9006
G01 X16.8740 Y19.9225
G01 X16.6319 Y20.0518
G01 X16.5959 Y20.0668
G01 X16.3332 Y20.1465
G01 X16.2946 Y20.1541
G01 X16.0216 Y20.1811
G01 X15.9824 Y20.1811
G01 X15.7091 Y20.1541
G01 X15.6708 Y20.1465
G01 X15.4081 Y20.0668
G01 X15.3721 Y20.0518
G01 X15.1130 Y19.9123
G01 X14.8852 Y19.7264
G01 X14.8575 Y19.6987
G01 X14.6832 Y19.4866
G01 X14.6616 Y19.4541
G01 X14.5321 Y19.2121
G01 X14.5171 Y19.1757
G01 X14.4376 Y18.9131
G01 X14.4297 Y18.8747
G01 X14.4031 Y18.6017
G01 X14.4031 Y18.5623
G00 Z2.0000 ( retract )

G00 X16.6284 Y12.9901 ( rapid move to begin. )
G01 F450.0001
( Mill infeed pass 1/1 )
G01 Z-0.1270
G01 F900.0000
G01 X16.6284 Y12.9901
G01 X17.4219 Y12.9901
G01 X17.4610 Y12.9860
G01 X17.4986 Y12.9748
G01 X17.5331 Y12.9563
G01 X17.5633 Y12.9314
G01 X17.5882 Y12.9012
G01 X17.6068 Y12.8666
G01 X17.6182 Y12.8290
G01 X17.6220 Y12.7899
G01 X17.6220 Y11.9964
G01 X17.5928 Y11.9670
G01 X17.6220 Y11.9964
G01 X17.7218 Y11.9964
G01 X17.7513 Y11.9670
G01 X17.7218 Y11.9964
G01 X17.7231 Y12.8273
G01 X17.7193 Y12.8509
G01 X17.6893 Y12.9360
G01 X17.6370 Y13.0051
G01 X17.5679 Y13.0574
G01 X17.4831 Y13.0873
G01 X17.4592 Y13.0912
G01 X16.6284 Y13.0899
G01 X16.5992 Y13.1194
G01 X16.6284 Y13.0899
G01 X16.6284 Y12.9901
G01 X16.5283 Y12.8900
G01 X16.5283 Y13.1900
G01 X17.4645 Y13.1900
G01 X17.5062 Y13.1854
G01 X17.6157 Y13.1448
G01 X17.7076 Y13.0757
G01 X17.7767 Y12.9837
G01 X17.8176 Y12.8742
G01 X17.8219 Y12.8323
G01 X17.8219 Y11.8963
G01 X17.5219 Y11.8963
G01 X17.5219 Y12.7899
G01 X17.5202 Y12.8095
G01 X17.5052 Y12.8455
G01 X17.4775 Y12.8732
G01 X17.4602 Y12.8824
G01 X17.4219 Y12.8900
G01 X16.5283 Y12.8900
G00 Z2.0000 ( retract )

G00 X14.3220 Y11.9964 ( rapid move to begin. )
G01 F450.0001
( Mill infeed pass 1/1 )
G01 Z-0.1270
G01 F900.0000
G01 X14.3220 Y11.9964
G01 X14.4221 Y11.9964
G01 X14.4513 Y11.9670
G01 X14.4221 Y11.9964
G01 X14.4221 Y12.7899
G01 X14.4259 Y12.8290
G01 X14.4371 Y12.8666
G01 X14.4556 Y12.9012
G01 X14.4805 Y12.9314
G01 X14.5108 Y12.9563
G01 X14.5456 Y12.9748
G01 X14.5829 Y12.9860
G01 X14.6220 Y12.9901
G01 X15.4155 Y12.9901
G01 X15.4450 Y12.9606
G01 X15.4155 Y12.9901
G01 X15.4155 Y13.0899
G01 X15.4450 Y13.1194
G01 X15.4155 Y13.0899
G01 X14.5606 Y13.0889
G01 X14.4762 Y13.0569
G01 X14.4069 Y13.0051
G01 X14.3551 Y12.9357
G01 X14.3231 Y12.8514
G01 X14.3220 Y11.9964
G01 X14.2220 Y11.8963
G01 X14.2220 Y12.8323
G01 X14.2265 Y12.8742
G01 X14.2674 Y12.9837
G01 X14.3363 Y13.0757
G01 X14.4282 Y13.1448
G01 X14.5377 Y13.1854
G01 X14.5796 Y13.1900
G01 X15.5156 Y13.1900
G01 X15.5156 Y12.8900
G01 X14.6220 Y12.8900
G01 X14.5837 Y12.8824
G01 X14.5512 Y12.8608
G01 X14.5296 Y12.8283
G01 X14.5219 Y12.7899
G01 X14.5219 Y11.8963
G01 X14.2220 Y11.8963
G00 Z2.0000 ( retract )

G00 X14.3220 Y9.9527 ( rapid move to begin. )
G01 F450.0001
( Mill infeed pass 1/1 )
G01 Z-0.1270
G01 F900.0000
G01 X14.3220 Y9.9527
G01 X14.3220 Y10.7836
G01 X14.2926 Y10.8130
G01 X14.3220 Y10.7836
G01 X14.4221 Y10.7836
G01 X14.4513 Y10.8128
G01 X14.4221 Y10.7836
G01 X14.4221 Y9.9901
G01 X14.4259 Y9.9510
G01 X14.4371 Y9.9134
G01 X14.4556 Y9.8788
G01 X14.4805 Y9.8486
G01 X14.5108 Y9.8237
G01 X14.5456 Y9.8052
G01 X14.5829 Y9.7937
G01 X14.6220 Y9.7899
G01 X15.4155 Y9.7899
G01 X15.4450 Y9.8194
G01 X15.4155 Y9.7899
G01 X15.4155 Y9.6901
G01 X15.4450 Y9.6604
G01 X15.4155 Y9.6901
G01 X14.5606 Y9.6911
G01 X14.4762 Y9.7231
G01 X14.4069 Y9.7749
G01 X14.3551 Y9.8443
G01 X14.3231 Y9.9286
G01 X14.3220 Y9.9527
G01 X14.2220 Y9.9474
G01 X14.2220 Y10.8836
G01 X14.5219 Y10.8836
G01 X14.5219 Y9.9901
G01 X14.5240 Y9.9705
G01 X14.5387 Y9.9344
G01 X14.5664 Y9.9068
G01 X14.5837 Y9.8976
G01 X14.6220 Y9.8900
G01 X15.5156 Y9.8900
G01 X15.5156 Y9.5900
G01 X14.5796 Y9.5900
G01 X14.5377 Y9.5943
G01 X14.4282 Y9.6352
G01 X14.3363 Y9.7043
G01 X14.2674 Y9.7963
G01 X14.2265 Y9.9057
G01 X14.2220 Y9.9474
G00 Z2.0000 ( retract )

G00 X14.4229 Y6.3703 ( rapid move to begin. )
G01 F450.0001
( Mill infeed pass 1/1 )
G01 Z-0.1270
G01 F900.0000
G01 X14.4229 Y6.3703
G01 X14.4229 Y6.4097
G01 X14.4521 Y6.6985
G01 X14.5372 Y6.9837
G01 X14.5522 Y7.0201
G01 X14.6916 Y7.2789
G01 X14.8775 Y7.5067
G01 X14.9052 Y7.5344
G01 X15.1331 Y7.7203
G01 X15.3919 Y7.8598
G01 X15.4282 Y7.8748
G01 X15.6908 Y7.9545
G01 X15.7292 Y7.9621
G01 X16.0023 Y7.9891
G01 X16.0416 Y7.9891
G01 X16.3147 Y7.9621
G01 X16.3533 Y7.9545
G01 X16.6157 Y7.8748
G01 X16.6520 Y7.8598
G01 X16.8940 Y7.7305
G01 X16.9266 Y7.7086
G01 X17.1389 Y7.5344
G01 X17.1666 Y7.5067
G01 X17.3406 Y7.2946
G01 X17.3624 Y7.2621
G01 X17.4917 Y7.0201
G01 X17.5067 Y6.9837
G01 X17.5898 Y6.7081
G01 X17.6220 Y6.3899
G01 X17.5941 Y6.0973
G01 X17.5865 Y6.0589
G01 X17.5067 Y5.7963
G01 X17.4917 Y5.7600
G01 X17.3523 Y5.5011
G01 X17.1666 Y5.2733
G01 X17.1389 Y5.2454
G01 X16.9266 Y5.0714
G01 X16.8940 Y5.0495
G01 X16.6520 Y4.9202
G01 X16.6157 Y4.9052
G01 X16.3533 Y4.8255
G01 X16.3147 Y4.8179
G01 X16.0221 Y4.7899
G01 X15.7292 Y4.8179
G01 X15.6908 Y4.8255
G01 X15.4282 Y4.9052
G01 X15.3919 Y4.9202
G01 X15.1498 Y5.0495
G01 X15.1173 Y5.0714
G01 X14.9052 Y5.2454
G01 X14.8775 Y5.2733
G01 X14.6916 Y5.5011
G01 X14.5522 Y5.7600
G01 X14.5372 Y5.7963
G01 X14.4539 Y6.0729
G01 X14.4229 Y6.3703
G01 X14.5224 Y6.3802
G01 X14.5509 Y6.6827
G01 X14.6362 Y6.9639
G01 X14.7805 Y7.2311
G01 X14.9614 Y7.4506
G01 X15.1808 Y7.6314
G01 X15.4391 Y7.7716
G01 X15.7391 Y7.8626
G01 X16.0122 Y7.8895
G01 X16.3050 Y7.8626
G01 X16.5867 Y7.7790
G01 X16.8554 Y7.6373
G01 X17.0891 Y7.4435
G01 X17.2743 Y7.2149
G01 X17.4036 Y6.9728
G01 X17.4945 Y6.6728
G01 X17.5219 Y6.3899
G01 X17.4945 Y6.1072
G01 X17.4036 Y5.8072
G01 X17.2692 Y5.5565
G01 X17.0891 Y5.3365
G01 X16.8468 Y5.1377
G01 X16.5867 Y5.0008
G01 X16.3050 Y4.9174
G01 X16.0317 Y4.8905
G01 X15.7391 Y4.9174
G01 X15.4391 Y5.0084
G01 X15.1887 Y5.1427
G01 X14.9687 Y5.3228
G01 X14.7747 Y5.5565
G01 X14.6329 Y5.8252
G01 X14.5509 Y6.0973
G01 X14.5224 Y6.3802
G01 X14.2169 Y6.3899
G01 X14.2352 Y6.6469
G01 X14.2900 Y6.8984
G01 X14.3800 Y7.1399
G01 X14.5034 Y7.3660
G01 X14.6578 Y7.5720
G01 X14.8399 Y7.7541
G01 X15.0459 Y7.9085
G01 X15.2720 Y8.0320
G01 X15.5136 Y8.1219
G01 X15.7650 Y8.1768
G01 X16.0221 Y8.1951
G01 X16.2789 Y8.1768
G01 X16.5306 Y8.1219
G01 X16.7289 Y8.0480
G01 X16.7719 Y8.0320
G01 X16.9979 Y7.9085
G01 X17.2042 Y7.7541
G01 X17.3860 Y7.5720
G01 X17.5405 Y7.3660
G01 X17.6639 Y7.1399
G01 X17.7538 Y6.8986
G01 X17.8087 Y6.6469
G01 X17.8270 Y6.3899
G01 X17.8087 Y6.1331
G01 X17.7538 Y5.8814
G01 X17.6639 Y5.6401
G01 X17.5405 Y5.4140
G01 X17.3860 Y5.2078
G01 X17.2042 Y5.0256
G01 X16.9979 Y4.8715
G01 X16.7719 Y4.7480
G01 X16.5306 Y4.6581
G01 X16.2789 Y4.6032
G01 X16.0221 Y4.5850
G01 X15.7650 Y4.6032
G01 X15.5133 Y4.6581
G01 X15.2720 Y4.7480
G01 X15.0462 Y4.8715
G01 X14.8399 Y5.0259
G01 X14.6578 Y5.2078
G01 X14.5034 Y5.4140
G01 X14.3800 Y5.6401
G01 X14.2900 Y5.8814
G01 X14.2352 Y6.1331
G01 X14.2169 Y6.3899
G01 X14.3172 Y6.3899
G01 X14.3342 Y6.1473
G01 X14.3861 Y5.9096
G01 X14.4709 Y5.6817
G01 X14.5875 Y5.4681
G01 X14.7333 Y5.2733
G01 X14.9055 Y5.1013
G01 X15.1000 Y4.9555
G01 X15.3137 Y4.8390
G01 X15.5415 Y4.7539
G01 X15.7792 Y4.7023
G01 X16.0221 Y4.6848
G01 X16.2646 Y4.7023
G01 X16.5024 Y4.7539
G01 X16.7302 Y4.8390
G01 X16.9438 Y4.9555
G01 X17.1384 Y5.1016
G01 X17.3106 Y5.2733
G01 X17.4562 Y5.4684
G01 X17.5727 Y5.6817
G01 X17.6581 Y5.9096
G01 X17.7096 Y6.1473
G01 X17.7269 Y6.3899
G01 X17.7096 Y6.6327
G01 X17.6581 Y6.8704
G01 X17.5730 Y7.0983
G01 X17.4564 Y7.3119
G01 X17.3104 Y7.5065
G01 X17.1384 Y7.6784
G01 X16.9438 Y7.8245
G01 X16.7302 Y7.9408
G01 X16.5024 Y8.0261
G01 X16.2646 Y8.0777
G01 X16.0221 Y8.0950
G01 X15.7792 Y8.0777
G01 X15.5415 Y8.0261
G01 X15.3137 Y7.9411
G01 X15.1000 Y7.8245
G01 X14.9055 Y7.6787
G01 X14.7333 Y7.5065
G01 X14.5875 Y7.3119
G01 X14.4709 Y7.0983
G01 X14.3858 Y6.8704
G01 X14.3342 Y6.6327
G01 X14.3172 Y6.3899
G00 Z2.0000 ( retract )

G00 X16.5283 Y9.5900 ( rapid move to begin. )
G01 F450.0001
( Mill infeed pass 1/1 )
G01 Z-0.1270
G01 F900.0000
G01 X16.5283 Y9.5900
G01 X17.4645 Y9.5900
G01 X17.5062 Y9.5943
G01 X17.6157 Y9.6352
G01 X17.7076 Y9.7043
G01 X17.7767 Y9.7963
G01 X17.8176 Y9.9057
G01 X17.8219 Y9.9474
G01 X17.8219 Y10.8836
G01 X17.5219 Y10.8836
G01 X17.5219 Y9.9901
G01 X17.5143 Y9.9517
G01 X17.4927 Y9.9192
G01 X17.4602 Y9.8976
G01 X17.4219 Y9.8900
G01 X16.5283 Y9.8900
G01 X16.5283 Y9.5900
G01 X16.6284 Y9.6901
G01 X17.4833 Y9.6911
G01 X17.5677 Y9.7231
G01 X17.6370 Y9.7749
G01 X17.6888 Y9.8443
G01 X17.7211 Y9.9286
G01 X17.7218 Y10.7836
G01 X17.7516 Y10.8130
G01 X17.7218 Y10.7836
G01 X17.6220 Y10.7836
G01 X17.5928 Y10.8128
G01 X17.6220 Y10.7836
G01 X17.6220 Y9.9901
G01 X17.6182 Y9.9510
G01 X17.6068 Y9.9134
G01 X17.5882 Y9.8788
G01 X17.5633 Y9.8486
G01 X17.5331 Y9.8237
G01 X17.4986 Y9.8052
G01 X17.4610 Y9.7937
G01 X17.4219 Y9.7899
G01 X16.6284 Y9.7899
G01 X16.5992 Y9.8194
G01 X16.6284 Y9.7899
G01 X16.6284 Y9.6901
G00 Z2.0000 ( retract )

G00 X23.6078 Y4.6987 ( rapid move to begin. )
G01 F450.0001
( Mill infeed pass 1/1 )
G01 Z-0.1270
G01 F900.0000
G01 X23.6078 Y4.6987
G01 X23.5077 Y4.5989
G01 X23.5077 Y8.3307
G01 X32.1958 Y8.3307
G01 X32.1958 Y4.5989
G01 X23.5077 Y4.5989
G01 X23.6078 Y4.8743
G01 X23.6078 Y8.2306
G01 X23.5786 Y8.2598
G01 X23.6078 Y8.2306
G01 X32.0957 Y8.2306
G01 X32.1252 Y8.2598
G01 X32.0957 Y8.2306
G01 X32.0957 Y4.6987
G01 X32.1252 Y4.6695
G01 X32.0957 Y4.6987
G01 X23.6078 Y4.6987
G01 X23.6078 Y4.8743
G01 X23.8120 Y5.4366
G01 X23.8176 Y5.4933
G01 X23.8308 Y5.5385
G01 X23.8666 Y5.6058
G01 X23.9042 Y5.6487
G01 X23.9410 Y5.6782
G01 X23.9913 Y5.7051
G01 X24.0553 Y5.7229
G01 X24.1023 Y5.7272
G01 X24.1493 Y5.7229
G01 X24.2044 Y5.7084
G01 X24.2717 Y5.6723
G01 X24.3078 Y5.6421
G01 X24.3954 Y5.5545
G01 X24.5339 Y5.4854
G01 X25.0015 Y5.4854
G01 X25.1399 Y5.5545
G01 X25.1943 Y5.6088
G01 X25.2633 Y5.7470
G01 X25.2633 Y6.2149
G01 X25.1943 Y6.3530
G01 X25.1399 Y6.4074
G01 X25.0015 Y6.4765
G01 X24.5339 Y6.4765
G01 X24.3954 Y6.4074
G01 X24.3078 Y6.3198
G01 X24.2575 Y6.2799
G01 X24.2260 Y6.2626
G01 X24.1744 Y6.2441
G01 X24.1203 Y6.2354
G01 X24.0472 Y6.2403
G01 X24.0124 Y6.2494
G01 X23.9621 Y6.2713
G01 X23.9169 Y6.3020
G01 X23.8783 Y6.3409
G01 X23.8392 Y6.4031
G01 X23.8209 Y6.4546
G01 X23.8143 Y6.4900
G01 X23.8133 Y6.5542
G01 X23.9344 Y7.7638
G01 X23.9423 Y7.8072
G01 X23.9685 Y7.8737
G01 X23.9982 Y7.9179
G01 X24.0218 Y7.9436
G01 X24.0792 Y7.9865
G01 X24.1104 Y8.0020
G01 X24.1612 Y8.0183
G01 X24.2235 Y8.0251
G01 X25.4427 Y8.0249
G01 X25.4897 Y8.0195
G01 X25.5529 Y7.9990
G01 X25.6022 Y7.9705
G01 X25.6383 Y7.9403
G01 X25.6687 Y7.9040
G01 X25.7012 Y7.8458
G01 X25.7155 Y7.8008
G01 X25.7233 Y7.7348
G01 X25.7155 Y7.6685
G01 X25.7012 Y7.6236
G01 X25.6794 Y7.5819
G01 X25.6449 Y7.5367
G01 X25.6022 Y7.4991
G01 X25.5349 Y7.4630
G01 X25.4897 Y7.4498
G01 X25.4330 Y7.4442
G01 X24.4864 Y7.4442
G01 X24.4475 Y7.0561
G01 X25.1150 Y7.0541
G01 X25.2001 Y7.0269
G01 X25.4419 Y6.9060
G01 X25.5184 Y6.8506
G01 X25.6690 Y6.6947
G01 X25.8305 Y6.3716
G01 X25.8442 Y6.2835
G01 X25.8432 Y5.6632
G01 X25.8341 Y5.6053
G01 X25.8252 Y5.5766
G01 X25.6931 Y5.3073
G01 X25.6375 Y5.2304
G01 X25.4815 Y5.0800
G01 X25.2006 Y4.9352
G01 X25.1186 Y4.9083
G01 X25.0701 Y4.9042
G01 X24.4653 Y4.9042
G01 X24.3769 Y4.9179
G01 X24.0541 Y5.0797
G01 X23.8978 Y5.2304
G01 X23.8669 Y5.2675
G01 X23.8308 Y5.3348
G01 X23.8176 Y5.3800
G01 X23.8120 Y5.4366
G01 X23.7119 Y5.4366
G01 X23.7165 Y5.3797
G01 X23.7241 Y5.3414
G01 X23.7350 Y5.3056
G01 X23.7675 Y5.2365
G01 X23.7894 Y5.2040
G01 X23.8280 Y5.1587
G01 X23.9961 Y4.9982
G01 X24.3464 Y4.8227
G01 X24.4653 Y4.8042
G01 X25.0701 Y4.8042
G01 X25.1379 Y4.8103
G01 X25.2461 Y4.8463
G01 X25.5400 Y4.9987
G01 X25.7073 Y5.1587
G01 X25.7299 Y5.1849
G01 X25.7828 Y5.2634
G01 X25.9149 Y5.5326
G01 X25.9329 Y5.5898
G01 X25.9443 Y5.6787
G01 X25.9443 Y6.2835
G01 X25.9329 Y6.3721
G01 X25.9141 Y6.4308
G01 X25.7505 Y6.7526
G01 X25.5897 Y6.9205
G01 X25.5140 Y6.9789
G01 X25.2448 Y7.1163
G01 X25.1602 Y7.1458
G01 X25.1000 Y7.1554
G01 X24.5580 Y7.1572
G01 X24.5222 Y7.1250
G01 X24.5580 Y7.1572
G01 X24.5768 Y7.3442
G01 X24.5534 Y7.3701
G01 X24.5768 Y7.3442
G01 X25.4526 Y7.3452
G01 X25.5280 Y7.3566
G01 X25.6002 Y7.3823
G01 X25.6657 Y7.4216
G01 X25.7091 Y7.4587
G01 X25.7459 Y7.5021
G01 X25.7678 Y7.5347
G01 X25.7937 Y7.5852
G01 X25.8112 Y7.6396
G01 X25.8224 Y7.7153
G01 X25.8224 Y7.7544
G01 X25.8112 Y7.8301
G01 X25.7937 Y7.8842
G01 X25.7678 Y7.9350
G01 X25.7459 Y7.9675
G01 X25.7091 Y8.0109
G01 X25.6657 Y8.0477
G01 X25.6329 Y8.0696
G01 X25.5638 Y8.1021
G01 X25.5090 Y8.1178
G01 X25.4526 Y8.1242
G01 X24.2235 Y8.1252
G01 X24.1701 Y8.1211
G01 X24.1003 Y8.1049
G01 X24.0662 Y8.0917
G01 X24.0035 Y8.0569
G01 X23.9484 Y8.0114
G01 X23.9024 Y7.9563
G01 X23.8839 Y7.9268
G01 X23.8544 Y7.8613
G01 X23.8349 Y7.7737
G01 X23.7139 Y6.5641
G01 X23.7127 Y6.5093
G01 X23.7226 Y6.4364
G01 X23.7460 Y6.3668
G01 X23.7630 Y6.3330
G01 X23.7823 Y6.3025
G01 X23.8298 Y6.2464
G01 X23.8580 Y6.2212
G01 X23.9194 Y6.1808
G01 X23.9873 Y6.1526
G01 X24.0220 Y6.1435
G01 X24.0952 Y6.1351
G01 X24.1328 Y6.1364
G01 X24.2054 Y6.1491
G01 X24.2395 Y6.1600
G01 X24.3055 Y6.1923
G01 X24.3644 Y6.2365
G01 X24.4541 Y6.3259
G01 X24.5575 Y6.3767
G01 X24.5570 Y6.3792
G01 X24.5575 Y6.3767
G01 X24.9779 Y6.3767
G01 X24.9786 Y6.3792
G01 X24.9779 Y6.3767
G01 X25.0815 Y6.3264
G01 X25.1130 Y6.2946
G01 X25.1633 Y6.1912
G01 X25.1661 Y6.1918
G01 X25.1633 Y6.1912
G01 X25.1633 Y5.7706
G01 X25.1661 Y5.7701
G01 X25.1633 Y5.7706
G01 X25.1130 Y5.6672
G01 X25.0815 Y5.6355
G01 X24.9779 Y5.5852
G01 X24.9786 Y5.5827
G01 X24.9779 Y5.5852
G01 X24.5575 Y5.5852
G01 X24.5570 Y5.5827
G01 X24.5575 Y5.5852
G01 X24.4541 Y5.6358
G01 X24.3784 Y5.7127
G01 X24.3352 Y5.7495
G01 X24.3025 Y5.7714
G01 X24.2519 Y5.7976
G01 X24.1785 Y5.8196
G01 X24.1221 Y5.8263
G01 X24.0828 Y5.8263
G01 X24.0071 Y5.8148
G01 X23.9530 Y5.7973
G01 X23.8854 Y5.7612
G01 X23.8262 Y5.7127
G01 X23.7894 Y5.6693
G01 X23.7675 Y5.6368
G01 X23.7350 Y5.5677
G01 X23.7195 Y5.5128
G01 X23.7119 Y5.4366
G00 Z2.0000 ( retract )

G00 X26.2313 Y5.3058 ( rapid move to begin. )
G01 F450.0001
( Mill infeed pass 1/1 )
G01 Z-0.1270
G01 F900.0000
G01 X26.2313 Y5.3058
G01 X26.2390 Y5.2494
G01 X26.2499 Y5.2139
G01 X26.2857 Y5.1465
G01 X26.3164 Y5.1097
G01 X26.4549 Y4.9736
G01 X26.5191 Y4.9324
G01 X26.5953 Y4.9083
G01 X26.6436 Y4.9042
G01 X26.7104 Y4.9124
G01 X26.7533 Y4.9266
G01 X26.7967 Y4.9489
G01 X26.8488 Y4.9903
G01 X26.9911 Y5.1366
G01 X27.0226 Y5.1852
G01 X27.0459 Y5.2492
G01 X27.0533 Y5.2992
G01 X27.0518 Y5.3497
G01 X27.0459 Y5.3825
G01 X27.0299 Y5.4305
G01 X26.9992 Y5.4854
G01 X26.8407 Y5.6487
G01 X26.7955 Y5.6833
G01 X26.7625 Y5.7008
G01 X26.6992 Y5.7216
G01 X26.6327 Y5.7267
G01 X26.5763 Y5.7191
G01 X26.5313 Y5.7051
G01 X26.4894 Y5.6833
G01 X26.4371 Y5.6421
G01 X26.3162 Y5.5212
G01 X26.2857 Y5.4849
G01 X26.2572 Y5.4359
G01 X26.2390 Y5.3820
G01 X26.2313 Y5.3058
G01 X26.1320 Y5.2962
G01 X26.1356 Y5.3726
G01 X26.1432 Y5.4110
G01 X26.1691 Y5.4828
G01 X26.1866 Y5.5159
G01 X26.2085 Y5.5484
G01 X26.2453 Y5.5918
G01 X26.3809 Y5.7259
G01 X26.4096 Y5.7495
G01 X26.4752 Y5.7889
G01 X26.5115 Y5.8039
G01 X26.5661 Y5.8196
G01 X26.6228 Y5.8263
G01 X26.6621 Y5.8263
G01 X26.7376 Y5.8148
G01 X26.8097 Y5.7889
G01 X26.8425 Y5.7714
G01 X26.9039 Y5.7259
G01 X27.0629 Y5.5644
G01 X27.0789 Y5.5456
G01 X27.1092 Y5.4963
G01 X27.1353 Y5.4333
G01 X27.1445 Y5.3998
G01 X27.1531 Y5.3322
G01 X27.1531 Y5.2992
G01 X27.1501 Y5.2644
G01 X27.1353 Y5.1981
G01 X27.1092 Y5.1351
G01 X27.0789 Y5.0858
G01 X26.9039 Y4.9055
G01 X26.8752 Y4.8816
G01 X26.8176 Y4.8461
G01 X26.7533 Y4.8207
G01 X26.7122 Y4.8113
G01 X26.6446 Y4.8042
G01 X26.5661 Y4.8118
G01 X26.4894 Y4.8354
G01 X26.4033 Y4.8859
G01 X26.2321 Y5.0541
G01 X26.1866 Y5.1156
G01 X26.1541 Y5.1849
G01 X26.1432 Y5.2205
G01 X26.1320 Y5.2962
G01 X27.3406 Y6.7671
G01 X27.3522 Y6.8618
G01 X27.4795 Y7.3665
G01 X27.5034 Y7.4270
G01 X27.6403 Y7.6952
G01 X27.6769 Y7.7457
G01 X27.8656 Y7.9306
G01 X28.1882 Y8.0950
G01 X28.2471 Y8.1138
G01 X28.3357 Y8.1252
G01 X28.5930 Y8.1247
G01 X28.6454 Y8.1194
G01 X28.7523 Y8.0841
G01 X29.0218 Y7.9464
G01 X29.0975 Y7.8882
G01 X29.2575 Y7.7208
G01 X29.4099 Y7.4270
G01 X29.4338 Y7.3665
G01 X29.5656 Y6.8384
G01 X29.5714 Y6.7909
G01 X29.5730 Y6.1628
G01 X29.5613 Y6.0673
G01 X29.4277 Y5.5433
G01 X29.2903 Y5.2626
G01 X29.2374 Y5.1849
G01 X29.2148 Y5.1587
G01 X29.0469 Y4.9982
G01 X28.7251 Y4.8344
G01 X28.6664 Y4.8156
G01 X28.5778 Y4.8042
G01 X28.3357 Y4.8042
G01 X28.2471 Y4.8156
G01 X28.1897 Y4.8336
G01 X27.9204 Y4.9657
G01 X27.8422 Y5.0188
G01 X27.8160 Y5.0414
G01 X27.6558 Y5.2090
G01 X27.4947 Y5.5222
G01 X27.4795 Y5.5636
G01 X27.3522 Y6.0673
G01 X27.3428 Y6.1239
G01 X27.3406 Y6.7671
G01 X27.4406 Y6.7671
G01 X27.4493 Y6.8377
G01 X27.5735 Y7.3317
G01 X27.5925 Y7.3815
G01 X27.7292 Y7.6497
G01 X27.7477 Y7.6749
G01 X27.9240 Y7.8494
G01 X28.2331 Y8.0056
G01 X28.2623 Y8.0150
G01 X28.3205 Y8.0241
G01 X28.5778 Y8.0251
G01 X28.6375 Y8.0183
G01 X28.7076 Y7.9946
G01 X28.9494 Y7.8737
G01 X29.0258 Y7.8184
G01 X29.1762 Y7.6624
G01 X29.3210 Y7.3815
G01 X29.3434 Y7.3210
G01 X29.4709 Y6.8026
G01 X29.4729 Y6.1625
G01 X29.4643 Y6.0917
G01 X29.3299 Y5.5679
G01 X29.1920 Y5.2929
G01 X29.1450 Y5.2304
G01 X28.9890 Y5.0797
G01 X28.6662 Y4.9179
G01 X28.5778 Y4.9042
G01 X28.3205 Y4.9055
G01 X28.2623 Y4.9144
G01 X28.2339 Y4.9235
G01 X27.9502 Y5.0643
G01 X27.8877 Y5.1112
G01 X27.7467 Y5.2555
G01 X27.7292 Y5.2802
G01 X27.5796 Y5.5776
G01 X27.4493 Y6.0917
G01 X27.4406 Y6.1531
G01 X27.4406 Y6.7671
G00 Z2.0000 ( retract )

G00 X28.0215 Y6.1981 ( rapid move to begin. )
G01 F450.0001
( Mill infeed pass 1/1 )
G01 Z-0.1270
G01 F900.0000
G01 X28.0215 Y6.1981
G01 X28.1262 Y5.7800
G01 X28.2115 Y5.6088
G01 X28.2659 Y5.5545
G01 X28.4043 Y5.4854
G01 X28.5092 Y5.4854
G01 X28.6476 Y5.5545
G01 X28.7017 Y5.6088
G01 X28.7873 Y5.7800
G01 X28.8920 Y6.1981
G01 X28.8920 Y6.7313
G01 X28.7873 Y7.1496
G01 X28.7017 Y7.3208
G01 X28.6476 Y7.3751
G01 X28.5092 Y7.4442
G01 X28.4043 Y7.4442
G01 X28.2659 Y7.3751
G01 X28.2115 Y7.3208
G01 X28.1262 Y7.1496
G01 X28.0215 Y6.7313
G01 X28.0215 Y6.1981
G01 X28.1216 Y6.2106
G01 X28.2199 Y5.8146
G01 X28.2928 Y5.6672
G01 X28.3243 Y5.6355
G01 X28.4279 Y5.5852
G01 X28.4274 Y5.5827
G01 X28.4279 Y5.5852
G01 X28.4856 Y5.5852
G01 X28.4861 Y5.5827
G01 X28.4856 Y5.5852
G01 X28.5890 Y5.6355
G01 X28.6207 Y5.6672
G01 X28.6936 Y5.8146
G01 X28.7927 Y6.2103
G01 X28.7927 Y6.7191
G01 X28.6936 Y7.1148
G01 X28.6207 Y7.2624
G01 X28.5890 Y7.2939
G01 X28.4856 Y7.3442
G01 X28.4861 Y7.3469
G01 X28.4856 Y7.3442
G01 X28.4279 Y7.3442
G01 X28.4274 Y7.3469
G01 X28.4279 Y7.3442
G01 X28.3243 Y7.2939
G01 X28.2928 Y7.2624
G01 X28.2199 Y7.1148
G01 X28.1208 Y6.7191
G01 X28.1216 Y6.2106
G00 Z2.0000 ( retract )

G00 X30.7548 Y6.2133 ( rapid move to begin. )
G01 F450.0001
( Mill infeed pass 1/1 )
G01 Z-0.1270
G01 F900.0000
G01 X30.7548 Y6.2133
G01 X30.7548 Y6.4295
G01 X31.2311 Y7.8583
G01 X31.2623 Y7.9281
G01 X31.3065 Y7.9906
G01 X31.3472 Y8.0305
G01 X31.4096 Y8.0744
G01 X31.4447 Y8.0919
G01 X31.4983 Y8.1115
G01 X31.5544 Y8.1219
G01 X31.5935 Y8.1247
G01 X31.6504 Y8.1222
G01 X31.7061 Y8.1105
G01 X31.7434 Y8.0980
G01 X31.8115 Y8.0635
G01 X31.8717 Y8.0162
G01 X31.9100 Y7.9741
G01 X31.9507 Y7.9093
G01 X31.9720 Y7.8565
G01 X31.9824 Y7.8186
G01 X31.9916 Y7.7429
G01 X31.9890 Y7.6860
G01 X31.9720 Y7.6114
G01 X31.1183 Y5.0533
G01 X31.0848 Y4.9865
G01 X31.0637 Y4.9566
G01 X31.0126 Y4.9019
G01 X30.9824 Y4.8781
G01 X30.9179 Y4.8405
G01 X30.8839 Y4.8268
G01 X30.8112 Y4.8087
G01 X30.7731 Y4.8052
G01 X30.6984 Y4.8087
G01 X30.6258 Y4.8268
G01 X30.5577 Y4.8580
G01 X30.5270 Y4.8781
G01 X30.4709 Y4.9273
G01 X30.4460 Y4.9566
G01 X30.4249 Y4.9865
G01 X30.3914 Y5.0533
G01 X29.5377 Y7.6114
G01 X29.5242 Y7.6665
G01 X29.5181 Y7.7429
G01 X29.6182 Y7.7455
G01 X29.6311 Y7.8209
G01 X29.6532 Y7.8732
G01 X29.6786 Y7.9129
G01 X29.7177 Y7.9543
G01 X29.7561 Y7.9819
G01 X29.8163 Y8.0104
G01 X29.8623 Y8.0213
G01 X29.9189 Y8.0246
G01 X29.9941 Y8.0119
G01 X30.0467 Y7.9898
G01 X30.0782 Y7.9698
G01 X30.1335 Y7.9174
G01 X30.1650 Y7.8699
G01 X30.1838 Y7.8265
G01 X30.7548 Y6.1133
G01 X31.3258 Y7.8265
G01 X31.3545 Y7.8870
G01 X31.3820 Y7.9251
G01 X31.4160 Y7.9578
G01 X31.4716 Y7.9946
G01 X31.5247 Y8.0150
G01 X31.5712 Y8.0234
G01 X31.6474 Y8.0213
G01 X31.7025 Y8.0068
G01 X31.7536 Y7.9819
G01 X31.7840 Y7.9604
G01 X31.8366 Y7.9047
G01 X31.8613 Y7.8646
G01 X31.8785 Y7.8207
G01 X31.8915 Y7.7455
G01 X31.8897 Y7.6985
G01 X31.8770 Y7.6429
G01 X31.0269 Y5.0940
G01 X31.0027 Y5.0439
G01 X30.9816 Y5.0140
G01 X30.9281 Y4.9619
G01 X30.8803 Y4.9332
G01 X30.8280 Y4.9139
G01 X30.7731 Y4.9052
G01 X30.7365 Y4.9052
G01 X30.6631 Y4.9195
G01 X30.6123 Y4.9421
G01 X30.5816 Y4.9619
G01 X30.5280 Y5.0140
G01 X30.4975 Y5.0604
G01 X30.4792 Y5.1029
G01 X29.6327 Y7.6429
G01 X29.6217 Y7.6888
G01 X29.6182 Y7.7455
G01 X29.5181 Y7.7429
G01 X29.5272 Y7.8186
G01 X29.5377 Y7.8565
G01 X29.5509 Y7.8915
G01 X29.5885 Y7.9581
G01 X29.6380 Y8.0162
G01 X29.6982 Y8.0635
G01 X29.7322 Y8.0828
G01 X29.7848 Y8.1051
G01 X29.8399 Y8.1189
G01 X29.8788 Y8.1237
G01 X29.9359 Y8.1242
G01 X29.9921 Y8.1156
G01 X30.0299 Y8.1054
G01 X30.0827 Y8.0841
G01 X30.1475 Y8.0432
G01 X30.1897 Y8.0048
G01 X30.2153 Y7.9751
G01 X30.2473 Y7.9281
G01 X30.2786 Y7.8583
G01 X30.7548 Y6.4295
G00 Z2.0000 ( retract )

G00 X29.8148 Y10.6652 ( rapid move to begin. )
G01 F450.0001
( Mill infeed pass 1/1 )
G01 Z-0.1270
G01 F900.0000
G01 X29.8148 Y10.6652
G01 X29.9659 Y10.6639
G01 X30.1810 Y10.7371
G01 X30.1826 Y10.7345
G01 X30.1810 Y10.7371
G01 X30.3139 Y10.8682
G01 X30.3870 Y11.0155
G01 X30.4861 Y11.4112
G01 X30.4861 Y11.6782
G01 X30.3870 Y12.0739
G01 X30.3139 Y12.2212
G01 X30.1810 Y12.3525
G01 X30.1826 Y12.3548
G01 X30.1810 Y12.3525
G01 X29.9659 Y12.4254
G01 X29.8148 Y12.4242
G01 X29.7856 Y12.4536
G01 X29.8148 Y12.4242
G01 X29.8148 Y10.6652
G01 X29.7150 Y10.5654
G01 X29.7150 Y12.5242
G01 X29.9819 Y12.5242
G01 X30.2351 Y12.4399
G01 X30.3952 Y12.2799
G01 X30.4808 Y12.1087
G01 X30.5852 Y11.6903
G01 X30.5852 Y11.3990
G01 X30.4808 Y10.9809
G01 X30.3952 Y10.8097
G01 X30.2351 Y10.6497
G01 X29.9819 Y10.5654
G01 X29.7150 Y10.5654
G00 Z2.0000 ( retract )

G00 X29.1338 Y10.2748 ( rapid move to begin. )
G01 F450.0001
( Mill infeed pass 1/1 )
G01 Z-0.1270
G01 F900.0000
G01 X29.1338 Y10.2748
G01 X29.1379 Y10.2278
G01 X29.1526 Y10.1727
G01 X29.1887 Y10.1054
G01 X29.2189 Y10.0693
G01 X29.2550 Y10.0391
G01 X29.3225 Y10.0030
G01 X29.3677 Y9.9898
G01 X29.4246 Y9.9842
G01 X30.0756 Y9.9880
G01 X30.4833 Y10.1199
G01 X30.5631 Y10.1610
G01 X30.8389 Y10.4318
G01 X30.8938 Y10.5080
G01 X31.0274 Y10.7787
G01 X31.1574 Y11.2926
G01 X31.1663 Y11.3635
G01 X31.1663 Y11.7262
G01 X31.1574 Y11.7968
G01 X31.0274 Y12.3106
G01 X30.8938 Y12.5814
G01 X30.8389 Y12.6576
G01 X30.5745 Y12.9187
G01 X30.5501 Y12.9365
G01 X30.4833 Y12.9695
G01 X30.0756 Y13.1016
G01 X29.4246 Y13.1051
G01 X29.3774 Y13.1011
G01 X29.3042 Y13.0790
G01 X29.2628 Y13.0564
G01 X29.2189 Y13.0200
G01 X29.1887 Y12.9840
G01 X29.1602 Y12.9347
G01 X29.1379 Y12.8618
G01 X29.1338 Y12.8148
G01 X29.1338 Y10.2748
G01 X29.0337 Y10.2748
G01 X29.0337 Y12.8148
G01 X29.0386 Y12.8714
G01 X29.0462 Y12.9101
G01 X29.0634 Y12.9642
G01 X29.0896 Y13.0150
G01 X29.1114 Y13.0475
G01 X29.1483 Y13.0909
G01 X29.1917 Y13.1277
G01 X29.2242 Y13.1496
G01 X29.2933 Y13.1821
G01 X29.3291 Y13.1930
G01 X29.3675 Y13.2006
G01 X29.4251 Y13.2052
G01 X30.0914 Y13.2001
G01 X30.5143 Y13.0647
G01 X30.5961 Y13.0254
G01 X30.6448 Y12.9898
G01 X30.9093 Y12.7290
G01 X30.9308 Y12.7036
G01 X30.9834 Y12.6258
G01 X31.1211 Y12.3452
G01 X31.2590 Y11.7968
G01 X31.2664 Y11.7262
G01 X31.2664 Y11.3635
G01 X31.2544 Y11.2682
G01 X31.1211 Y10.7442
G01 X30.9834 Y10.4638
G01 X30.9308 Y10.3861
G01 X30.9090 Y10.3607
G01 X30.6217 Y10.0800
G01 X30.5143 Y10.0249
G01 X30.0914 Y9.8892
G01 X29.4251 Y9.8842
G01 X29.3482 Y9.8918
G01 X29.2933 Y9.9073
G01 X29.2242 Y9.9400
G01 X29.1917 Y9.9619
G01 X29.1483 Y9.9987
G01 X29.1114 Y10.0421
G01 X29.0896 Y10.0747
G01 X29.0568 Y10.1437
G01 X29.0386 Y10.2179
G01 X29.0337 Y10.2748
G00 Z2.0000 ( retract )

G00 X27.8986 Y11.4653 ( rapid move to begin. )
G01 F450.0001
( Mill infeed pass 1/1 )
G01 Z-0.1270
G01 F900.0000
G01 X27.8986 Y11.4653
G01 X27.8244 Y11.7452
G01 X27.8244 Y12.8148
G01 X27.8290 Y12.8714
G01 X27.8366 Y12.9101
G01 X27.8625 Y12.9819
G01 X27.9019 Y13.0475
G01 X27.9387 Y13.0909
G01 X27.9979 Y13.1394
G01 X28.0477 Y13.1671
G01 X28.0838 Y13.1821
G01 X28.1386 Y13.1978
G01 X28.1953 Y13.2042
G01 X28.2344 Y13.2042
G01 X28.2910 Y13.1978
G01 X28.3642 Y13.1755
G01 X28.4150 Y13.1496
G01 X28.4764 Y13.1041
G01 X28.5041 Y13.0764
G01 X28.5496 Y13.0150
G01 X28.5755 Y12.9642
G01 X28.5930 Y12.9101
G01 X28.6045 Y12.8344
G01 X28.6052 Y10.2748
G01 X28.5940 Y10.1839
G01 X28.5707 Y10.1148
G01 X28.5544 Y10.0830
G01 X28.5128 Y10.0231
G01 X28.4607 Y9.9720
G01 X28.4307 Y9.9497
G01 X28.3662 Y9.9154
G01 X28.2966 Y9.8933
G01 X28.2616 Y9.8875
G01 X28.1887 Y9.8857
G01 X28.1516 Y9.8897
G01 X28.0810 Y9.9083
G01 X28.0149 Y9.9398
G01 X27.9563 Y9.9827
G01 X27.9306 Y10.0076
G01 X27.8757 Y10.0810
G01 X27.1539 Y11.3444
G01 X27.0794 Y11.6243
G01 X27.1539 Y11.3444
G01 X27.1539 Y10.2748
G01 X27.1493 Y10.2179
G01 X27.1417 Y10.1796
G01 X27.1242 Y10.1252
G01 X27.0982 Y10.0747
G01 X27.0764 Y10.0421
G01 X27.0248 Y9.9855
G01 X26.9636 Y9.9400
G01 X26.9306 Y9.9223
G01 X26.8943 Y9.9073
G01 X26.8397 Y9.8918
G01 X26.7830 Y9.8852
G01 X26.7437 Y9.8852
G01 X26.6873 Y9.8918
G01 X26.6324 Y9.9073
G01 X26.5633 Y9.9400
G01 X26.5308 Y9.9619
G01 X26.4871 Y9.9987
G01 X26.4503 Y10.0421
G01 X26.4287 Y10.0747
G01 X26.4025 Y10.1252
G01 X26.3853 Y10.1796
G01 X26.3776 Y10.2179
G01 X26.3728 Y10.2748
G01 X26.4729 Y10.2748
G01 X26.4770 Y10.2278
G01 X26.4917 Y10.1727
G01 X26.5278 Y10.1054
G01 X26.5580 Y10.0693
G01 X26.6103 Y10.0282
G01 X26.6614 Y10.0030
G01 X26.7066 Y9.9898
G01 X26.7536 Y9.9847
G01 X26.8201 Y9.9898
G01 X26.8653 Y10.0030
G01 X26.9164 Y10.0282
G01 X26.9687 Y10.0693
G01 X26.9992 Y10.1054
G01 X27.0350 Y10.1727
G01 X27.0497 Y10.2278
G01 X27.0538 Y10.2748
G01 X27.0538 Y11.7208
G01 X27.9626 Y10.1305
G01 X28.0002 Y10.0792
G01 X28.0259 Y10.0546
G01 X28.0700 Y10.0231
G01 X28.1374 Y9.9952
G01 X28.1907 Y9.9855
G01 X28.2451 Y9.9860
G01 X28.2801 Y9.9921
G01 X28.3317 Y10.0091
G01 X28.3942 Y10.0467
G01 X28.4335 Y10.0841
G01 X28.4554 Y10.1122
G01 X28.4881 Y10.1773
G01 X28.5016 Y10.2298
G01 X28.5054 Y10.2748
G01 X28.5054 Y12.8148
G01 X28.5011 Y12.8618
G01 X28.4790 Y12.9347
G01 X28.4505 Y12.9840
G01 X28.4129 Y13.0266
G01 X28.3677 Y13.0614
G01 X28.3261 Y13.0830
G01 X28.2715 Y13.0998
G01 X28.2245 Y13.1049
G01 X28.1582 Y13.0998
G01 X28.1130 Y13.0863
G01 X28.0535 Y13.0564
G01 X28.0167 Y13.0266
G01 X27.9791 Y12.9840
G01 X27.9507 Y12.9347
G01 X27.9286 Y12.8618
G01 X27.9243 Y12.8148
G01 X27.9243 Y11.3685
G01 X27.0157 Y12.9588
G01 X26.9778 Y13.0101
G01 X26.9524 Y13.0350
G01 X26.9080 Y13.0663
G01 X26.8587 Y13.0889
G01 X26.7873 Y13.1039
G01 X26.7330 Y13.1034
G01 X26.6799 Y13.0927
G01 X26.6296 Y13.0724
G01 X26.5991 Y13.0541
G01 X26.5575 Y13.0193
G01 X26.5229 Y12.9771
G01 X26.4899 Y12.9121
G01 X26.4767 Y12.8595
G01 X26.4729 Y12.8148
G01 X26.4729 Y10.2748
G01 X26.3728 Y10.2748
G01 X26.3728 Y12.8148
G01 X26.3840 Y12.9057
G01 X26.4076 Y12.9748
G01 X26.4437 Y13.0381
G01 X26.4909 Y13.0937
G01 X26.5476 Y13.1397
G01 X26.6118 Y13.1742
G01 X26.6814 Y13.1961
G01 X26.7538 Y13.2047
G01 X26.8267 Y13.1996
G01 X26.8973 Y13.1811
G01 X26.9301 Y13.1674
G01 X26.9928 Y13.1303
G01 X27.0477 Y13.0820
G01 X27.1023 Y13.0084
G01 X27.8244 Y11.7452
G00 Z2.0000 ( retract )

G00 X23.6106 Y9.7805 ( rapid move to begin. )
G01 F450.0001
( Mill infeed pass 1/1 )
G01 Z-0.1270
G01 F900.0000
G01 X23.6106 Y9.7805
G01 X23.5105 Y9.6804
G01 X23.5105 Y13.4107
G01 X31.4676 Y13.4107
G01 X31.4676 Y9.6804
G01 X23.5105 Y9.6804
G01 X23.6106 Y10.3591
G01 X23.6106 Y13.3106
G01 X23.5814 Y13.3398
G01 X23.6106 Y13.3106
G01 X31.3675 Y13.3106
G01 X31.3969 Y13.3398
G01 X31.3675 Y13.3106
G01 X31.3675 Y9.7805
G01 X31.3969 Y9.7511
G01 X31.3675 Y9.7805
G01 X23.6106 Y9.7805
G01 X23.6106 Y10.3591
G01 X23.8183 Y11.7846
G01 X23.9509 Y12.3106
G01 X24.0843 Y12.5814
G01 X24.1285 Y12.6451
G01 X24.4152 Y12.9286
G01 X24.4950 Y12.9695
G01 X24.9027 Y13.1016
G01 X25.3114 Y13.1051
G01 X25.3853 Y13.0950
G01 X25.4140 Y13.0861
G01 X25.6830 Y12.9540
G01 X25.7320 Y12.9233
G01 X25.7665 Y12.8913
G01 X25.8107 Y12.8288
G01 X25.8295 Y12.7856
G01 X25.8420 Y12.7300
G01 X25.8437 Y12.6830
G01 X25.8361 Y12.6266
G01 X25.8089 Y12.5552
G01 X25.7769 Y12.5082
G01 X25.7363 Y12.4684
G01 X25.7061 Y12.4468
G01 X25.6362 Y12.4155
G01 X25.5902 Y12.4056
G01 X25.5430 Y12.4038
G01 X25.4678 Y12.4165
G01 X25.4239 Y12.4341
G01 X25.2433 Y12.5242
G01 X24.9961 Y12.5242
G01 X24.7432 Y12.4399
G01 X24.5831 Y12.2799
G01 X24.4975 Y12.1087
G01 X24.3929 Y11.6903
G01 X24.3929 Y11.3990
G01 X24.4975 Y10.9809
G01 X24.5831 Y10.8097
G01 X24.7432 Y10.6497
G01 X24.9961 Y10.5654
G01 X25.1440 Y10.5654
G01 X25.3843 Y10.6454
G01 X25.3843 Y11.0729
G01 X25.1910 Y11.0729
G01 X25.1343 Y11.0785
G01 X25.0711 Y11.0990
G01 X25.0218 Y11.1277
G01 X24.9928 Y11.1514
G01 X24.9443 Y11.2103
G01 X24.9194 Y11.2613
G01 X24.9060 Y11.3066
G01 X24.9009 Y11.3731
G01 X24.9060 Y11.4201
G01 X24.9227 Y11.4744
G01 X24.9552 Y11.5326
G01 X24.9857 Y11.5687
G01 X25.0218 Y11.5989
G01 X25.0800 Y11.6317
G01 X25.1343 Y11.6482
G01 X25.1910 Y11.6538
G01 X25.6748 Y11.6538
G01 X25.7315 Y11.6482
G01 X25.7950 Y11.6276
G01 X25.8440 Y11.5989
G01 X25.8803 Y11.5687
G01 X25.9105 Y11.5326
G01 X25.9431 Y11.4744
G01 X25.9611 Y11.4102
G01 X25.9654 Y11.3635
G01 X25.9654 Y10.5166
G01 X25.9611 Y10.4673
G01 X25.9337 Y10.3848
G01 X25.8801 Y10.3111
G01 X25.7592 Y10.1902
G01 X25.6870 Y10.1374
G01 X25.2374 Y9.9880
G01 X24.9029 Y9.9880
G01 X24.4950 Y10.1199
G01 X24.4498 Y10.1394
G01 X24.3804 Y10.1907
G01 X24.1087 Y10.4676
G01 X23.9639 Y10.7488
G01 X23.9415 Y10.8092
G01 X23.8140 Y11.3279
G01 X23.8120 Y11.7259
G01 X23.7119 Y11.7254
G01 X23.7150 Y11.3154
G01 X23.8445 Y10.7853
G01 X23.8653 Y10.7249
G01 X24.0276 Y10.4092
G01 X24.3091 Y10.1204
G01 X24.3335 Y10.0995
G01 X24.4005 Y10.0523
G01 X24.4483 Y10.0307
G01 X24.8872 Y9.8892
G01 X25.2214 Y9.8867
G01 X25.2534 Y9.8892
G01 X25.7043 Y10.0366
G01 X25.7327 Y10.0487
G01 X25.8064 Y10.0995
G01 X25.9712 Y10.2644
G01 X26.0228 Y10.3393
G01 X26.0533 Y10.4249
G01 X26.0624 Y10.4711
G01 X26.0652 Y10.5166
G01 X26.0652 Y11.3635
G01 X26.0607 Y11.4201
G01 X26.0530 Y11.4584
G01 X26.0271 Y11.5306
G01 X25.9878 Y11.5961
G01 X25.9509 Y11.6395
G01 X25.9075 Y11.6764
G01 X25.8750 Y11.6980
G01 X25.8059 Y11.7307
G01 X25.7315 Y11.7493
G01 X25.6748 Y11.7538
G01 X25.1714 Y11.7528
G01 X25.1148 Y11.7462
G01 X25.0601 Y11.7307
G01 X24.9908 Y11.6980
G01 X24.9583 Y11.6764
G01 X24.9149 Y11.6395
G01 X24.8780 Y11.5961
G01 X24.8562 Y11.5633
G01 X24.8303 Y11.5128
G01 X24.8079 Y11.4394
G01 X24.8016 Y11.3830
G01 X24.8016 Y11.3436
G01 X24.8128 Y11.2682
G01 X24.8387 Y11.1961
G01 X24.8663 Y11.1463
G01 X24.9017 Y11.1018
G01 X24.9583 Y11.0503
G01 X24.9908 Y11.0284
G01 X25.0601 Y10.9959
G01 X25.1343 Y10.9774
G01 X25.1910 Y10.9728
G01 X25.2844 Y10.9728
G01 X25.3121 Y10.9995
G01 X25.2844 Y10.9728
G01 X25.2844 Y10.7175
G01 X25.3032 Y10.7038
G01 X25.2844 Y10.7175
G01 X25.1280 Y10.6639
G01 X25.0124 Y10.6639
G01 X24.7973 Y10.7371
G01 X24.7957 Y10.7345
G01 X24.7973 Y10.7371
G01 X24.6642 Y10.8682
G01 X24.5913 Y11.0155
G01 X24.4922 Y11.4112
G01 X24.4922 Y11.6782
G01 X24.5913 Y12.0739
G01 X24.6642 Y12.2212
G01 X24.7973 Y12.3525
G01 X24.7957 Y12.3548
G01 X24.7973 Y12.3525
G01 X25.0124 Y12.4254
G01 X25.2199 Y12.4242
G01 X25.2204 Y12.4269
G01 X25.2199 Y12.4242
G01 X25.3972 Y12.3365
G01 X25.4699 Y12.3129
G01 X25.5067 Y12.3066
G01 X25.5458 Y12.3038
G01 X25.6220 Y12.3099
G01 X25.6957 Y12.3304
G01 X25.7472 Y12.3546
G01 X25.7942 Y12.3866
G01 X25.8496 Y12.4394
G01 X25.8935 Y12.5021
G01 X25.9110 Y12.5372
G01 X25.9304 Y12.5905
G01 X25.9410 Y12.6467
G01 X25.9438 Y12.6858
G01 X25.9413 Y12.7427
G01 X25.9243 Y12.8173
G01 X25.9019 Y12.8697
G01 X25.8610 Y12.9342
G01 X25.8354 Y12.9639
G01 X25.7932 Y13.0023
G01 X25.7457 Y13.0335
G01 X25.4582 Y13.1757
G01 X25.4300 Y13.1869
G01 X25.3428 Y13.2029
G01 X25.3106 Y13.2052
G01 X24.8867 Y13.2001
G01 X24.4640 Y13.0647
G01 X24.3822 Y13.0254
G01 X24.3332 Y12.9898
G01 X24.0690 Y12.7290
G01 X24.0474 Y12.7036
G01 X23.9946 Y12.6258
G01 X23.8569 Y12.3452
G01 X23.7236 Y11.8214
G01 X23.7119 Y11.7254
G00 Z2.0000 ( retract )

G00 X23.6078 Y16.8910 ( rapid move to begin. )
G01 F450.0001
( Mill infeed pass 1/1 )
G01 Z-0.1270
G01 F900.0000
G01 X23.6078 Y16.8910
G01 X23.5077 Y16.7909
G01 X23.5077 Y20.5227
G01 X32.1958 Y20.5227
G01 X32.1958 Y16.7909
G01 X23.5077 Y16.7909
G01 X23.6078 Y17.0663
G01 X23.6078 Y20.4226
G01 X23.5786 Y20.4518
G01 X23.6078 Y20.4226
G01 X32.0957 Y20.4226
G01 X32.1252 Y20.4518
G01 X32.0957 Y20.4226
G01 X32.0957 Y16.8910
G01 X32.1252 Y16.8615
G01 X32.0957 Y16.8910
G01 X23.6078 Y16.8910
G01 X23.6078 Y17.0663
G01 X23.8120 Y17.6286
G01 X23.8176 Y17.6853
G01 X23.8308 Y17.7305
G01 X23.8666 Y17.7978
G01 X23.8971 Y17.8341
G01 X23.9494 Y17.8752
G01 X24.0005 Y17.9004
G01 X24.0457 Y17.9136
G01 X24.0927 Y17.9187
G01 X24.1592 Y17.9136
G01 X24.2044 Y17.9004
G01 X24.2717 Y17.8643
G01 X24.3078 Y17.8341
G01 X24.3954 Y17.7465
G01 X24.5339 Y17.6771
G01 X25.0015 Y17.6771
G01 X25.1399 Y17.7465
G01 X25.1943 Y17.8006
G01 X25.2633 Y17.9390
G01 X25.2633 Y18.4066
G01 X25.1943 Y18.5450
G01 X25.1399 Y18.5994
G01 X25.0015 Y18.6685
G01 X24.5339 Y18.6685
G01 X24.3954 Y18.5994
G01 X24.3078 Y18.5118
G01 X24.2575 Y18.4719
G01 X24.2260 Y18.4546
G01 X24.1744 Y18.4361
G01 X24.1203 Y18.4277
G01 X24.0472 Y18.4323
G01 X24.0124 Y18.4414
G01 X23.9621 Y18.4633
G01 X23.9169 Y18.4940
G01 X23.8783 Y18.5329
G01 X23.8392 Y18.5951
G01 X23.8209 Y18.6466
G01 X23.8143 Y18.6820
G01 X23.8133 Y18.7462
G01 X23.9344 Y19.9558
G01 X23.9423 Y19.9992
G01 X23.9685 Y20.0657
G01 X23.9982 Y20.1099
G01 X24.0218 Y20.1356
G01 X24.0792 Y20.1785
G01 X24.1104 Y20.1940
G01 X24.1612 Y20.2103
G01 X24.2235 Y20.2171
G01 X25.4427 Y20.2169
G01 X25.4897 Y20.2115
G01 X25.5529 Y20.1910
G01 X25.6022 Y20.1625
G01 X25.6383 Y20.1323
G01 X25.6687 Y20.0960
G01 X25.7012 Y20.0378
G01 X25.7155 Y19.9928
G01 X25.7233 Y19.9268
G01 X25.7155 Y19.8605
G01 X25.7012 Y19.8156
G01 X25.6794 Y19.7739
G01 X25.6449 Y19.7287
G01 X25.5943 Y19.6853
G01 X25.5349 Y19.6550
G01 X25.4897 Y19.6418
G01 X25.4330 Y19.6362
G01 X24.4864 Y19.6362
G01 X24.4475 Y19.2481
G01 X25.1150 Y19.2461
G01 X25.2001 Y19.2189
G01 X25.4419 Y19.0980
G01 X25.5184 Y19.0426
G01 X25.6690 Y18.8867
G01 X25.8305 Y18.5636
G01 X25.8442 Y18.4752
G01 X25.8432 Y17.8552
G01 X25.8341 Y17.7973
G01 X25.8252 Y17.7686
G01 X25.6931 Y17.4993
G01 X25.6375 Y17.4224
G01 X25.4815 Y17.2720
G01 X25.2006 Y17.1272
G01 X25.1186 Y17.1003
G01 X25.0701 Y17.0962
G01 X24.4653 Y17.0962
G01 X24.3769 Y17.1099
G01 X24.0541 Y17.2717
G01 X23.8978 Y17.4224
G01 X23.8669 Y17.4592
G01 X23.8308 Y17.5268
G01 X23.8176 Y17.5720
G01 X23.8120 Y17.6286
G01 X23.7119 Y17.6286
G01 X23.7165 Y17.5717
G01 X23.7241 Y17.5334
G01 X23.7350 Y17.4976
G01 X23.7675 Y17.4285
G01 X23.7894 Y17.3960
G01 X23.8280 Y17.3507
G01 X23.9961 Y17.1902
G01 X24.3464 Y17.0147
G01 X24.4653 Y16.9962
G01 X25.0701 Y16.9962
G01 X25.1379 Y17.0023
G01 X25.2461 Y17.0383
G01 X25.5400 Y17.1907
G01 X25.7073 Y17.3507
G01 X25.7299 Y17.3769
G01 X25.7828 Y17.4554
G01 X25.9149 Y17.7246
G01 X25.9329 Y17.7818
G01 X25.9443 Y17.8704
G01 X25.9443 Y18.4752
G01 X25.9329 Y18.5641
G01 X25.9141 Y18.6228
G01 X25.7505 Y18.9446
G01 X25.5897 Y19.1125
G01 X25.5140 Y19.1706
G01 X25.2448 Y19.3083
G01 X25.1602 Y19.3378
G01 X25.1000 Y19.3474
G01 X24.5580 Y19.3492
G01 X24.5222 Y19.3170
G01 X24.5580 Y19.3492
G01 X24.5768 Y19.5362
G01 X24.5534 Y19.5621
G01 X24.5768 Y19.5362
G01 X25.4526 Y19.5372
G01 X25.5280 Y19.5486
G01 X25.6002 Y19.5743
G01 X25.6499 Y19.6019
G01 X25.7091 Y19.6507
G01 X25.7459 Y19.6941
G01 X25.7678 Y19.7267
G01 X25.7937 Y19.7772
G01 X25.8112 Y19.8316
G01 X25.8224 Y19.9072
G01 X25.8224 Y19.9464
G01 X25.8112 Y20.0221
G01 X25.7937 Y20.0762
G01 X25.7678 Y20.1270
G01 X25.7223 Y20.1884
G01 X25.6944 Y20.2161
G01 X25.6499 Y20.2514
G01 X25.6002 Y20.2791
G01 X25.5638 Y20.2941
G01 X25.5090 Y20.3098
G01 X25.4526 Y20.3162
G01 X24.2235 Y20.3172
G01 X24.1701 Y20.3131
G01 X24.1003 Y20.2969
G01 X24.0662 Y20.2837
G01 X24.0035 Y20.2489
G01 X23.9484 Y20.2034
G01 X23.9024 Y20.1483
G01 X23.8839 Y20.1188
G01 X23.8544 Y20.0533
G01 X23.8349 Y19.9657
G01 X23.7139 Y18.7561
G01 X23.7127 Y18.7013
G01 X23.7226 Y18.6284
G01 X23.7460 Y18.5588
G01 X23.7630 Y18.5250
G01 X23.7823 Y18.4945
G01 X23.8298 Y18.4384
G01 X23.8580 Y18.4132
G01 X23.9194 Y18.3728
G01 X23.9873 Y18.3446
G01 X24.0220 Y18.3355
G01 X24.0952 Y18.3271
G01 X24.1328 Y18.3284
G01 X24.2054 Y18.3411
G01 X24.2395 Y18.3520
G01 X24.3055 Y18.3843
G01 X24.3644 Y18.4285
G01 X24.4541 Y18.5179
G01 X24.5575 Y18.5687
G01 X24.5570 Y18.5712
G01 X24.5575 Y18.5687
G01 X24.9779 Y18.5687
G01 X24.9786 Y18.5712
G01 X24.9779 Y18.5687
G01 X25.0815 Y18.5184
G01 X25.1130 Y18.4866
G01 X25.1633 Y18.3833
G01 X25.1661 Y18.3838
G01 X25.1633 Y18.3833
G01 X25.1633 Y17.9626
G01 X25.1661 Y17.9621
G01 X25.1633 Y17.9626
G01 X25.1130 Y17.8592
G01 X25.0815 Y17.8275
G01 X24.9779 Y17.7772
G01 X24.9786 Y17.7747
G01 X24.9779 Y17.7772
G01 X24.5575 Y17.7772
G01 X24.5570 Y17.7747
G01 X24.5575 Y17.7772
G01 X24.4541 Y17.8278
G01 X24.3784 Y17.9047
G01 X24.3352 Y17.9415
G01 X24.3025 Y17.9634
G01 X24.2519 Y17.9896
G01 X24.1785 Y18.0116
G01 X24.1221 Y18.0183
G01 X24.0828 Y18.0183
G01 X24.0261 Y18.0116
G01 X23.9715 Y17.9959
G01 X23.9022 Y17.9634
G01 X23.8696 Y17.9415
G01 X23.8130 Y17.8902
G01 X23.7675 Y17.8288
G01 X23.7416 Y17.7780
G01 X23.7195 Y17.7048
G01 X23.7119 Y17.6286
G00 Z2.0000 ( retract )

G00 X26.2313 Y17.4978 ( rapid move to begin. )
G01 F450.0001
( Mill infeed pass 1/1 )
G01 Z-0.1270
G01 F900.0000
G01 X26.2313 Y17.4978
G01 X26.2390 Y17.4414
G01 X26.2499 Y17.4059
G01 X26.2857 Y17.3385
G01 X26.3164 Y17.3017
G01 X26.4549 Y17.1656
G01 X26.5191 Y17.1244
G01 X26.5953 Y17.1003
G01 X26.6436 Y17.0962
G01 X26.7104 Y17.1044
G01 X26.7533 Y17.1186
G01 X26.7967 Y17.1409
G01 X26.8488 Y17.1823
G01 X26.9911 Y17.3286
G01 X27.0226 Y17.3772
G01 X27.0459 Y17.4412
G01 X27.0533 Y17.4912
G01 X27.0518 Y17.5417
G01 X27.0459 Y17.5743
G01 X27.0299 Y17.6225
G01 X26.9992 Y17.6774
G01 X26.8407 Y17.8407
G01 X26.7955 Y17.8752
G01 X26.7625 Y17.8928
G01 X26.6992 Y17.9136
G01 X26.6327 Y17.9187
G01 X26.5763 Y17.9111
G01 X26.5313 Y17.8971
G01 X26.4894 Y17.8752
G01 X26.4371 Y17.8341
G01 X26.3162 Y17.7132
G01 X26.2857 Y17.6769
G01 X26.2572 Y17.6279
G01 X26.2390 Y17.5740
G01 X26.2313 Y17.4978
G01 X26.1320 Y17.4882
G01 X26.1356 Y17.5644
G01 X26.1432 Y17.6030
G01 X26.1691 Y17.6748
G01 X26.1866 Y17.7079
G01 X26.2085 Y17.7404
G01 X26.2453 Y17.7838
G01 X26.3809 Y17.9179
G01 X26.4096 Y17.9415
G01 X26.4752 Y17.9809
G01 X26.5115 Y17.9959
G01 X26.5661 Y18.0116
G01 X26.6228 Y18.0183
G01 X26.6621 Y18.0183
G01 X26.7376 Y18.0068
G01 X26.8097 Y17.9809
G01 X26.8425 Y17.9634
G01 X26.9039 Y17.9179
G01 X27.0629 Y17.7564
G01 X27.0789 Y17.7376
G01 X27.1092 Y17.6883
G01 X27.1353 Y17.6253
G01 X27.1445 Y17.5918
G01 X27.1531 Y17.5242
G01 X27.1531 Y17.4912
G01 X27.1501 Y17.4564
G01 X27.1353 Y17.3901
G01 X27.1092 Y17.3271
G01 X27.0789 Y17.2778
G01 X26.9039 Y17.0975
G01 X26.8752 Y17.0736
G01 X26.8176 Y17.0381
G01 X26.7533 Y17.0127
G01 X26.7122 Y17.0033
G01 X26.6446 Y16.9962
G01 X26.5661 Y17.0038
G01 X26.4894 Y17.0274
G01 X26.4033 Y17.0779
G01 X26.2321 Y17.2461
G01 X26.1866 Y17.3076
G01 X26.1541 Y17.3766
G01 X26.1432 Y17.4125
G01 X26.1320 Y17.4882
G01 X27.3406 Y18.9591
G01 X27.3522 Y19.0538
G01 X27.4795 Y19.5585
G01 X27.5034 Y19.6190
G01 X27.6403 Y19.8872
G01 X27.6769 Y19.9377
G01 X27.8656 Y20.1226
G01 X28.1882 Y20.2870
G01 X28.2471 Y20.3058
G01 X28.3357 Y20.3172
G01 X28.5930 Y20.3167
G01 X28.6454 Y20.3114
G01 X28.7523 Y20.2761
G01 X29.0218 Y20.1384
G01 X29.0975 Y20.0802
G01 X29.2575 Y19.9128
G01 X29.4099 Y19.6190
G01 X29.4338 Y19.5585
G01 X29.5656 Y19.0304
G01 X29.5714 Y18.9829
G01 X29.5730 Y18.3548
G01 X29.5613 Y18.2593
G01 X29.4277 Y17.7353
G01 X29.2903 Y17.4546
G01 X29.2374 Y17.3769
G01 X29.2148 Y17.3507
G01 X29.0469 Y17.1902
G01 X28.7251 Y17.0264
G01 X28.6664 Y17.0076
G01 X28.5778 Y16.9962
G01 X28.3357 Y16.9962
G01 X28.2471 Y17.0076
G01 X28.1897 Y17.0256
G01 X27.9204 Y17.1577
G01 X27.8422 Y17.2108
G01 X27.8160 Y17.2334
G01 X27.6558 Y17.4010
G01 X27.4947 Y17.7142
G01 X27.4795 Y17.7556
G01 X27.3522 Y18.2593
G01 X27.3428 Y18.3159
G01 X27.3406 Y18.9591
G01 X27.4406 Y18.9591
G01 X27.4493 Y19.0297
G01 X27.5735 Y19.5237
G01 X27.5925 Y19.5735
G01 X27.7292 Y19.8417
G01 X27.7477 Y19.8669
G01 X27.9240 Y20.0414
G01 X28.2331 Y20.1976
G01 X28.2623 Y20.2070
G01 X28.3205 Y20.2161
G01 X28.5778 Y20.2171
G01 X28.6375 Y20.2103
G01 X28.7076 Y20.1866
G01 X28.9494 Y20.0657
G01 X29.0258 Y20.0104
G01 X29.1762 Y19.8544
G01 X29.3210 Y19.5735
G01 X29.3434 Y19.5130
G01 X29.4709 Y18.9946
G01 X29.4729 Y18.3545
G01 X29.4643 Y18.2837
G01 X29.3299 Y17.7602
G01 X29.1920 Y17.4849
G01 X29.1450 Y17.4224
G01 X28.9890 Y17.2717
G01 X28.6662 Y17.1099
G01 X28.5778 Y17.0962
G01 X28.3205 Y17.0975
G01 X28.2623 Y17.1064
G01 X28.2339 Y17.1155
G01 X27.9502 Y17.2563
G01 X27.8877 Y17.3032
G01 X27.7467 Y17.4473
G01 X27.7292 Y17.4722
G01 X27.5796 Y17.7696
G01 X27.4493 Y18.2837
G01 X27.4406 Y18.3451
G01 X27.4406 Y18.9591
G00 Z2.0000 ( retract )

G00 X28.0215 Y18.3901 ( rapid move to begin. )
G01 F450.0001
( Mill infeed pass 1/1 )
G01 Z-0.1270
G01 F900.0000
G01 X28.0215 Y18.3901
G01 X28.1262 Y17.9720
G01 X28.2115 Y17.8008
G01 X28.2659 Y17.7465
G01 X28.4043 Y17.6771
G01 X28.5092 Y17.6771
G01 X28.6476 Y17.7465
G01 X28.7017 Y17.8008
G01 X28.7873 Y17.9720
G01 X28.8920 Y18.3901
G01 X28.8920 Y18.9233
G01 X28.7873 Y19.3416
G01 X28.7017 Y19.5128
G01 X28.6476 Y19.5671
G01 X28.5092 Y19.6362
G01 X28.4043 Y19.6362
G01 X28.2659 Y19.5671
G01 X28.2115 Y19.5128
G01 X28.1262 Y19.3416
G01 X28.0215 Y18.9233
G01 X28.0215 Y18.3901
G01 X28.1216 Y18.4023
G01 X28.2199 Y18.0066
G01 X28.2928 Y17.8592
G01 X28.3243 Y17.8275
G01 X28.4279 Y17.7772
G01 X28.4274 Y17.7747
G01 X28.4279 Y17.7772
G01 X28.4856 Y17.7772
G01 X28.4861 Y17.7747
G01 X28.4856 Y17.7772
G01 X28.5890 Y17.8275
G01 X28.6207 Y17.8592
G01 X28.6936 Y18.0066
G01 X28.7927 Y18.4023
G01 X28.7927 Y18.9111
G01 X28.6936 Y19.3068
G01 X28.6207 Y19.4544
G01 X28.5890 Y19.4859
G01 X28.4856 Y19.5362
G01 X28.4861 Y19.5389
G01 X28.4856 Y19.5362
G01 X28.4279 Y19.5362
G01 X28.4274 Y19.5389
G01 X28.4279 Y19.5362
G01 X28.3243 Y19.4859
G01 X28.2928 Y19.4544
G01 X28.2199 Y19.3068
G01 X28.1208 Y18.9111
G01 X28.1216 Y18.4023
G00 Z2.0000 ( retract )

G00 X30.7548 Y18.4053 ( rapid move to begin. )
G01 F450.0001
( Mill infeed pass 1/1 )
G01 Z-0.1270
G01 F900.0000
G01 X30.7548 Y18.4053
G01 X30.7548 Y18.6215
G01 X31.2311 Y20.0503
G01 X31.2623 Y20.1201
G01 X31.3065 Y20.1826
G01 X31.3472 Y20.2225
G01 X31.3781 Y20.2466
G01 X31.4269 Y20.2761
G01 X31.4983 Y20.3035
G01 X31.5737 Y20.3162
G01 X31.6309 Y20.3157
G01 X31.6697 Y20.3109
G01 X31.7434 Y20.2900
G01 X31.8115 Y20.2555
G01 X31.8717 Y20.2082
G01 X31.9100 Y20.1661
G01 X31.9507 Y20.1013
G01 X31.9720 Y20.0485
G01 X31.9824 Y20.0106
G01 X31.9916 Y19.9347
G01 X31.9855 Y19.8585
G01 X31.9720 Y19.8034
G01 X31.1183 Y17.2453
G01 X31.0848 Y17.1785
G01 X31.0637 Y17.1486
G01 X31.0126 Y17.0939
G01 X30.9824 Y17.0701
G01 X30.9179 Y17.0325
G01 X30.8839 Y17.0188
G01 X30.8112 Y17.0007
G01 X30.7731 Y16.9972
G01 X30.6984 Y17.0007
G01 X30.6258 Y17.0188
G01 X30.5577 Y17.0503
G01 X30.5270 Y17.0701
G01 X30.4709 Y17.1193
G01 X30.4460 Y17.1486
G01 X30.4249 Y17.1785
G01 X30.3914 Y17.2453
G01 X29.5377 Y19.8034
G01 X29.5242 Y19.8585
G01 X29.5181 Y19.9347
G01 X29.6182 Y19.9375
G01 X29.6311 Y20.0129
G01 X29.6532 Y20.0652
G01 X29.6786 Y20.1049
G01 X29.7177 Y20.1463
G01 X29.7561 Y20.1739
G01 X29.8163 Y20.2024
G01 X29.8623 Y20.2133
G01 X29.9189 Y20.2166
G01 X29.9941 Y20.2039
G01 X30.0467 Y20.1818
G01 X30.0782 Y20.1618
G01 X30.1335 Y20.1094
G01 X30.1605 Y20.0706
G01 X30.1838 Y20.0185
G01 X30.7548 Y18.3053
G01 X31.3258 Y20.0185
G01 X31.3545 Y20.0790
G01 X31.3820 Y20.1171
G01 X31.4160 Y20.1498
G01 X31.4716 Y20.1866
G01 X31.5247 Y20.2070
G01 X31.5712 Y20.2154
G01 X31.6474 Y20.2133
G01 X31.7025 Y20.1988
G01 X31.7536 Y20.1739
G01 X31.7840 Y20.1524
G01 X31.8366 Y20.0967
G01 X31.8613 Y20.0566
G01 X31.8785 Y20.0127
G01 X31.8915 Y19.9375
G01 X31.8897 Y19.8905
G01 X31.8770 Y19.8349
G01 X31.0269 Y17.2860
G01 X31.0027 Y17.2359
G01 X30.9816 Y17.2060
G01 X30.9281 Y17.1539
G01 X30.8803 Y17.1252
G01 X30.8280 Y17.1059
G01 X30.7731 Y17.0972
G01 X30.7365 Y17.0972
G01 X30.6631 Y17.1115
G01 X30.6123 Y17.1341
G01 X30.5816 Y17.1539
G01 X30.5280 Y17.2060
G01 X30.4975 Y17.2524
G01 X30.4792 Y17.2949
G01 X29.6327 Y19.8349
G01 X29.6217 Y19.8808
G01 X29.6182 Y19.9375
G01 X29.5181 Y19.9347
G01 X29.5272 Y20.0106
G01 X29.5377 Y20.0485
G01 X29.5509 Y20.0835
G01 X29.5885 Y20.1501
G01 X29.6380 Y20.2082
G01 X29.6982 Y20.2555
G01 X29.7322 Y20.2748
G01 X29.7848 Y20.2971
G01 X29.8399 Y20.3109
G01 X29.8788 Y20.3157
G01 X29.9359 Y20.3162
G01 X29.9921 Y20.3076
G01 X30.0299 Y20.2971
G01 X30.0827 Y20.2761
G01 X30.1475 Y20.2352
G01 X30.1897 Y20.1968
G01 X30.2153 Y20.1671
G01 X30.2473 Y20.1201
G01 X30.2786 Y20.0503
G01 X30.7548 Y18.6215
G00 Z2.0000 ( retract )

G00 X29.7150 Y22.7571 ( rapid move to begin. )
G01 F450.0001
( Mill infeed pass 1/1 )
G01 Z-0.1270
G01 F900.0000
G01 X29.7150 Y22.7571
G01 X29.9819 Y22.7571
G01 X30.2351 Y22.8417
G01 X30.3952 Y23.0017
G01 X30.4808 Y23.1729
G01 X30.5852 Y23.5910
G01 X30.5852 Y23.8823
G01 X30.4808 Y24.3007
G01 X30.3952 Y24.4719
G01 X30.2351 Y24.6319
G01 X29.9819 Y24.7162
G01 X29.7150 Y24.7162
G01 X29.7150 Y22.7571
G01 X29.8148 Y22.8572
G01 X29.8148 Y24.6162
G01 X29.7856 Y24.6456
G01 X29.8148 Y24.6162
G01 X29.9659 Y24.6174
G01 X30.1810 Y24.5445
G01 X30.1826 Y24.5468
G01 X30.1810 Y24.5445
G01 X30.3139 Y24.4132
G01 X30.3870 Y24.2659
G01 X30.4861 Y23.8702
G01 X30.4861 Y23.6032
G01 X30.3870 Y23.2075
G01 X30.3139 Y23.0602
G01 X30.1810 Y22.9291
G01 X30.1826 Y22.9268
G01 X30.1810 Y22.9291
G01 X29.9659 Y22.8559
G01 X29.8148 Y22.8572
G00 Z2.0000 ( retract )

G00 X29.1338 Y22.4668 ( rapid move to begin. )
G01 F450.0001
( Mill infeed pass 1/1 )
G01 Z-0.1270
G01 F900.0000
G01 X29.1338 Y22.4668
G01 X29.1379 Y22.4198
G01 X29.1526 Y22.3647
G01 X29.1887 Y22.2974
G01 X29.2189 Y22.2613
G01 X29.2550 Y22.2311
G01 X29.3225 Y22.1950
G01 X29.3677 Y22.1818
G01 X29.4246 Y22.1762
G01 X30.0756 Y22.1800
G01 X30.4833 Y22.3119
G01 X30.5631 Y22.3530
G01 X30.8389 Y22.6238
G01 X30.8938 Y22.7000
G01 X31.0274 Y22.9707
G01 X31.1574 Y23.4846
G01 X31.1663 Y23.5552
G01 X31.1663 Y23.9182
G01 X31.1574 Y23.9888
G01 X31.0274 Y24.5026
G01 X30.8938 Y24.7734
G01 X30.8389 Y24.8496
G01 X30.5745 Y25.1107
G01 X30.5501 Y25.1285
G01 X30.4833 Y25.1615
G01 X30.0756 Y25.2936
G01 X29.4246 Y25.2971
G01 X29.3774 Y25.2931
G01 X29.3042 Y25.2710
G01 X29.2628 Y25.2484
G01 X29.2189 Y25.2120
G01 X29.1887 Y25.1760
G01 X29.1602 Y25.1267
G01 X29.1379 Y25.0538
G01 X29.1338 Y25.0068
G01 X29.1338 Y22.4668
G01 X29.0337 Y22.4668
G01 X29.0337 Y25.0068
G01 X29.0386 Y25.0634
G01 X29.0462 Y25.1021
G01 X29.0634 Y25.1562
G01 X29.0896 Y25.2070
G01 X29.1114 Y25.2395
G01 X29.1483 Y25.2829
G01 X29.1917 Y25.3197
G01 X29.2242 Y25.3416
G01 X29.2933 Y25.3741
G01 X29.3291 Y25.3850
G01 X29.3675 Y25.3926
G01 X29.4251 Y25.3972
G01 X30.0914 Y25.3921
G01 X30.5143 Y25.2565
G01 X30.5961 Y25.2174
G01 X30.6448 Y25.1818
G01 X30.9093 Y24.9210
G01 X30.9308 Y24.8956
G01 X30.9834 Y24.8178
G01 X31.1211 Y24.5372
G01 X31.2590 Y23.9888
G01 X31.2664 Y23.9182
G01 X31.2664 Y23.5552
G01 X31.2544 Y23.4602
G01 X31.1211 Y22.9362
G01 X30.9834 Y22.6558
G01 X30.9308 Y22.5778
G01 X30.9090 Y22.5527
G01 X30.6217 Y22.2720
G01 X30.5143 Y22.2169
G01 X30.0914 Y22.0812
G01 X29.4251 Y22.0762
G01 X29.3482 Y22.0838
G01 X29.2933 Y22.0993
G01 X29.2572 Y22.1143
G01 X29.2075 Y22.1419
G01 X29.1483 Y22.1907
G01 X29.1114 Y22.2341
G01 X29.0896 Y22.2667
G01 X29.0568 Y22.3357
G01 X29.0386 Y22.4099
G01 X29.0337 Y22.4668
G00 Z2.0000 ( retract )

G00 X27.8986 Y23.6573 ( rapid move to begin. )
G01 F450.0001
( Mill infeed pass 1/1 )
G01 Z-0.1270
G01 F900.0000
G01 X27.8986 Y23.6573
G01 X27.8244 Y23.9372
G01 X27.8244 Y25.0068
G01 X27.8290 Y25.0634
G01 X27.8366 Y25.1021
G01 X27.8625 Y25.1739
G01 X27.9019 Y25.2395
G01 X27.9387 Y25.2829
G01 X27.9979 Y25.3314
G01 X28.0477 Y25.3591
G01 X28.0838 Y25.3741
G01 X28.1386 Y25.3898
G01 X28.1953 Y25.3962
G01 X28.2344 Y25.3962
G01 X28.2910 Y25.3898
G01 X28.3642 Y25.3675
G01 X28.4150 Y25.3416
G01 X28.4764 Y25.2961
G01 X28.5041 Y25.2684
G01 X28.5496 Y25.2070
G01 X28.5755 Y25.1562
G01 X28.5930 Y25.1021
G01 X28.6045 Y25.0264
G01 X28.6052 Y22.4668
G01 X28.5940 Y22.3759
G01 X28.5707 Y22.3068
G01 X28.5544 Y22.2750
G01 X28.5128 Y22.2151
G01 X28.4607 Y22.1640
G01 X28.4307 Y22.1417
G01 X28.3662 Y22.1074
G01 X28.2966 Y22.0853
G01 X28.2616 Y22.0795
G01 X28.1887 Y22.0777
G01 X28.1516 Y22.0817
G01 X28.0810 Y22.1003
G01 X28.0149 Y22.1318
G01 X27.9563 Y22.1747
G01 X27.9306 Y22.1996
G01 X27.8757 Y22.2730
G01 X27.1539 Y23.5364
G01 X27.0794 Y23.8163
G01 X27.1539 Y23.5364
G01 X27.1539 Y22.4668
G01 X27.1493 Y22.4099
G01 X27.1417 Y22.3716
G01 X27.1242 Y22.3172
G01 X27.0982 Y22.2667
G01 X27.0764 Y22.2341
G01 X27.0248 Y22.1775
G01 X26.9804 Y22.1419
G01 X26.9306 Y22.1143
G01 X26.8943 Y22.0993
G01 X26.8397 Y22.0838
G01 X26.7830 Y22.0772
G01 X26.7437 Y22.0772
G01 X26.6873 Y22.0838
G01 X26.6324 Y22.0993
G01 X26.5963 Y22.1143
G01 X26.5463 Y22.1419
G01 X26.4871 Y22.1907
G01 X26.4503 Y22.2341
G01 X26.4287 Y22.2667
G01 X26.4025 Y22.3172
G01 X26.3853 Y22.3716
G01 X26.3776 Y22.4099
G01 X26.3728 Y22.4668
G01 X26.4729 Y22.4668
G01 X26.4770 Y22.4198
G01 X26.4917 Y22.3647
G01 X26.5278 Y22.2974
G01 X26.5580 Y22.2613
G01 X26.6019 Y22.2253
G01 X26.6433 Y22.2026
G01 X26.7066 Y22.1818
G01 X26.7536 Y22.1767
G01 X26.8201 Y22.1818
G01 X26.8653 Y22.1950
G01 X26.9164 Y22.2202
G01 X26.9687 Y22.2613
G01 X26.9992 Y22.2974
G01 X27.0350 Y22.3647
G01 X27.0497 Y22.4198
G01 X27.0538 Y22.4668
G01 X27.0538 Y23.9128
G01 X27.9626 Y22.3225
G01 X28.0002 Y22.2712
G01 X28.0259 Y22.2466
G01 X28.0700 Y22.2151
G01 X28.1374 Y22.1872
G01 X28.1907 Y22.1775
G01 X28.2451 Y22.1780
G01 X28.2801 Y22.1841
G01 X28.3317 Y22.2011
G01 X28.3942 Y22.2387
G01 X28.4335 Y22.2761
G01 X28.4554 Y22.3042
G01 X28.4881 Y22.3693
G01 X28.5016 Y22.4218
G01 X28.5054 Y22.4668
G01 X28.5054 Y25.0068
G01 X28.5011 Y25.0538
G01 X28.4790 Y25.1267
G01 X28.4505 Y25.1760
G01 X28.4129 Y25.2186
G01 X28.3677 Y25.2534
G01 X28.3261 Y25.2750
G01 X28.2715 Y25.2918
G01 X28.2245 Y25.2969
G01 X28.1485 Y25.2893
G01 X28.0947 Y25.2710
G01 X28.0454 Y25.2425
G01 X28.0093 Y25.2120
G01 X27.9682 Y25.1597
G01 X27.9463 Y25.1178
G01 X27.9286 Y25.0538
G01 X27.9243 Y25.0068
G01 X27.9243 Y23.5605
G01 X27.0157 Y25.1508
G01 X26.9778 Y25.2021
G01 X26.9524 Y25.2270
G01 X26.9080 Y25.2583
G01 X26.8587 Y25.2809
G01 X26.7873 Y25.2959
G01 X26.7330 Y25.2954
G01 X26.6799 Y25.2847
G01 X26.6296 Y25.2644
G01 X26.5991 Y25.2461
G01 X26.5575 Y25.2113
G01 X26.5229 Y25.1691
G01 X26.4899 Y25.1041
G01 X26.4767 Y25.0515
G01 X26.4729 Y25.0068
G01 X26.4729 Y22.4668
G01 X26.3728 Y22.4668
G01 X26.3728 Y25.0068
G01 X26.3840 Y25.0977
G01 X26.4076 Y25.1668
G01 X26.4437 Y25.2301
G01 X26.4909 Y25.2857
G01 X26.5476 Y25.3317
G01 X26.6118 Y25.3662
G01 X26.6814 Y25.3881
G01 X26.7538 Y25.3967
G01 X26.8267 Y25.3916
G01 X26.8973 Y25.3731
G01 X26.9301 Y25.3594
G01 X26.9928 Y25.3223
G01 X27.0477 Y25.2740
G01 X27.1023 Y25.2006
G01 X27.8244 Y23.9372
G00 Z2.0000 ( retract )

G00 X26.2313 Y29.6898 ( rapid move to begin. )
G01 F450.0001
( Mill infeed pass 1/1 )
G01 Z-0.1270
G01 F900.0000
G01 X26.2313 Y29.6898
G01 X26.2390 Y29.6334
G01 X26.2499 Y29.5979
G01 X26.2857 Y29.5305
G01 X26.3164 Y29.4937
G01 X26.4549 Y29.3576
G01 X26.5191 Y29.3164
G01 X26.5953 Y29.2923
G01 X26.6436 Y29.2882
G01 X26.7104 Y29.2964
G01 X26.7533 Y29.3106
G01 X26.7967 Y29.3329
G01 X26.8488 Y29.3743
G01 X26.9911 Y29.5206
G01 X27.0226 Y29.5692
G01 X27.0459 Y29.6329
G01 X27.0533 Y29.6832
G01 X27.0518 Y29.7337
G01 X27.0459 Y29.7663
G01 X27.0299 Y29.8145
G01 X26.9992 Y29.8694
G01 X26.8407 Y30.0327
G01 X26.7955 Y30.0673
G01 X26.7625 Y30.0848
G01 X26.7086 Y30.1031
G01 X26.6327 Y30.1107
G01 X26.5763 Y30.1031
G01 X26.5313 Y30.0891
G01 X26.4894 Y30.0673
G01 X26.4371 Y30.0261
G01 X26.3162 Y29.9052
G01 X26.2857 Y29.8689
G01 X26.2572 Y29.8199
G01 X26.2390 Y29.7660
G01 X26.2313 Y29.6898
G01 X26.1320 Y29.6802
G01 X26.1356 Y29.7566
G01 X26.1432 Y29.7950
G01 X26.1691 Y29.8668
G01 X26.1866 Y29.8999
G01 X26.2085 Y29.9324
G01 X26.2453 Y29.9758
G01 X26.3809 Y30.1099
G01 X26.4096 Y30.1335
G01 X26.4752 Y30.1729
G01 X26.5115 Y30.1879
G01 X26.5661 Y30.2036
G01 X26.6426 Y30.2110
G01 X26.6992 Y30.2064
G01 X26.7376 Y30.1988
G01 X26.8097 Y30.1729
G01 X26.8425 Y30.1554
G01 X26.9039 Y30.1099
G01 X27.0629 Y29.9484
G01 X27.0789 Y29.9296
G01 X27.1092 Y29.8803
G01 X27.1353 Y29.8176
G01 X27.1445 Y29.7838
G01 X27.1531 Y29.7162
G01 X27.1531 Y29.6832
G01 X27.1501 Y29.6484
G01 X27.1353 Y29.5821
G01 X27.1092 Y29.5191
G01 X27.0789 Y29.4698
G01 X26.9039 Y29.2895
G01 X26.8752 Y29.2656
G01 X26.8176 Y29.2301
G01 X26.7533 Y29.2047
G01 X26.7122 Y29.1953
G01 X26.6446 Y29.1882
G01 X26.5661 Y29.1958
G01 X26.4894 Y29.2194
G01 X26.4033 Y29.2699
G01 X26.2321 Y29.4381
G01 X26.1866 Y29.4996
G01 X26.1541 Y29.5689
G01 X26.1432 Y29.6045
G01 X26.1320 Y29.6802
G01 X27.3406 Y31.1511
G01 X27.3522 Y31.2458
G01 X27.4795 Y31.7505
G01 X27.5034 Y31.8110
G01 X27.6403 Y32.0792
G01 X27.6769 Y32.1297
G01 X27.8656 Y32.3146
G01 X28.1882 Y32.4790
G01 X28.2471 Y32.4978
G01 X28.3357 Y32.5092
G01 X28.5930 Y32.5087
G01 X28.6454 Y32.5034
G01 X28.7523 Y32.4681
G01 X29.0218 Y32.3304
G01 X29.0975 Y32.2722
G01 X29.2575 Y32.1048
G01 X29.4099 Y31.8110
G01 X29.4338 Y31.7505
G01 X29.5656 Y31.2224
G01 X29.5714 Y31.1749
G01 X29.5730 Y30.5468
G01 X29.5613 Y30.4513
G01 X29.4277 Y29.9273
G01 X29.2903 Y29.6466
G01 X29.2374 Y29.5689
G01 X29.2148 Y29.5427
G01 X29.0469 Y29.3822
G01 X28.7251 Y29.2184
G01 X28.6664 Y29.1996
G01 X28.5778 Y29.1882
G01 X28.3357 Y29.1882
G01 X28.2471 Y29.1996
G01 X28.1897 Y29.2176
G01 X27.9204 Y29.3497
G01 X27.8422 Y29.4028
G01 X27.8160 Y29.4254
G01 X27.6558 Y29.5930
G01 X27.4947 Y29.9062
G01 X27.4795 Y29.9476
G01 X27.3522 Y30.4513
G01 X27.3428 Y30.5079
G01 X27.3406 Y31.1511
G01 X27.4406 Y31.1511
G01 X27.4493 Y31.2217
G01 X27.5735 Y31.7157
G01 X27.5925 Y31.7655
G01 X27.7292 Y32.0337
G01 X27.7477 Y32.0589
G01 X27.9240 Y32.2334
G01 X28.2331 Y32.3896
G01 X28.2623 Y32.3990
G01 X28.3205 Y32.4081
G01 X28.5778 Y32.4091
G01 X28.6375 Y32.4023
G01 X28.7076 Y32.3787
G01 X28.9494 Y32.2575
G01 X29.0258 Y32.2024
G01 X29.1762 Y32.0464
G01 X29.3210 Y31.7655
G01 X29.3434 Y31.7050
G01 X29.4709 Y31.1866
G01 X29.4729 Y30.5465
G01 X29.4643 Y30.4757
G01 X29.3299 Y29.9519
G01 X29.1920 Y29.6769
G01 X29.1450 Y29.6144
G01 X28.9890 Y29.4637
G01 X28.6662 Y29.3019
G01 X28.5778 Y29.2882
G01 X28.3205 Y29.2895
G01 X28.2623 Y29.2984
G01 X28.2339 Y29.3075
G01 X27.9502 Y29.4483
G01 X27.8877 Y29.4952
G01 X27.7467 Y29.6395
G01 X27.7292 Y29.6642
G01 X27.5796 Y29.9616
G01 X27.4493 Y30.4757
G01 X27.4406 Y30.5372
G01 X27.4406 Y31.1511
G00 Z2.0000 ( retract )

G00 X28.0215 Y30.5821 ( rapid move to begin. )
G01 F450.0001
( Mill infeed pass 1/1 )
G01 Z-0.1270
G01 F900.0000
G01 X28.0215 Y30.5821
G01 X28.1262 Y30.1640
G01 X28.2115 Y29.9928
G01 X28.2659 Y29.9385
G01 X28.4043 Y29.8694
G01 X28.5092 Y29.8694
G01 X28.6476 Y29.9385
G01 X28.7017 Y29.9928
G01 X28.7873 Y30.1640
G01 X28.8920 Y30.5821
G01 X28.8920 Y31.1153
G01 X28.7873 Y31.5336
G01 X28.7017 Y31.7048
G01 X28.6476 Y31.7591
G01 X28.5092 Y31.8282
G01 X28.4043 Y31.8282
G01 X28.2659 Y31.7591
G01 X28.2115 Y31.7048
G01 X28.1262 Y31.5336
G01 X28.0215 Y31.1153
G01 X28.0215 Y30.5821
G01 X28.1216 Y30.5943
G01 X28.2199 Y30.1986
G01 X28.2928 Y30.0512
G01 X28.3243 Y30.0195
G01 X28.4279 Y29.9692
G01 X28.4274 Y29.9667
G01 X28.4279 Y29.9692
G01 X28.4856 Y29.9692
G01 X28.4861 Y29.9667
G01 X28.4856 Y29.9692
G01 X28.5890 Y30.0195
G01 X28.6207 Y30.0512
G01 X28.6936 Y30.1986
G01 X28.7927 Y30.5943
G01 X28.7927 Y31.1031
G01 X28.6936 Y31.4988
G01 X28.6207 Y31.6464
G01 X28.5890 Y31.6779
G01 X28.4856 Y31.7282
G01 X28.4861 Y31.7309
G01 X28.4856 Y31.7282
G01 X28.4279 Y31.7282
G01 X28.4274 Y31.7309
G01 X28.4279 Y31.7282
G01 X28.3243 Y31.6779
G01 X28.2928 Y31.6464
G01 X28.2199 Y31.4988
G01 X28.1208 Y31.1031
G01 X28.1216 Y30.5943
G00 Z2.0000 ( retract )

G00 X30.7548 Y30.5973 ( rapid move to begin. )
G01 F450.0001
( Mill infeed pass 1/1 )
G01 Z-0.1270
G01 F900.0000
G01 X30.7548 Y30.5973
G01 X30.7548 Y30.8135
G01 X31.2311 Y32.2423
G01 X31.2623 Y32.3121
G01 X31.3065 Y32.3746
G01 X31.3472 Y32.4145
G01 X31.3781 Y32.4386
G01 X31.4269 Y32.4681
G01 X31.4983 Y32.4955
G01 X31.5544 Y32.5059
G01 X31.5935 Y32.5087
G01 X31.6504 Y32.5062
G01 X31.7061 Y32.4945
G01 X31.7434 Y32.4820
G01 X31.8115 Y32.4475
G01 X31.8717 Y32.4002
G01 X31.9212 Y32.3421
G01 X31.9507 Y32.2933
G01 X31.9720 Y32.2405
G01 X31.9824 Y32.2026
G01 X31.9916 Y32.1267
G01 X31.9890 Y32.0698
G01 X31.9720 Y31.9954
G01 X31.1183 Y29.4373
G01 X31.0848 Y29.3705
G01 X31.0637 Y29.3406
G01 X31.0126 Y29.2859
G01 X30.9824 Y29.2621
G01 X30.9179 Y29.2245
G01 X30.8839 Y29.2108
G01 X30.8112 Y29.1927
G01 X30.7731 Y29.1892
G01 X30.6984 Y29.1927
G01 X30.6258 Y29.2108
G01 X30.5577 Y29.2420
G01 X30.5270 Y29.2621
G01 X30.4709 Y29.3113
G01 X30.4460 Y29.3406
G01 X30.4249 Y29.3705
G01 X30.3914 Y29.4373
G01 X29.5377 Y31.9954
G01 X29.5206 Y32.0698
G01 X29.5181 Y32.1267
G01 X29.6182 Y32.1295
G01 X29.6311 Y32.2049
G01 X29.6532 Y32.2572
G01 X29.6786 Y32.2969
G01 X29.7106 Y32.3314
G01 X29.7561 Y32.3659
G01 X29.8163 Y32.3944
G01 X29.8623 Y32.4053
G01 X29.9189 Y32.4086
G01 X29.9941 Y32.3959
G01 X30.0467 Y32.3738
G01 X30.0782 Y32.3538
G01 X30.1335 Y32.3014
G01 X30.1650 Y32.2539
G01 X30.1838 Y32.2105
G01 X30.7548 Y30.4973
G01 X31.3258 Y32.2105
G01 X31.3545 Y32.2710
G01 X31.3820 Y32.3091
G01 X31.4160 Y32.3418
G01 X31.4716 Y32.3787
G01 X31.5344 Y32.4010
G01 X31.5907 Y32.4086
G01 X31.6377 Y32.4071
G01 X31.7025 Y32.3908
G01 X31.7454 Y32.3710
G01 X31.7919 Y32.3383
G01 X31.8366 Y32.2887
G01 X31.8613 Y32.2486
G01 X31.8785 Y32.2049
G01 X31.8915 Y32.1295
G01 X31.8897 Y32.0825
G01 X31.8770 Y32.0269
G01 X31.0269 Y29.4780
G01 X31.0027 Y29.4277
G01 X30.9816 Y29.3980
G01 X30.9281 Y29.3459
G01 X30.8803 Y29.3172
G01 X30.8280 Y29.2979
G01 X30.7731 Y29.2890
G01 X30.7365 Y29.2890
G01 X30.6631 Y29.3035
G01 X30.6123 Y29.3261
G01 X30.5816 Y29.3459
G01 X30.5280 Y29.3980
G01 X30.4975 Y29.4444
G01 X30.4792 Y29.4869
G01 X29.6327 Y32.0269
G01 X29.6217 Y32.0728
G01 X29.6182 Y32.1295
G01 X29.5181 Y32.1267
G01 X29.5272 Y32.2026
G01 X29.5377 Y32.2405
G01 X29.5590 Y32.2933
G01 X29.5885 Y32.3421
G01 X29.6380 Y32.4002
G01 X29.6677 Y32.4259
G01 X29.7147 Y32.4579
G01 X29.7848 Y32.4891
G01 X29.8399 Y32.5029
G01 X29.8788 Y32.5077
G01 X29.9359 Y32.5082
G01 X29.9921 Y32.4996
G01 X30.0299 Y32.4891
G01 X30.0827 Y32.4681
G01 X30.1475 Y32.4272
G01 X30.1897 Y32.3888
G01 X30.2153 Y32.3591
G01 X30.2562 Y32.2946
G01 X30.2786 Y32.2423
G01 X30.7548 Y30.8135
G00 Z2.0000 ( retract )

G00 X29.8148 Y35.0492 ( rapid move to begin. )
G01 F450.0001
( Mill infeed pass 1/1 )
G01 Z-0.1270
G01 F900.0000
G01 X29.8148 Y35.0492
G01 X29.9659 Y35.0479
G01 X30.1810 Y35.1211
G01 X30.1826 Y35.1185
G01 X30.1810 Y35.1211
G01 X30.3139 Y35.2522
G01 X30.3870 Y35.3995
G01 X30.4861 Y35.7952
G01 X30.4861 Y36.0622
G01 X30.3870 Y36.4579
G01 X30.3139 Y36.6052
G01 X30.1810 Y36.7365
G01 X30.1826 Y36.7388
G01 X30.1810 Y36.7365
G01 X29.9659 Y36.8094
G01 X29.8148 Y36.8082
G01 X29.7856 Y36.8376
G01 X29.8148 Y36.8082
G01 X29.8148 Y35.0492
G01 X29.7150 Y34.9494
G01 X29.7150 Y36.9082
G01 X29.9819 Y36.9082
G01 X30.2351 Y36.8239
G01 X30.3952 Y36.6639
G01 X30.4808 Y36.4927
G01 X30.5852 Y36.0743
G01 X30.5852 Y35.7830
G01 X30.4808 Y35.3649
G01 X30.3952 Y35.1937
G01 X30.2351 Y35.0337
G01 X29.9819 Y34.9494
G01 X29.7150 Y34.9494
G00 Z2.0000 ( retract )

G00 X29.1338 Y34.6588 ( rapid move to begin. )
G01 F450.0001
( Mill infeed pass 1/1 )
G01 Z-0.1270
G01 F900.0000
G01 X29.1338 Y34.6588
G01 X29.1379 Y34.6118
G01 X29.1526 Y34.5570
G01 X29.1887 Y34.4894
G01 X29.2189 Y34.4533
G01 X29.2550 Y34.4231
G01 X29.3225 Y34.3870
G01 X29.3774 Y34.3723
G01 X29.4246 Y34.3682
G01 X30.0756 Y34.3720
G01 X30.4833 Y34.5039
G01 X30.5631 Y34.5450
G01 X30.8389 Y34.8158
G01 X30.8938 Y34.8920
G01 X31.0274 Y35.1627
G01 X31.1574 Y35.6766
G01 X31.1663 Y35.7475
G01 X31.1663 Y36.1102
G01 X31.1574 Y36.1808
G01 X31.0274 Y36.6946
G01 X30.8938 Y36.9654
G01 X30.8389 Y37.0416
G01 X30.5745 Y37.3027
G01 X30.5501 Y37.3205
G01 X30.4833 Y37.3535
G01 X30.0756 Y37.4856
G01 X29.4246 Y37.4891
G01 X29.3774 Y37.4851
G01 X29.3042 Y37.4630
G01 X29.2550 Y37.4345
G01 X29.2189 Y37.4040
G01 X29.1887 Y37.3680
G01 X29.1602 Y37.3187
G01 X29.1379 Y37.2458
G01 X29.1338 Y37.1988
G01 X29.1338 Y34.6588
G01 X29.0337 Y34.6588
G01 X29.0337 Y37.1988
G01 X29.0386 Y37.2554
G01 X29.0462 Y37.2941
G01 X29.0634 Y37.3482
G01 X29.0896 Y37.3990
G01 X29.1114 Y37.4315
G01 X29.1483 Y37.4749
G01 X29.1917 Y37.5117
G01 X29.2242 Y37.5336
G01 X29.2748 Y37.5595
G01 X29.3291 Y37.5770
G01 X29.3675 Y37.5846
G01 X29.4251 Y37.5892
G01 X30.0914 Y37.5841
G01 X30.5143 Y37.4487
G01 X30.5961 Y37.4094
G01 X30.6448 Y37.3738
G01 X30.9093 Y37.1130
G01 X30.9308 Y37.0876
G01 X30.9834 Y37.0098
G01 X31.1211 Y36.7292
G01 X31.2590 Y36.1808
G01 X31.2664 Y36.1102
G01 X31.2664 Y35.7475
G01 X31.2544 Y35.6522
G01 X31.1211 Y35.1282
G01 X30.9834 Y34.8478
G01 X30.9308 Y34.7698
G01 X30.9090 Y34.7447
G01 X30.6217 Y34.4640
G01 X30.5143 Y34.4089
G01 X30.0914 Y34.2732
G01 X29.4251 Y34.2682
G01 X29.3675 Y34.2730
G01 X29.3291 Y34.2806
G01 X29.2748 Y34.2979
G01 X29.2242 Y34.3240
G01 X29.1628 Y34.3695
G01 X29.1351 Y34.3972
G01 X29.0896 Y34.4587
G01 X29.0634 Y34.5092
G01 X29.0462 Y34.5636
G01 X29.0386 Y34.6019
G01 X29.0337 Y34.6588
G00 Z2.0000 ( retract )

G00 X27.8986 Y35.8493 ( rapid move to begin. )
G01 F450.0001
( Mill infeed pass 1/1 )
G01 Z-0.1270
G01 F900.0000
G01 X27.8986 Y35.8493
G01 X27.8244 Y36.1292
G01 X27.8244 Y37.1988
G01 X27.8290 Y37.2554
G01 X27.8366 Y37.2941
G01 X27.8625 Y37.3659
G01 X27.9019 Y37.4315
G01 X27.9387 Y37.4749
G01 X27.9822 Y37.5117
G01 X28.0147 Y37.5336
G01 X28.0838 Y37.5661
G01 X28.1579 Y37.5846
G01 X28.2344 Y37.5882
G01 X28.3101 Y37.5770
G01 X28.3642 Y37.5595
G01 X28.4150 Y37.5336
G01 X28.4764 Y37.4881
G01 X28.5041 Y37.4604
G01 X28.5496 Y37.3990
G01 X28.5755 Y37.3482
G01 X28.5930 Y37.2941
G01 X28.6045 Y37.2184
G01 X28.6052 Y34.6588
G01 X28.5940 Y34.5679
G01 X28.5707 Y34.4988
G01 X28.5544 Y34.4670
G01 X28.5128 Y34.4071
G01 X28.4607 Y34.3560
G01 X28.4307 Y34.3339
G01 X28.3662 Y34.2994
G01 X28.2966 Y34.2773
G01 X28.2616 Y34.2715
G01 X28.1887 Y34.2694
G01 X28.1516 Y34.2737
G01 X28.0810 Y34.2923
G01 X28.0149 Y34.3238
G01 X27.9563 Y34.3667
G01 X27.9306 Y34.3916
G01 X27.8757 Y34.4650
G01 X27.1539 Y35.7284
G01 X27.0794 Y36.0083
G01 X27.1539 Y35.7284
G01 X27.1539 Y34.6588
G01 X27.1493 Y34.6019
G01 X27.1417 Y34.5636
G01 X27.1242 Y34.5092
G01 X27.0982 Y34.4587
G01 X27.0764 Y34.4261
G01 X27.0248 Y34.3695
G01 X26.9636 Y34.3240
G01 X26.9128 Y34.2979
G01 X26.8587 Y34.2806
G01 X26.8201 Y34.2730
G01 X26.7635 Y34.2682
G01 X26.7066 Y34.2730
G01 X26.6682 Y34.2806
G01 X26.6139 Y34.2979
G01 X26.5633 Y34.3240
G01 X26.5308 Y34.3459
G01 X26.4871 Y34.3827
G01 X26.4503 Y34.4261
G01 X26.4287 Y34.4587
G01 X26.4025 Y34.5092
G01 X26.3853 Y34.5636
G01 X26.3776 Y34.6019
G01 X26.3728 Y34.6588
G01 X26.4729 Y34.6588
G01 X26.4808 Y34.5925
G01 X26.4950 Y34.5476
G01 X26.5168 Y34.5059
G01 X26.5514 Y34.4607
G01 X26.5941 Y34.4231
G01 X26.6433 Y34.3946
G01 X26.7165 Y34.3723
G01 X26.7635 Y34.3682
G01 X26.8295 Y34.3761
G01 X26.8745 Y34.3903
G01 X26.9164 Y34.4122
G01 X26.9687 Y34.4533
G01 X26.9992 Y34.4894
G01 X27.0350 Y34.5570
G01 X27.0497 Y34.6118
G01 X27.0538 Y34.6588
G01 X27.0538 Y36.1048
G01 X27.9626 Y34.5145
G01 X28.0002 Y34.4632
G01 X28.0259 Y34.4386
G01 X28.0700 Y34.4071
G01 X28.1374 Y34.3792
G01 X28.1907 Y34.3695
G01 X28.2451 Y34.3700
G01 X28.2801 Y34.3761
G01 X28.3317 Y34.3931
G01 X28.3942 Y34.4307
G01 X28.4335 Y34.4681
G01 X28.4554 Y34.4962
G01 X28.4881 Y34.5613
G01 X28.5016 Y34.6138
G01 X28.5054 Y34.6588
G01 X28.5054 Y37.1988
G01 X28.5011 Y37.2458
G01 X28.4790 Y37.3187
G01 X28.4505 Y37.3680
G01 X28.4129 Y37.4106
G01 X28.3677 Y37.4454
G01 X28.3261 Y37.4670
G01 X28.2811 Y37.4813
G01 X28.2148 Y37.4891
G01 X28.1485 Y37.4813
G01 X28.1036 Y37.4670
G01 X28.0619 Y37.4454
G01 X28.0167 Y37.4106
G01 X27.9791 Y37.3680
G01 X27.9507 Y37.3187
G01 X27.9286 Y37.2458
G01 X27.9243 Y37.1988
G01 X27.9243 Y35.7525
G01 X27.0157 Y37.3428
G01 X26.9778 Y37.3941
G01 X26.9524 Y37.4190
G01 X26.9080 Y37.4503
G01 X26.8587 Y37.4729
G01 X26.7873 Y37.4879
G01 X26.7330 Y37.4874
G01 X26.6799 Y37.4767
G01 X26.6296 Y37.4564
G01 X26.5991 Y37.4378
G01 X26.5575 Y37.4030
G01 X26.5229 Y37.3611
G01 X26.4899 Y37.2961
G01 X26.4767 Y37.2435
G01 X26.4729 Y37.1988
G01 X26.4729 Y34.6588
G01 X26.3728 Y34.6588
G01 X26.3728 Y37.1988
G01 X26.3840 Y37.2897
G01 X26.4076 Y37.3588
G01 X26.4437 Y37.4221
G01 X26.4909 Y37.4777
G01 X26.5476 Y37.5237
G01 X26.6118 Y37.5582
G01 X26.6814 Y37.5801
G01 X26.7538 Y37.5887
G01 X26.8267 Y37.5836
G01 X26.8973 Y37.5651
G01 X26.9301 Y37.5514
G01 X26.9928 Y37.5143
G01 X27.0477 Y37.4660
G01 X27.1023 Y37.3926
G01 X27.8244 Y36.1292
G00 Z2.0000 ( retract )

G00 X23.7119 Y36.1094 ( rapid move to begin. )
G01 F450.0001
( Mill infeed pass 1/1 )
G01 Z-0.1270
G01 F900.0000
G01 X23.7119 Y36.1094
G01 X23.7236 Y36.2054
G01 X23.8569 Y36.7292
G01 X23.9946 Y37.0098
G01 X24.0474 Y37.0876
G01 X24.0690 Y37.1130
G01 X24.3332 Y37.3738
G01 X24.3822 Y37.4094
G01 X24.4640 Y37.4487
G01 X24.8867 Y37.5841
G01 X25.3106 Y37.5892
G01 X25.3428 Y37.5869
G01 X25.4300 Y37.5709
G01 X25.4582 Y37.5597
G01 X25.7457 Y37.4175
G01 X25.7932 Y37.3863
G01 X25.8354 Y37.3479
G01 X25.8610 Y37.3182
G01 X25.9019 Y37.2537
G01 X25.9296 Y37.1823
G01 X25.9428 Y37.1071
G01 X25.9410 Y37.0307
G01 X25.9243 Y36.9560
G01 X25.8935 Y36.8861
G01 X25.8496 Y36.8234
G01 X25.7942 Y36.7706
G01 X25.7297 Y36.7297
G01 X25.6774 Y36.7073
G01 X25.6027 Y36.6903
G01 X25.5458 Y36.6878
G01 X25.5067 Y36.6906
G01 X25.4505 Y36.7012
G01 X25.3972 Y36.7205
G01 X25.2199 Y36.8082
G01 X25.2204 Y36.8109
G01 X25.2199 Y36.8082
G01 X25.0124 Y36.8094
G01 X24.7973 Y36.7365
G01 X24.7957 Y36.7388
G01 X24.7973 Y36.7365
G01 X24.6642 Y36.6052
G01 X24.5913 Y36.4579
G01 X24.4922 Y36.0622
G01 X24.4922 Y35.7952
G01 X24.5913 Y35.3995
G01 X24.6642 Y35.2522
G01 X24.7973 Y35.1211
G01 X24.7957 Y35.1185
G01 X24.7973 Y35.1211
G01 X25.0124 Y35.0479
G01 X25.1280 Y35.0479
G01 X25.2844 Y35.1015
G01 X25.3032 Y35.0878
G01 X25.2844 Y35.1015
G01 X25.2844 Y35.3568
G01 X25.3126 Y35.3842
G01 X25.2844 Y35.3568
G01 X25.1910 Y35.3568
G01 X25.1343 Y35.3614
G01 X25.0601 Y35.3799
G01 X24.9908 Y35.4124
G01 X24.9583 Y35.4343
G01 X24.9149 Y35.4711
G01 X24.8663 Y35.5303
G01 X24.8387 Y35.5801
G01 X24.8128 Y35.6522
G01 X24.8016 Y35.7276
G01 X24.8016 Y35.7670
G01 X24.8079 Y35.8234
G01 X24.8303 Y35.8968
G01 X24.8562 Y35.9473
G01 X24.8780 Y35.9801
G01 X24.9149 Y36.0236
G01 X24.9583 Y36.0604
G01 X24.9908 Y36.0822
G01 X25.0601 Y36.1147
G01 X25.0957 Y36.1254
G01 X25.1714 Y36.1368
G01 X25.6748 Y36.1379
G01 X25.7315 Y36.1333
G01 X25.7701 Y36.1254
G01 X25.8242 Y36.1081
G01 X25.8750 Y36.0822
G01 X25.9075 Y36.0604
G01 X25.9509 Y36.0236
G01 X25.9878 Y35.9801
G01 X26.0271 Y35.9146
G01 X26.0530 Y35.8424
G01 X26.0607 Y35.8041
G01 X26.0652 Y35.7475
G01 X26.0652 Y34.9006
G01 X26.0624 Y34.8551
G01 X26.0533 Y34.8089
G01 X26.0228 Y34.7233
G01 X25.9712 Y34.6484
G01 X25.8064 Y34.4835
G01 X25.7327 Y34.4327
G01 X25.7043 Y34.4206
G01 X25.2534 Y34.2732
G01 X25.2214 Y34.2707
G01 X24.8872 Y34.2732
G01 X24.4483 Y34.4147
G01 X24.4005 Y34.4363
G01 X24.3335 Y34.4835
G01 X24.3091 Y34.5044
G01 X24.0276 Y34.7932
G01 X23.8653 Y35.1089
G01 X23.8445 Y35.1693
G01 X23.7150 Y35.6994
G01 X23.7119 Y36.1094
G01 X23.8120 Y36.1099
G01 X23.8140 Y35.7116
G01 X23.9415 Y35.1932
G01 X23.9639 Y35.1328
G01 X24.1087 Y34.8516
G01 X24.3804 Y34.5747
G01 X24.4498 Y34.5234
G01 X24.4950 Y34.5039
G01 X24.9029 Y34.3720
G01 X25.2374 Y34.3720
G01 X25.6870 Y34.5216
G01 X25.7592 Y34.5742
G01 X25.8801 Y34.6951
G01 X25.9337 Y34.7688
G01 X25.9611 Y34.8513
G01 X25.9654 Y34.9006
G01 X25.9654 Y35.7475
G01 X25.9611 Y35.7942
G01 X25.9431 Y35.8584
G01 X25.9105 Y35.9166
G01 X25.8803 Y35.9527
G01 X25.8440 Y35.9829
G01 X25.7861 Y36.0157
G01 X25.7411 Y36.0299
G01 X25.6748 Y36.0378
G01 X25.1910 Y36.0378
G01 X25.1440 Y36.0337
G01 X25.0800 Y36.0157
G01 X25.0218 Y35.9829
G01 X24.9857 Y35.9527
G01 X24.9552 Y35.9166
G01 X24.9227 Y35.8584
G01 X24.9060 Y35.8041
G01 X24.9009 Y35.7571
G01 X24.9060 Y35.6906
G01 X24.9194 Y35.6453
G01 X24.9443 Y35.5943
G01 X24.9928 Y35.5354
G01 X25.0218 Y35.5117
G01 X25.0711 Y35.4830
G01 X25.1249 Y35.4647
G01 X25.1910 Y35.4569
G01 X25.3843 Y35.4569
G01 X25.3843 Y35.0294
G01 X25.1440 Y34.9494
G01 X24.9961 Y34.9494
G01 X24.7432 Y35.0337
G01 X24.5831 Y35.1937
G01 X24.4975 Y35.3649
G01 X24.3929 Y35.7830
G01 X24.3929 Y36.0743
G01 X24.4975 Y36.4927
G01 X24.5831 Y36.6639
G01 X24.7432 Y36.8239
G01 X24.9961 Y36.9082
G01 X25.2433 Y36.9082
G01 X25.4239 Y36.8181
G01 X25.4770 Y36.7977
G01 X25.5430 Y36.7878
G01 X25.5902 Y36.7896
G01 X25.6362 Y36.7995
G01 X25.7061 Y36.8308
G01 X25.7363 Y36.8524
G01 X25.7769 Y36.8922
G01 X25.8089 Y36.9392
G01 X25.8361 Y37.0106
G01 X25.8437 Y37.0670
G01 X25.8420 Y37.1140
G01 X25.8295 Y37.1696
G01 X25.8107 Y37.2128
G01 X25.7665 Y37.2753
G01 X25.7320 Y37.3073
G01 X25.6830 Y37.3380
G01 X25.4140 Y37.4701
G01 X25.3853 Y37.4790
G01 X25.3114 Y37.4891
G01 X24.9027 Y37.4856
G01 X24.4950 Y37.3535
G01 X24.4152 Y37.3126
G01 X24.1285 Y37.0291
G01 X24.0843 Y36.9654
G01 X23.9509 Y36.6946
G01 X23.8183 Y36.1686
G01 X23.6106 Y34.7431
G01 X23.6106 Y34.1645
G01 X31.3675 Y34.1645
G01 X31.3969 Y34.1351
G01 X31.3675 Y34.1645
G01 X31.3675 Y37.6946
G01 X31.3969 Y37.7238
G01 X31.3675 Y37.6946
G01 X23.6106 Y37.6946
G01 X23.5814 Y37.7238
G01 X23.6106 Y37.6946
G01 X23.6106 Y34.7431
G01 X23.5105 Y34.0644
G01 X31.4676 Y34.0644
G01 X31.4676 Y37.7947
G01 X23.5105 Y37.7947
G01 X23.5105 Y34.0644
G01 X23.6106 Y34.1645
G00 Z2.0000 ( retract )

G00 X23.7119 Y29.8206 ( rapid move to begin. )
G01 F450.0001
( Mill infeed pass 1/1 )
G01 Z-0.1270
G01 F900.0000
G01 X23.7119 Y29.8206
G01 X23.7165 Y29.8773
G01 X23.7241 Y29.9159
G01 X23.7416 Y29.9700
G01 X23.7675 Y30.0208
G01 X23.8130 Y30.0822
G01 X23.8696 Y30.1335
G01 X23.9022 Y30.1554
G01 X23.9715 Y30.1879
G01 X24.0261 Y30.2036
G01 X24.0828 Y30.2103
G01 X24.1592 Y30.2064
G01 X24.1976 Y30.1988
G01 X24.2694 Y30.1732
G01 X24.3192 Y30.1452
G01 X24.3639 Y30.1099
G01 X24.4541 Y30.0198
G01 X24.5575 Y29.9692
G01 X24.5570 Y29.9667
G01 X24.5575 Y29.9692
G01 X24.9779 Y29.9692
G01 X24.9786 Y29.9667
G01 X24.9779 Y29.9692
G01 X25.0815 Y30.0195
G01 X25.1130 Y30.0512
G01 X25.1633 Y30.1546
G01 X25.1661 Y30.1541
G01 X25.1633 Y30.1546
G01 X25.1633 Y30.5753
G01 X25.1661 Y30.5758
G01 X25.1633 Y30.5753
G01 X25.1130 Y30.6786
G01 X25.0815 Y30.7104
G01 X24.9779 Y30.7607
G01 X24.9786 Y30.7632
G01 X24.9779 Y30.7607
G01 X24.5575 Y30.7607
G01 X24.5570 Y30.7632
G01 X24.5575 Y30.7607
G01 X24.4541 Y30.7099
G01 X24.3644 Y30.6205
G01 X24.3055 Y30.5763
G01 X24.2395 Y30.5440
G01 X24.2054 Y30.5331
G01 X24.1328 Y30.5204
G01 X24.0952 Y30.5191
G01 X24.0220 Y30.5275
G01 X23.9873 Y30.5366
G01 X23.9194 Y30.5648
G01 X23.8580 Y30.6052
G01 X23.8298 Y30.6304
G01 X23.7823 Y30.6865
G01 X23.7630 Y30.7170
G01 X23.7460 Y30.7508
G01 X23.7226 Y30.8204
G01 X23.7127 Y30.8933
G01 X23.7139 Y30.9481
G01 X23.8349 Y32.1577
G01 X23.8544 Y32.2453
G01 X23.8839 Y32.3108
G01 X23.9024 Y32.3403
G01 X23.9484 Y32.3954
G01 X24.0035 Y32.4409
G01 X24.0662 Y32.4757
G01 X24.1003 Y32.4889
G01 X24.1701 Y32.5051
G01 X24.2235 Y32.5092
G01 X25.4526 Y32.5082
G01 X25.5280 Y32.4970
G01 X25.5824 Y32.4795
G01 X25.6329 Y32.4536
G01 X25.6657 Y32.4317
G01 X25.7091 Y32.3949
G01 X25.7459 Y32.3515
G01 X25.7678 Y32.3190
G01 X25.7937 Y32.2682
G01 X25.8112 Y32.2141
G01 X25.8224 Y32.1384
G01 X25.8224 Y32.0992
G01 X25.8112 Y32.0236
G01 X25.7937 Y31.9692
G01 X25.7678 Y31.9187
G01 X25.7459 Y31.8861
G01 X25.7091 Y31.8427
G01 X25.6657 Y31.8056
G01 X25.6329 Y31.7840
G01 X25.5824 Y31.7579
G01 X25.5280 Y31.7406
G01 X25.4526 Y31.7292
G01 X24.5768 Y31.7282
G01 X24.5534 Y31.7541
G01 X24.5768 Y31.7282
G01 X24.5580 Y31.5412
G01 X24.5222 Y31.5090
G01 X24.5580 Y31.5412
G01 X25.1000 Y31.5394
G01 X25.1602 Y31.5298
G01 X25.2448 Y31.5003
G01 X25.5140 Y31.3629
G01 X25.5897 Y31.3045
G01 X25.7505 Y31.1366
G01 X25.9141 Y30.8148
G01 X25.9329 Y30.7561
G01 X25.9443 Y30.6675
G01 X25.9443 Y30.0624
G01 X25.9329 Y29.9738
G01 X25.9149 Y29.9166
G01 X25.7828 Y29.6474
G01 X25.7299 Y29.5689
G01 X25.7073 Y29.5427
G01 X25.5400 Y29.3827
G01 X25.2306 Y29.2232
G01 X25.1816 Y29.2047
G01 X25.0701 Y29.1882
G01 X24.4653 Y29.1882
G01 X24.3464 Y29.2067
G01 X23.9961 Y29.3822
G01 X23.8280 Y29.5427
G01 X23.7894 Y29.5880
G01 X23.7675 Y29.6205
G01 X23.7416 Y29.6713
G01 X23.7241 Y29.7254
G01 X23.7165 Y29.7637
G01 X23.7119 Y29.8206
G01 X23.8120 Y29.8206
G01 X23.8161 Y29.7736
G01 X23.8308 Y29.7188
G01 X23.8669 Y29.6515
G01 X23.8978 Y29.6144
G01 X24.0541 Y29.4637
G01 X24.3769 Y29.3019
G01 X24.4653 Y29.2882
G01 X25.0701 Y29.2882
G01 X25.1435 Y29.2984
G01 X25.2006 Y29.3192
G01 X25.4815 Y29.4640
G01 X25.6375 Y29.6144
G01 X25.6931 Y29.6913
G01 X25.8252 Y29.9606
G01 X25.8341 Y29.9893
G01 X25.8432 Y30.0472
G01 X25.8442 Y30.6675
G01 X25.8305 Y30.7556
G01 X25.6690 Y31.0787
G01 X25.5184 Y31.2346
G01 X25.4419 Y31.2900
G01 X25.2001 Y31.4109
G01 X25.1150 Y31.4381
G01 X24.4475 Y31.4401
G01 X24.4864 Y31.8282
G01 X25.4330 Y31.8282
G01 X25.4991 Y31.8361
G01 X25.5440 Y31.8503
G01 X25.6022 Y31.8831
G01 X25.6449 Y31.9207
G01 X25.6794 Y31.9656
G01 X25.7012 Y32.0076
G01 X25.7155 Y32.0525
G01 X25.7233 Y32.1188
G01 X25.7155 Y32.1848
G01 X25.7012 Y32.2298
G01 X25.6687 Y32.2880
G01 X25.6383 Y32.3240
G01 X25.6022 Y32.3545
G01 X25.5529 Y32.3830
G01 X25.4991 Y32.4013
G01 X25.4427 Y32.4089
G01 X24.2235 Y32.4091
G01 X24.1612 Y32.4023
G01 X24.1104 Y32.3860
G01 X24.0792 Y32.3705
G01 X24.0218 Y32.3276
G01 X23.9982 Y32.3019
G01 X23.9685 Y32.2577
G01 X23.9423 Y32.1912
G01 X23.9344 Y32.1478
G01 X23.8133 Y30.9382
G01 X23.8143 Y30.8740
G01 X23.8209 Y30.8386
G01 X23.8392 Y30.7871
G01 X23.8783 Y30.7249
G01 X23.9169 Y30.6860
G01 X23.9621 Y30.6553
G01 X24.0124 Y30.6334
G01 X24.0472 Y30.6243
G01 X24.1203 Y30.6194
G01 X24.1744 Y30.6281
G01 X24.2260 Y30.6466
G01 X24.2575 Y30.6639
G01 X24.3078 Y30.7038
G01 X24.3954 Y30.7914
G01 X24.5339 Y30.8605
G01 X25.0015 Y30.8605
G01 X25.1399 Y30.7914
G01 X25.1943 Y30.7370
G01 X25.2633 Y30.5986
G01 X25.2633 Y30.1310
G01 X25.1943 Y29.9926
G01 X25.1399 Y29.9385
G01 X25.0015 Y29.8694
G01 X24.5339 Y29.8694
G01 X24.3954 Y29.9385
G01 X24.3078 Y30.0261
G01 X24.2717 Y30.0563
G01 X24.2044 Y30.0924
G01 X24.1592 Y30.1056
G01 X24.0927 Y30.1107
G01 X24.0457 Y30.1056
G01 X24.0005 Y30.0924
G01 X23.9494 Y30.0673
G01 X23.8971 Y30.0261
G01 X23.8666 Y29.9898
G01 X23.8308 Y29.9225
G01 X23.8161 Y29.8676
G01 X23.8120 Y29.8206
G01 X23.6078 Y29.2583
G01 X23.6078 Y29.0827
G01 X32.0957 Y29.0827
G01 X32.1252 Y29.0535
G01 X32.0957 Y29.0827
G01 X32.0957 Y32.6146
G01 X32.1252 Y32.6438
G01 X32.0957 Y32.6146
G01 X23.6078 Y32.6146
G01 X23.5786 Y32.6438
G01 X23.6078 Y32.6146
G01 X23.6078 Y29.2583
G01 X23.5077 Y28.9829
G01 X32.1958 Y28.9829
G01 X32.1958 Y32.7147
G01 X23.5077 Y32.7147
G01 X23.5077 Y28.9829
G01 X23.6078 Y29.0827
G00 Z2.0000 ( retract )

G00 X23.7119 Y23.9174 ( rapid move to begin. )
G01 F450.0001
( Mill infeed pass 1/1 )
G01 Z-0.1270
G01 F900.0000
G01 X23.7119 Y23.9174
G01 X23.7236 Y24.0134
G01 X23.8569 Y24.5372
G01 X23.9946 Y24.8178
G01 X24.0474 Y24.8956
G01 X24.0690 Y24.9210
G01 X24.3332 Y25.1818
G01 X24.3822 Y25.2174
G01 X24.4640 Y25.2565
G01 X24.8867 Y25.3921
G01 X25.3106 Y25.3972
G01 X25.3428 Y25.3949
G01 X25.4300 Y25.3789
G01 X25.4582 Y25.3677
G01 X25.7457 Y25.2255
G01 X25.7932 Y25.1943
G01 X25.8354 Y25.1559
G01 X25.8610 Y25.1262
G01 X25.9019 Y25.0617
G01 X25.9243 Y25.0093
G01 X25.9413 Y24.9347
G01 X25.9438 Y24.8778
G01 X25.9410 Y24.8387
G01 X25.9304 Y24.7825
G01 X25.9110 Y24.7292
G01 X25.8935 Y24.6941
G01 X25.8496 Y24.6314
G01 X25.7942 Y24.5786
G01 X25.7472 Y24.5466
G01 X25.6957 Y24.5224
G01 X25.6583 Y24.5100
G01 X25.5831 Y24.4968
G01 X25.5262 Y24.4963
G01 X25.4505 Y24.5092
G01 X25.3972 Y24.5285
G01 X25.2199 Y24.6162
G01 X25.2204 Y24.6189
G01 X25.2199 Y24.6162
G01 X25.0124 Y24.6174
G01 X24.7973 Y24.5445
G01 X24.7957 Y24.5468
G01 X24.7973 Y24.5445
G01 X24.6642 Y24.4132
G01 X24.5913 Y24.2659
G01 X24.4922 Y23.8702
G01 X24.4922 Y23.6032
G01 X24.5913 Y23.2075
G01 X24.6642 Y23.0602
G01 X24.7973 Y22.9291
G01 X24.7957 Y22.9268
G01 X24.7973 Y22.9291
G01 X25.0124 Y22.8559
G01 X25.1280 Y22.8559
G01 X25.2844 Y22.9095
G01 X25.3032 Y22.8958
G01 X25.2844 Y22.9095
G01 X25.2844 Y23.1648
G01 X25.3121 Y23.1912
G01 X25.2844 Y23.1648
G01 X25.1910 Y23.1648
G01 X25.1343 Y23.1694
G01 X25.0601 Y23.1879
G01 X24.9908 Y23.2204
G01 X24.9583 Y23.2423
G01 X24.9017 Y23.2938
G01 X24.8663 Y23.3383
G01 X24.8387 Y23.3881
G01 X24.8128 Y23.4602
G01 X24.8016 Y23.5356
G01 X24.8016 Y23.5750
G01 X24.8079 Y23.6314
G01 X24.8303 Y23.7048
G01 X24.8562 Y23.7553
G01 X24.8780 Y23.7881
G01 X24.9293 Y23.8445
G01 X24.9908 Y23.8902
G01 X25.0601 Y23.9227
G01 X25.1148 Y23.9382
G01 X25.1714 Y23.9448
G01 X25.6748 Y23.9458
G01 X25.7315 Y23.9413
G01 X25.8059 Y23.9227
G01 X25.8750 Y23.8902
G01 X25.9075 Y23.8684
G01 X25.9509 Y23.8316
G01 X25.9878 Y23.7881
G01 X26.0271 Y23.7226
G01 X26.0530 Y23.6504
G01 X26.0607 Y23.6121
G01 X26.0652 Y23.5552
G01 X26.0652 Y22.7086
G01 X26.0624 Y22.6631
G01 X26.0533 Y22.6169
G01 X26.0228 Y22.5313
G01 X25.9712 Y22.4564
G01 X25.8064 Y22.2915
G01 X25.7327 Y22.2407
G01 X25.7043 Y22.2286
G01 X25.2534 Y22.0812
G01 X25.2214 Y22.0787
G01 X24.8872 Y22.0812
G01 X24.4483 Y22.2227
G01 X24.4005 Y22.2443
G01 X24.3335 Y22.2915
G01 X24.3091 Y22.3126
G01 X24.0276 Y22.6012
G01 X23.8653 Y22.9169
G01 X23.8445 Y22.9773
G01 X23.7150 Y23.5074
G01 X23.7119 Y23.9174
G01 X23.8120 Y23.9177
G01 X23.8140 Y23.5196
G01 X23.9415 Y23.0012
G01 X23.9639 Y22.9408
G01 X24.1087 Y22.6596
G01 X24.3804 Y22.3827
G01 X24.4498 Y22.3314
G01 X24.4950 Y22.3119
G01 X24.9029 Y22.1800
G01 X25.2374 Y22.1800
G01 X25.6870 Y22.3294
G01 X25.7592 Y22.3822
G01 X25.8801 Y22.5031
G01 X25.9337 Y22.5768
G01 X25.9611 Y22.6593
G01 X25.9654 Y22.7086
G01 X25.9654 Y23.5552
G01 X25.9611 Y23.6022
