( pcb2gcode 2.5.0 )
( Software-independent Gcode )
( This file uses a mill head of 0.12500inch to drill the 1 hole sizes. )
( Hole sizes: [0.1457inch] )

G94       (Inches per minute feed rate.)
G21       (Units == MM.)
G91.1     (Incremental arc distance mode.)
G90       (Absolute coordinates.)
S10000    (RPM spindle speed.)

G01 F100.0001 (Feedrate)
G00 Z10.0000 (Retract to tool change height)
T5
M5        (Spindle stop.)
(MSG, Change tool bit to drill size 0.12500inch)
M6        (Tool change.)
M0        (Temporary machine stop.)
M3        (Spindle on clockwise.)
G00 Z2.0000

G0 X5.3429 Y14.9860
G1 Z0.4501 F49.9999
G1 F100.0001
G2 X5.3429 Y14.9860 Z-0.0000 I-0.01035 J0.00000
G2 X5.3429 Y14.9860 Z-0.4501 I-0.01035 J0.00000
G2 X5.3429 Y14.9860 Z-0.8999 I-0.01035 J0.00000
G2 X5.3429 Y14.9860 Z-1.3500 I-0.01035 J0.00000
G2 X5.3429 Y14.9860 Z-1.8001 I-0.01035 J0.00000
G2 X5.3429 Y14.9860 I-0.01035 J0.00000
G1 Z2.0000 F49.9999

G0 X5.3429 Y63.7540
G1 Z0.4501 F49.9999
G1 F100.0001
G2 X5.3429 Y63.7540 Z-0.0000 I-0.01035 J0.00000
G2 X5.3429 Y63.7540 Z-0.4501 I-0.01035 J0.00000
G2 X5.3429 Y63.7540 Z-0.8999 I-0.01035 J0.00000
G2 X5.3429 Y63.7540 Z-1.3500 I-0.01035 J0.00000
G2 X5.3429 Y63.7540 Z-1.8001 I-0.01035 J0.00000
G2 X5.3429 Y63.7540 I-0.01035 J0.00000
G1 Z2.0000 F49.9999

G0 X147.0749 Y63.7540
G1 Z0.4501 F49.9999
G1 F100.0001
G2 X147.0749 Y63.7540 Z-0.0000 I-0.01035 J0.00000
G2 X147.0749 Y63.7540 Z-0.4501 I-0.01035 J0.00000
G2 X147.0749 Y63.7540 Z-0.8999 I-0.01035 J0.00000
G2 X147.0749 Y63.7540 Z-1.3500 I-0.01035 J0.00000
G2 X147.0749 Y63.7540 Z-1.8001 I-0.01035 J0.00000
G2 X147.0749 Y63.7540 I-0.01035 J0.00000
G1 Z2.0000 F49.9999

G0 X147.0749 Y14.9860
G1 Z0.4501 F49.9999
G1 F100.0001
G2 X147.0749 Y14.9860 Z-0.0000 I-0.01035 J0.00000
G2 X147.0749 Y14.9860 Z-0.4501 I-0.01035 J0.00000
G2 X147.0749 Y14.9860 Z-0.8999 I-0.01035 J0.00000
G2 X147.0749 Y14.9860 Z-1.3500 I-0.01035 J0.00000
G2 X147.0749 Y14.9860 Z-1.8001 I-0.01035 J0.00000
G2 X147.0749 Y14.9860 I-0.01035 J0.00000
G1 Z2.0000 F49.9999

G00 Z10.0000 ( All done -- retract )

M5      (Spindle off.)
M9      (Coolant off.)
M2      (Program end.)

