( pcb2gcode 2.5.0 )
( Software-independent Gcode )
( This file uses a mill head of 0.12500inch to drill the 1 hole sizes. )
( Hole sizes: [0.1457inch] )

G94       (Inches per minute feed rate.)
G20       (Units == INCHES.)
G91.1     (Incremental arc distance mode.)
G90       (Absolute coordinates.)
S10000    (RPM spindle speed.)

G01 F3.93701 (Feedrate)
G00 Z0.39370 (Retract to tool change height)
T5
M5        (Spindle stop.)
G04 P1.00000
(MSG, Change tool bit to drill size 0.12500inch)
M6        (Tool change.)
M0        (Temporary machine stop.)
M3        (Spindle on clockwise.)
G04 P1.00000
G00 Z0.07874

G0 X0.21035 Y0.59000
G1 Z0.00709 F1.96850
G1 F3.93701
G1 X0.210 Y0.587 Z0.007 F4
G1 X0.208 Y0.584 Z0.007 F4
G1 X0.206 Y0.582 Z0.007 F4
G1 X0.203 Y0.580 Z0.007 F4
G1 X0.200 Y0.580 Z0.007 F4
G1 X0.197 Y0.580 Z0.007 F4
G1 X0.194 Y0.582 Z0.007 F4
G1 X0.192 Y0.584 Z0.007 F4
G1 X0.190 Y0.587 Z0.007 F4
G1 X0.190 Y0.590 Z0.007 F4
G1 X0.190 Y0.593 Z0.007 F4
G1 X0.192 Y0.596 Z0.007 F4
G1 X0.194 Y0.598 Z0.007 F4
G1 X0.197 Y0.600 Z0.007 F4
G1 X0.200 Y0.600 Z0.007 F4
G1 X0.203 Y0.600 Z0.007 F4
G1 X0.206 Y0.598 Z0.007 F4
G1 X0.208 Y0.596 Z0.007 F4
G1 X0.210 Y0.593 Z0.007 F4
G1 X0.210 Y0.590 Z0.007 F4
G1 X0.210 Y0.587 F4
G1 X0.208 Y0.584 F4
G1 X0.206 Y0.582 F4
G1 X0.203 Y0.580 F4
G1 X0.200 Y0.580 F4
G1 X0.197 Y0.580 F4
G1 X0.194 Y0.582 F4
G1 X0.192 Y0.584 F4
G1 X0.190 Y0.587 F4
G1 X0.190 Y0.590 F4
G1 X0.190 Y0.593 F4
G1 X0.192 Y0.596 F4
G1 X0.194 Y0.598 F4
G1 X0.197 Y0.600 F4
G1 X0.200 Y0.600 F4
G1 X0.203 Y0.600 F4
G1 X0.206 Y0.598 F4
G1 X0.208 Y0.596 F4
G1 X0.210 Y0.593 F4
G1 X0.210 Y0.590 F4
G1 X0.210 Y0.587 Z-0.007 F4
G1 X0.208 Y0.584 Z-0.007 F4
G1 X0.206 Y0.582 Z-0.007 F4
G1 X0.203 Y0.580 Z-0.007 F4
G1 X0.200 Y0.580 Z-0.007 F4
G1 X0.197 Y0.580 Z-0.007 F4
G1 X0.194 Y0.582 Z-0.007 F4
G1 X0.192 Y0.584 Z-0.007 F4
G1 X0.190 Y0.587 Z-0.007 F4
G1 X0.190 Y0.590 Z-0.007 F4
G1 X0.190 Y0.593 Z-0.007 F4
G1 X0.192 Y0.596 Z-0.007 F4
G1 X0.194 Y0.598 Z-0.007 F4
G1 X0.197 Y0.600 Z-0.007 F4
G1 X0.200 Y0.600 Z-0.007 F4
G1 X0.203 Y0.600 Z-0.007 F4
G1 X0.206 Y0.598 Z-0.007 F4
G1 X0.208 Y0.596 Z-0.007 F4
G1 X0.210 Y0.593 Z-0.007 F4
G1 X0.210 Y0.590 Z-0.007 F4
G1 X0.210 Y0.587 Z-0.014 F4
G1 X0.208 Y0.584 Z-0.014 F4
G1 X0.206 Y0.582 Z-0.014 F4
G1 X0.203 Y0.580 Z-0.014 F4
G1 X0.200 Y0.580 Z-0.014 F4
G1 X0.197 Y0.580 Z-0.014 F4
G1 X0.194 Y0.582 Z-0.014 F4
G1 X0.192 Y0.584 Z-0.014 F4
G1 X0.190 Y0.587 Z-0.014 F4
G1 X0.190 Y0.590 Z-0.014 F4
G1 X0.190 Y0.593 Z-0.014 F4
G1 X0.192 Y0.596 Z-0.014 F4
G1 X0.194 Y0.598 Z-0.014 F4
G1 X0.197 Y0.600 Z-0.014 F4
G1 X0.200 Y0.600 Z-0.014 F4
G1 X0.203 Y0.600 Z-0.014 F4
G1 X0.206 Y0.598 Z-0.014 F4
G1 X0.208 Y0.596 Z-0.014 F4
G1 X0.210 Y0.593 Z-0.014 F4
G1 X0.210 Y0.590 Z-0.014 F4
G1 X0.210 Y0.587 Z-0.021 F4
G1 X0.208 Y0.584 Z-0.021 F4
G1 X0.206 Y0.582 Z-0.021 F4
G1 X0.203 Y0.580 Z-0.021 F4
G1 X0.200 Y0.580 Z-0.021 F4
G1 X0.197 Y0.580 Z-0.021 F4
G1 X0.194 Y0.582 Z-0.021 F4
G1 X0.192 Y0.584 Z-0.021 F4
G1 X0.190 Y0.587 Z-0.021 F4
G1 X0.190 Y0.590 Z-0.021 F4
G1 X0.190 Y0.593 Z-0.021 F4
G1 X0.192 Y0.596 Z-0.021 F4
G1 X0.194 Y0.598 Z-0.021 F4
G1 X0.197 Y0.600 Z-0.021 F4
G1 X0.200 Y0.600 Z-0.021 F4
G1 X0.203 Y0.600 Z-0.021 F4
G1 X0.206 Y0.598 Z-0.021 F4
G1 X0.208 Y0.596 Z-0.021 F4
G1 X0.210 Y0.593 Z-0.021 F4
G1 X0.210 Y0.590 Z-0.021 F4
G1 X0.210 Y0.587 Z-0.028 F4
G1 X0.208 Y0.584 Z-0.028 F4
G1 X0.206 Y0.582 Z-0.028 F4
G1 X0.203 Y0.580 Z-0.028 F4
G1 X0.200 Y0.580 Z-0.028 F4
G1 X0.197 Y0.580 Z-0.028 F4
G1 X0.194 Y0.582 Z-0.028 F4
G1 X0.192 Y0.584 Z-0.028 F4
G1 X0.190 Y0.587 Z-0.028 F4
G1 X0.190 Y0.590 Z-0.028 F4
G1 X0.190 Y0.593 Z-0.028 F4
G1 X0.192 Y0.596 Z-0.028 F4
G1 X0.194 Y0.598 Z-0.028 F4
G1 X0.197 Y0.600 Z-0.028 F4
G1 X0.200 Y0.600 Z-0.028 F4
G1 X0.203 Y0.600 Z-0.028 F4
G1 X0.206 Y0.598 Z-0.028 F4
G1 X0.208 Y0.596 Z-0.028 F4
G1 X0.210 Y0.593 Z-0.028 F4
G1 X0.210 Y0.590 Z-0.028 F4
G1 X0.210 Y0.587 Z-0.035 F4
G1 X0.208 Y0.584 Z-0.035 F4
G1 X0.206 Y0.582 Z-0.035 F4
G1 X0.203 Y0.580 Z-0.035 F4
G1 X0.200 Y0.580 Z-0.035 F4
G1 X0.197 Y0.580 Z-0.035 F4
G1 X0.194 Y0.582 Z-0.035 F4
G1 X0.192 Y0.584 Z-0.035 F4
G1 X0.190 Y0.587 Z-0.035 F4
G1 X0.190 Y0.590 Z-0.035 F4
G1 X0.190 Y0.593 Z-0.035 F4
G1 X0.192 Y0.596 Z-0.035 F4
G1 X0.194 Y0.598 Z-0.035 F4
G1 X0.197 Y0.600 Z-0.035 F4
G1 X0.200 Y0.600 Z-0.035 F4
G1 X0.203 Y0.600 Z-0.035 F4
G1 X0.206 Y0.598 Z-0.035 F4
G1 X0.208 Y0.596 Z-0.035 F4
G1 X0.210 Y0.593 Z-0.035 F4
G1 X0.210 Y0.590 Z-0.035 F4
G1 X0.210 Y0.587 Z-0.043 F4
G1 X0.208 Y0.584 Z-0.043 F4
G1 X0.206 Y0.582 Z-0.043 F4
G1 X0.203 Y0.580 Z-0.043 F4
G1 X0.200 Y0.580 Z-0.043 F4
G1 X0.197 Y0.580 Z-0.043 F4
G1 X0.194 Y0.582 Z-0.043 F4
G1 X0.192 Y0.584 Z-0.043 F4
G1 X0.190 Y0.587 Z-0.043 F4
G1 X0.190 Y0.590 Z-0.043 F4
G1 X0.190 Y0.593 Z-0.043 F4
G1 X0.192 Y0.596 Z-0.043 F4
G1 X0.194 Y0.598 Z-0.043 F4
G1 X0.197 Y0.600 Z-0.043 F4
G1 X0.200 Y0.600 Z-0.043 F4
G1 X0.203 Y0.600 Z-0.043 F4
G1 X0.206 Y0.598 Z-0.043 F4
G1 X0.208 Y0.596 Z-0.043 F4
G1 X0.210 Y0.593 Z-0.043 F4
G1 X0.210 Y0.590 Z-0.043 F4
G1 X0.210 Y0.587 Z-0.050 F4
G1 X0.208 Y0.584 Z-0.050 F4
G1 X0.206 Y0.582 Z-0.050 F4
G1 X0.203 Y0.580 Z-0.050 F4
G1 X0.200 Y0.580 Z-0.050 F4
G1 X0.197 Y0.580 Z-0.050 F4
G1 X0.194 Y0.582 Z-0.050 F4
G1 X0.192 Y0.584 Z-0.050 F4
G1 X0.190 Y0.587 Z-0.050 F4
G1 X0.190 Y0.590 Z-0.050 F4
G1 X0.190 Y0.593 Z-0.050 F4
G1 X0.192 Y0.596 Z-0.050 F4
G1 X0.194 Y0.598 Z-0.050 F4
G1 X0.197 Y0.600 Z-0.050 F4
G1 X0.200 Y0.600 Z-0.050 F4
G1 X0.203 Y0.600 Z-0.050 F4
G1 X0.206 Y0.598 Z-0.050 F4
G1 X0.208 Y0.596 Z-0.050 F4
G1 X0.210 Y0.593 Z-0.050 F4
G1 X0.210 Y0.590 Z-0.050 F4
G1 X0.210 Y0.587 Z-0.057 F4
G1 X0.208 Y0.584 Z-0.057 F4
G1 X0.206 Y0.582 Z-0.057 F4
G1 X0.203 Y0.580 Z-0.057 F4
G1 X0.200 Y0.580 Z-0.057 F4
G1 X0.197 Y0.580 Z-0.057 F4
G1 X0.194 Y0.582 Z-0.057 F4
G1 X0.192 Y0.584 Z-0.057 F4
G1 X0.190 Y0.587 Z-0.057 F4
G1 X0.190 Y0.590 Z-0.057 F4
G1 X0.190 Y0.593 Z-0.057 F4
G1 X0.192 Y0.596 Z-0.057 F4
G1 X0.194 Y0.598 Z-0.057 F4
G1 X0.197 Y0.600 Z-0.057 F4
G1 X0.200 Y0.600 Z-0.057 F4
G1 X0.203 Y0.600 Z-0.057 F4
G1 X0.206 Y0.598 Z-0.057 F4
G1 X0.208 Y0.596 Z-0.057 F4
G1 X0.210 Y0.593 Z-0.057 F4
G1 X0.210 Y0.590 Z-0.057 F4
G1 X0.210 Y0.587 Z-0.064 F4
G1 X0.208 Y0.584 Z-0.064 F4
G1 X0.206 Y0.582 Z-0.064 F4
G1 X0.203 Y0.580 Z-0.064 F4
G1 X0.200 Y0.580 Z-0.064 F4
G1 X0.197 Y0.580 Z-0.064 F4
G1 X0.194 Y0.582 Z-0.064 F4
G1 X0.192 Y0.584 Z-0.064 F4
G1 X0.190 Y0.587 Z-0.064 F4
G1 X0.190 Y0.590 Z-0.064 F4
G1 X0.190 Y0.593 Z-0.064 F4
G1 X0.192 Y0.596 Z-0.064 F4
G1 X0.194 Y0.598 Z-0.064 F4
G1 X0.197 Y0.600 Z-0.064 F4
G1 X0.200 Y0.600 Z-0.064 F4
G1 X0.203 Y0.600 Z-0.064 F4
G1 X0.206 Y0.598 Z-0.064 F4
G1 X0.208 Y0.596 Z-0.064 F4
G1 X0.210 Y0.593 Z-0.064 F4
G1 X0.210 Y0.590 Z-0.064 F4
G1 X0.210 Y0.587 Z-0.071 F4
G1 X0.208 Y0.584 Z-0.071 F4
G1 X0.206 Y0.582 Z-0.071 F4
G1 X0.203 Y0.580 Z-0.071 F4
G1 X0.200 Y0.580 Z-0.071 F4
G1 X0.197 Y0.580 Z-0.071 F4
G1 X0.194 Y0.582 Z-0.071 F4
G1 X0.192 Y0.584 Z-0.071 F4
G1 X0.190 Y0.587 Z-0.071 F4
G1 X0.190 Y0.590 Z-0.071 F4
G1 X0.190 Y0.593 Z-0.071 F4
G1 X0.192 Y0.596 Z-0.071 F4
G1 X0.194 Y0.598 Z-0.071 F4
G1 X0.197 Y0.600 Z-0.071 F4
G1 X0.200 Y0.600 Z-0.071 F4
G1 X0.203 Y0.600 Z-0.071 F4
G1 X0.206 Y0.598 Z-0.071 F4
G1 X0.208 Y0.596 Z-0.071 F4
G1 X0.210 Y0.593 Z-0.071 F4
G1 X0.210 Y0.590 Z-0.071 F4
G1 Z0.07874 F1.96850

G0 X0.21035 Y2.51000
G1 Z0.00709 F1.96850
G1 F3.93701
G1 X0.210 Y2.507 Z0.007 F4
G1 X0.208 Y2.504 Z0.007 F4
G1 X0.206 Y2.502 Z0.007 F4
G1 X0.203 Y2.500 Z0.007 F4
G1 X0.200 Y2.500 Z0.007 F4
G1 X0.197 Y2.500 Z0.007 F4
G1 X0.194 Y2.502 Z0.007 F4
G1 X0.192 Y2.504 Z0.007 F4
G1 X0.190 Y2.507 Z0.007 F4
G1 X0.190 Y2.510 Z0.007 F4
G1 X0.190 Y2.513 Z0.007 F4
G1 X0.192 Y2.516 Z0.007 F4
G1 X0.194 Y2.518 Z0.007 F4
G1 X0.197 Y2.520 Z0.007 F4
G1 X0.200 Y2.520 Z0.007 F4
G1 X0.203 Y2.520 Z0.007 F4
G1 X0.206 Y2.518 Z0.007 F4
G1 X0.208 Y2.516 Z0.007 F4
G1 X0.210 Y2.513 Z0.007 F4
G1 X0.210 Y2.510 Z0.007 F4
G1 X0.210 Y2.507 F4
G1 X0.208 Y2.504 F4
G1 X0.206 Y2.502 F4
G1 X0.203 Y2.500 F4
G1 X0.200 Y2.500 F4
G1 X0.197 Y2.500 F4
G1 X0.194 Y2.502 F4
G1 X0.192 Y2.504 F4
G1 X0.190 Y2.507 F4
G1 X0.190 Y2.510 F4
G1 X0.190 Y2.513 F4
G1 X0.192 Y2.516 F4
G1 X0.194 Y2.518 F4
G1 X0.197 Y2.520 F4
G1 X0.200 Y2.520 F4
G1 X0.203 Y2.520 F4
G1 X0.206 Y2.518 F4
G1 X0.208 Y2.516 F4
G1 X0.210 Y2.513 F4
G1 X0.210 Y2.510 F4
G1 X0.210 Y2.507 Z-0.007 F4
G1 X0.208 Y2.504 Z-0.007 F4
G1 X0.206 Y2.502 Z-0.007 F4
G1 X0.203 Y2.500 Z-0.007 F4
G1 X0.200 Y2.500 Z-0.007 F4
G1 X0.197 Y2.500 Z-0.007 F4
G1 X0.194 Y2.502 Z-0.007 F4
G1 X0.192 Y2.504 Z-0.007 F4
G1 X0.190 Y2.507 Z-0.007 F4
G1 X0.190 Y2.510 Z-0.007 F4
G1 X0.190 Y2.513 Z-0.007 F4
G1 X0.192 Y2.516 Z-0.007 F4
G1 X0.194 Y2.518 Z-0.007 F4
G1 X0.197 Y2.520 Z-0.007 F4
G1 X0.200 Y2.520 Z-0.007 F4
G1 X0.203 Y2.520 Z-0.007 F4
G1 X0.206 Y2.518 Z-0.007 F4
G1 X0.208 Y2.516 Z-0.007 F4
G1 X0.210 Y2.513 Z-0.007 F4
G1 X0.210 Y2.510 Z-0.007 F4
G1 X0.210 Y2.507 Z-0.014 F4
G1 X0.208 Y2.504 Z-0.014 F4
G1 X0.206 Y2.502 Z-0.014 F4
G1 X0.203 Y2.500 Z-0.014 F4
G1 X0.200 Y2.500 Z-0.014 F4
G1 X0.197 Y2.500 Z-0.014 F4
G1 X0.194 Y2.502 Z-0.014 F4
G1 X0.192 Y2.504 Z-0.014 F4
G1 X0.190 Y2.507 Z-0.014 F4
G1 X0.190 Y2.510 Z-0.014 F4
G1 X0.190 Y2.513 Z-0.014 F4
G1 X0.192 Y2.516 Z-0.014 F4
G1 X0.194 Y2.518 Z-0.014 F4
G1 X0.197 Y2.520 Z-0.014 F4
G1 X0.200 Y2.520 Z-0.014 F4
G1 X0.203 Y2.520 Z-0.014 F4
G1 X0.206 Y2.518 Z-0.014 F4
G1 X0.208 Y2.516 Z-0.014 F4
G1 X0.210 Y2.513 Z-0.014 F4
G1 X0.210 Y2.510 Z-0.014 F4
G1 X0.210 Y2.507 Z-0.021 F4
G1 X0.208 Y2.504 Z-0.021 F4
G1 X0.206 Y2.502 Z-0.021 F4
G1 X0.203 Y2.500 Z-0.021 F4
G1 X0.200 Y2.500 Z-0.021 F4
G1 X0.197 Y2.500 Z-0.021 F4
G1 X0.194 Y2.502 Z-0.021 F4
G1 X0.192 Y2.504 Z-0.021 F4
G1 X0.190 Y2.507 Z-0.021 F4
G1 X0.190 Y2.510 Z-0.021 F4
G1 X0.190 Y2.513 Z-0.021 F4
G1 X0.192 Y2.516 Z-0.021 F4
G1 X0.194 Y2.518 Z-0.021 F4
G1 X0.197 Y2.520 Z-0.021 F4
G1 X0.200 Y2.520 Z-0.021 F4
G1 X0.203 Y2.520 Z-0.021 F4
G1 X0.206 Y2.518 Z-0.021 F4
G1 X0.208 Y2.516 Z-0.021 F4
G1 X0.210 Y2.513 Z-0.021 F4
G1 X0.210 Y2.510 Z-0.021 F4
G1 X0.210 Y2.507 Z-0.028 F4
G1 X0.208 Y2.504 Z-0.028 F4
G1 X0.206 Y2.502 Z-0.028 F4
G1 X0.203 Y2.500 Z-0.028 F4
G1 X0.200 Y2.500 Z-0.028 F4
G1 X0.197 Y2.500 Z-0.028 F4
G1 X0.194 Y2.502 Z-0.028 F4
G1 X0.192 Y2.504 Z-0.028 F4
G1 X0.190 Y2.507 Z-0.028 F4
G1 X0.190 Y2.510 Z-0.028 F4
G1 X0.190 Y2.513 Z-0.028 F4
G1 X0.192 Y2.516 Z-0.028 F4
G1 X0.194 Y2.518 Z-0.028 F4
G1 X0.197 Y2.520 Z-0.028 F4
G1 X0.200 Y2.520 Z-0.028 F4
G1 X0.203 Y2.520 Z-0.028 F4
G1 X0.206 Y2.518 Z-0.028 F4
G1 X0.208 Y2.516 Z-0.028 F4
G1 X0.210 Y2.513 Z-0.028 F4
G1 X0.210 Y2.510 Z-0.028 F4
G1 X0.210 Y2.507 Z-0.035 F4
G1 X0.208 Y2.504 Z-0.035 F4
G1 X0.206 Y2.502 Z-0.035 F4
G1 X0.203 Y2.500 Z-0.035 F4
G1 X0.200 Y2.500 Z-0.035 F4
G1 X0.197 Y2.500 Z-0.035 F4
G1 X0.194 Y2.502 Z-0.035 F4
G1 X0.192 Y2.504 Z-0.035 F4
G1 X0.190 Y2.507 Z-0.035 F4
G1 X0.190 Y2.510 Z-0.035 F4
G1 X0.190 Y2.513 Z-0.035 F4
G1 X0.192 Y2.516 Z-0.035 F4
G1 X0.194 Y2.518 Z-0.035 F4
G1 X0.197 Y2.520 Z-0.035 F4
G1 X0.200 Y2.520 Z-0.035 F4
G1 X0.203 Y2.520 Z-0.035 F4
G1 X0.206 Y2.518 Z-0.035 F4
G1 X0.208 Y2.516 Z-0.035 F4
G1 X0.210 Y2.513 Z-0.035 F4
G1 X0.210 Y2.510 Z-0.035 F4
G1 X0.210 Y2.507 Z-0.043 F4
G1 X0.208 Y2.504 Z-0.043 F4
G1 X0.206 Y2.502 Z-0.043 F4
G1 X0.203 Y2.500 Z-0.043 F4
G1 X0.200 Y2.500 Z-0.043 F4
G1 X0.197 Y2.500 Z-0.043 F4
G1 X0.194 Y2.502 Z-0.043 F4
G1 X0.192 Y2.504 Z-0.043 F4
G1 X0.190 Y2.507 Z-0.043 F4
G1 X0.190 Y2.510 Z-0.043 F4
G1 X0.190 Y2.513 Z-0.043 F4
G1 X0.192 Y2.516 Z-0.043 F4
G1 X0.194 Y2.518 Z-0.043 F4
G1 X0.197 Y2.520 Z-0.043 F4
G1 X0.200 Y2.520 Z-0.043 F4
G1 X0.203 Y2.520 Z-0.043 F4
G1 X0.206 Y2.518 Z-0.043 F4
G1 X0.208 Y2.516 Z-0.043 F4
G1 X0.210 Y2.513 Z-0.043 F4
G1 X0.210 Y2.510 Z-0.043 F4
G1 X0.210 Y2.507 Z-0.050 F4
G1 X0.208 Y2.504 Z-0.050 F4
G1 X0.206 Y2.502 Z-0.050 F4
G1 X0.203 Y2.500 Z-0.050 F4
G1 X0.200 Y2.500 Z-0.050 F4
G1 X0.197 Y2.500 Z-0.050 F4
G1 X0.194 Y2.502 Z-0.050 F4
G1 X0.192 Y2.504 Z-0.050 F4
G1 X0.190 Y2.507 Z-0.050 F4
G1 X0.190 Y2.510 Z-0.050 F4
G1 X0.190 Y2.513 Z-0.050 F4
G1 X0.192 Y2.516 Z-0.050 F4
G1 X0.194 Y2.518 Z-0.050 F4
G1 X0.197 Y2.520 Z-0.050 F4
G1 X0.200 Y2.520 Z-0.050 F4
G1 X0.203 Y2.520 Z-0.050 F4
G1 X0.206 Y2.518 Z-0.050 F4
G1 X0.208 Y2.516 Z-0.050 F4
G1 X0.210 Y2.513 Z-0.050 F4
G1 X0.210 Y2.510 Z-0.050 F4
G1 X0.210 Y2.507 Z-0.057 F4
G1 X0.208 Y2.504 Z-0.057 F4
G1 X0.206 Y2.502 Z-0.057 F4
G1 X0.203 Y2.500 Z-0.057 F4
G1 X0.200 Y2.500 Z-0.057 F4
G1 X0.197 Y2.500 Z-0.057 F4
G1 X0.194 Y2.502 Z-0.057 F4
G1 X0.192 Y2.504 Z-0.057 F4
G1 X0.190 Y2.507 Z-0.057 F4
G1 X0.190 Y2.510 Z-0.057 F4
G1 X0.190 Y2.513 Z-0.057 F4
G1 X0.192 Y2.516 Z-0.057 F4
G1 X0.194 Y2.518 Z-0.057 F4
G1 X0.197 Y2.520 Z-0.057 F4
G1 X0.200 Y2.520 Z-0.057 F4
G1 X0.203 Y2.520 Z-0.057 F4
G1 X0.206 Y2.518 Z-0.057 F4
G1 X0.208 Y2.516 Z-0.057 F4
G1 X0.210 Y2.513 Z-0.057 F4
G1 X0.210 Y2.510 Z-0.057 F4
G1 X0.210 Y2.507 Z-0.064 F4
G1 X0.208 Y2.504 Z-0.064 F4
G1 X0.206 Y2.502 Z-0.064 F4
G1 X0.203 Y2.500 Z-0.064 F4
G1 X0.200 Y2.500 Z-0.064 F4
G1 X0.197 Y2.500 Z-0.064 F4
G1 X0.194 Y2.502 Z-0.064 F4
G1 X0.192 Y2.504 Z-0.064 F4
G1 X0.190 Y2.507 Z-0.064 F4
G1 X0.190 Y2.510 Z-0.064 F4
G1 X0.190 Y2.513 Z-0.064 F4
G1 X0.192 Y2.516 Z-0.064 F4
G1 X0.194 Y2.518 Z-0.064 F4
G1 X0.197 Y2.520 Z-0.064 F4
G1 X0.200 Y2.520 Z-0.064 F4
G1 X0.203 Y2.520 Z-0.064 F4
G1 X0.206 Y2.518 Z-0.064 F4
G1 X0.208 Y2.516 Z-0.064 F4
G1 X0.210 Y2.513 Z-0.064 F4
G1 X0.210 Y2.510 Z-0.064 F4
G1 X0.210 Y2.507 Z-0.071 F4
G1 X0.208 Y2.504 Z-0.071 F4
G1 X0.206 Y2.502 Z-0.071 F4
G1 X0.203 Y2.500 Z-0.071 F4
G1 X0.200 Y2.500 Z-0.071 F4
G1 X0.197 Y2.500 Z-0.071 F4
G1 X0.194 Y2.502 Z-0.071 F4
G1 X0.192 Y2.504 Z-0.071 F4
G1 X0.190 Y2.507 Z-0.071 F4
G1 X0.190 Y2.510 Z-0.071 F4
G1 X0.190 Y2.513 Z-0.071 F4
G1 X0.192 Y2.516 Z-0.071 F4
G1 X0.194 Y2.518 Z-0.071 F4
G1 X0.197 Y2.520 Z-0.071 F4
G1 X0.200 Y2.520 Z-0.071 F4
G1 X0.203 Y2.520 Z-0.071 F4
G1 X0.206 Y2.518 Z-0.071 F4
G1 X0.208 Y2.516 Z-0.071 F4
G1 X0.210 Y2.513 Z-0.071 F4
G1 X0.210 Y2.510 Z-0.071 F4
G1 Z0.07874 F1.96850

G0 X5.79035 Y2.51000
G1 Z0.00709 F1.96850
G1 F3.93701
G1 X5.790 Y2.507 Z0.007 F4
G1 X5.788 Y2.504 Z0.007 F4
G1 X5.786 Y2.502 Z0.007 F4
G1 X5.783 Y2.500 Z0.007 F4
G1 X5.780 Y2.500 Z0.007 F4
G1 X5.777 Y2.500 Z0.007 F4
G1 X5.774 Y2.502 Z0.007 F4
G1 X5.772 Y2.504 Z0.007 F4
G1 X5.770 Y2.507 Z0.007 F4
G1 X5.770 Y2.510 Z0.007 F4
G1 X5.770 Y2.513 Z0.007 F4
G1 X5.772 Y2.516 Z0.007 F4
G1 X5.774 Y2.518 Z0.007 F4
G1 X5.777 Y2.520 Z0.007 F4
G1 X5.780 Y2.520 Z0.007 F4
G1 X5.783 Y2.520 Z0.007 F4
G1 X5.786 Y2.518 Z0.007 F4
G1 X5.788 Y2.516 Z0.007 F4
G1 X5.790 Y2.513 Z0.007 F4
G1 X5.790 Y2.510 Z0.007 F4
G1 X5.790 Y2.507 F4
G1 X5.788 Y2.504 F4
G1 X5.786 Y2.502 F4
G1 X5.783 Y2.500 F4
G1 X5.780 Y2.500 F4
G1 X5.777 Y2.500 F4
G1 X5.774 Y2.502 F4
G1 X5.772 Y2.504 F4
G1 X5.770 Y2.507 F4
G1 X5.770 Y2.510 F4
G1 X5.770 Y2.513 F4
G1 X5.772 Y2.516 F4
G1 X5.774 Y2.518 F4
G1 X5.777 Y2.520 F4
G1 X5.780 Y2.520 F4
G1 X5.783 Y2.520 F4
G1 X5.786 Y2.518 F4
G1 X5.788 Y2.516 F4
G1 X5.790 Y2.513 F4
G1 X5.790 Y2.510 F4
G1 X5.790 Y2.507 Z-0.007 F4
G1 X5.788 Y2.504 Z-0.007 F4
G1 X5.786 Y2.502 Z-0.007 F4
G1 X5.783 Y2.500 Z-0.007 F4
G1 X5.780 Y2.500 Z-0.007 F4
G1 X5.777 Y2.500 Z-0.007 F4
G1 X5.774 Y2.502 Z-0.007 F4
G1 X5.772 Y2.504 Z-0.007 F4
G1 X5.770 Y2.507 Z-0.007 F4
G1 X5.770 Y2.510 Z-0.007 F4
G1 X5.770 Y2.513 Z-0.007 F4
G1 X5.772 Y2.516 Z-0.007 F4
G1 X5.774 Y2.518 Z-0.007 F4
G1 X5.777 Y2.520 Z-0.007 F4
G1 X5.780 Y2.520 Z-0.007 F4
G1 X5.783 Y2.520 Z-0.007 F4
G1 X5.786 Y2.518 Z-0.007 F4
G1 X5.788 Y2.516 Z-0.007 F4
G1 X5.790 Y2.513 Z-0.007 F4
G1 X5.790 Y2.510 Z-0.007 F4
G1 X5.790 Y2.507 Z-0.014 F4
G1 X5.788 Y2.504 Z-0.014 F4
G1 X5.786 Y2.502 Z-0.014 F4
G1 X5.783 Y2.500 Z-0.014 F4
G1 X5.780 Y2.500 Z-0.014 F4
G1 X5.777 Y2.500 Z-0.014 F4
G1 X5.774 Y2.502 Z-0.014 F4
G1 X5.772 Y2.504 Z-0.014 F4
G1 X5.770 Y2.507 Z-0.014 F4
G1 X5.770 Y2.510 Z-0.014 F4
G1 X5.770 Y2.513 Z-0.014 F4
G1 X5.772 Y2.516 Z-0.014 F4
G1 X5.774 Y2.518 Z-0.014 F4
G1 X5.777 Y2.520 Z-0.014 F4
G1 X5.780 Y2.520 Z-0.014 F4
G1 X5.783 Y2.520 Z-0.014 F4
G1 X5.786 Y2.518 Z-0.014 F4
G1 X5.788 Y2.516 Z-0.014 F4
G1 X5.790 Y2.513 Z-0.014 F4
G1 X5.790 Y2.510 Z-0.014 F4
G1 X5.790 Y2.507 Z-0.021 F4
G1 X5.788 Y2.504 Z-0.021 F4
G1 X5.786 Y2.502 Z-0.021 F4
G1 X5.783 Y2.500 Z-0.021 F4
G1 X5.780 Y2.500 Z-0.021 F4
G1 X5.777 Y2.500 Z-0.021 F4
G1 X5.774 Y2.502 Z-0.021 F4
G1 X5.772 Y2.504 Z-0.021 F4
G1 X5.770 Y2.507 Z-0.021 F4
G1 X5.770 Y2.510 Z-0.021 F4
G1 X5.770 Y2.513 Z-0.021 F4
G1 X5.772 Y2.516 Z-0.021 F4
G1 X5.774 Y2.518 Z-0.021 F4
G1 X5.777 Y2.520 Z-0.021 F4
G1 X5.780 Y2.520 Z-0.021 F4
G1 X5.783 Y2.520 Z-0.021 F4
G1 X5.786 Y2.518 Z-0.021 F4
G1 X5.788 Y2.516 Z-0.021 F4
G1 X5.790 Y2.513 Z-0.021 F4
G1 X5.790 Y2.510 Z-0.021 F4
G1 X5.790 Y2.507 Z-0.028 F4
G1 X5.788 Y2.504 Z-0.028 F4
G1 X5.786 Y2.502 Z-0.028 F4
G1 X5.783 Y2.500 Z-0.028 F4
G1 X5.780 Y2.500 Z-0.028 F4
G1 X5.777 Y2.500 Z-0.028 F4
G1 X5.774 Y2.502 Z-0.028 F4
G1 X5.772 Y2.504 Z-0.028 F4
G1 X5.770 Y2.507 Z-0.028 F4
G1 X5.770 Y2.510 Z-0.028 F4
G1 X5.770 Y2.513 Z-0.028 F4
G1 X5.772 Y2.516 Z-0.028 F4
G1 X5.774 Y2.518 Z-0.028 F4
G1 X5.777 Y2.520 Z-0.028 F4
G1 X5.780 Y2.520 Z-0.028 F4
G1 X5.783 Y2.520 Z-0.028 F4
G1 X5.786 Y2.518 Z-0.028 F4
G1 X5.788 Y2.516 Z-0.028 F4
G1 X5.790 Y2.513 Z-0.028 F4
G1 X5.790 Y2.510 Z-0.028 F4
G1 X5.790 Y2.507 Z-0.035 F4
G1 X5.788 Y2.504 Z-0.035 F4
G1 X5.786 Y2.502 Z-0.035 F4
G1 X5.783 Y2.500 Z-0.035 F4
G1 X5.780 Y2.500 Z-0.035 F4
G1 X5.777 Y2.500 Z-0.035 F4
G1 X5.774 Y2.502 Z-0.035 F4
G1 X5.772 Y2.504 Z-0.035 F4
G1 X5.770 Y2.507 Z-0.035 F4
G1 X5.770 Y2.510 Z-0.035 F4
G1 X5.770 Y2.513 Z-0.035 F4
G1 X5.772 Y2.516 Z-0.035 F4
G1 X5.774 Y2.518 Z-0.035 F4
G1 X5.777 Y2.520 Z-0.035 F4
G1 X5.780 Y2.520 Z-0.035 F4
G1 X5.783 Y2.520 Z-0.035 F4
G1 X5.786 Y2.518 Z-0.035 F4
G1 X5.788 Y2.516 Z-0.035 F4
G1 X5.790 Y2.513 Z-0.035 F4
G1 X5.790 Y2.510 Z-0.035 F4
G1 X5.790 Y2.507 Z-0.043 F4
G1 X5.788 Y2.504 Z-0.043 F4
G1 X5.786 Y2.502 Z-0.043 F4
G1 X5.783 Y2.500 Z-0.043 F4
G1 X5.780 Y2.500 Z-0.043 F4
G1 X5.777 Y2.500 Z-0.043 F4
G1 X5.774 Y2.502 Z-0.043 F4
G1 X5.772 Y2.504 Z-0.043 F4
G1 X5.770 Y2.507 Z-0.043 F4
G1 X5.770 Y2.510 Z-0.043 F4
G1 X5.770 Y2.513 Z-0.043 F4
G1 X5.772 Y2.516 Z-0.043 F4
G1 X5.774 Y2.518 Z-0.043 F4
G1 X5.777 Y2.520 Z-0.043 F4
G1 X5.780 Y2.520 Z-0.043 F4
G1 X5.783 Y2.520 Z-0.043 F4
G1 X5.786 Y2.518 Z-0.043 F4
G1 X5.788 Y2.516 Z-0.043 F4
G1 X5.790 Y2.513 Z-0.043 F4
G1 X5.790 Y2.510 Z-0.043 F4
G1 X5.790 Y2.507 Z-0.050 F4
G1 X5.788 Y2.504 Z-0.050 F4
G1 X5.786 Y2.502 Z-0.050 F4
G1 X5.783 Y2.500 Z-0.050 F4
G1 X5.780 Y2.500 Z-0.050 F4
G1 X5.777 Y2.500 Z-0.050 F4
G1 X5.774 Y2.502 Z-0.050 F4
G1 X5.772 Y2.504 Z-0.050 F4
G1 X5.770 Y2.507 Z-0.050 F4
G1 X5.770 Y2.510 Z-0.050 F4
G1 X5.770 Y2.513 Z-0.050 F4
G1 X5.772 Y2.516 Z-0.050 F4
G1 X5.774 Y2.518 Z-0.050 F4
G1 X5.777 Y2.520 Z-0.050 F4
G1 X5.780 Y2.520 Z-0.050 F4
G1 X5.783 Y2.520 Z-0.050 F4
G1 X5.786 Y2.518 Z-0.050 F4
G1 X5.788 Y2.516 Z-0.050 F4
G1 X5.790 Y2.513 Z-0.050 F4
G1 X5.790 Y2.510 Z-0.050 F4
G1 X5.790 Y2.507 Z-0.057 F4
G1 X5.788 Y2.504 Z-0.057 F4
G1 X5.786 Y2.502 Z-0.057 F4
G1 X5.783 Y2.500 Z-0.057 F4
G1 X5.780 Y2.500 Z-0.057 F4
G1 X5.777 Y2.500 Z-0.057 F4
G1 X5.774 Y2.502 Z-0.057 F4
G1 X5.772 Y2.504 Z-0.057 F4
G1 X5.770 Y2.507 Z-0.057 F4
G1 X5.770 Y2.510 Z-0.057 F4
G1 X5.770 Y2.513 Z-0.057 F4
G1 X5.772 Y2.516 Z-0.057 F4
G1 X5.774 Y2.518 Z-0.057 F4
G1 X5.777 Y2.520 Z-0.057 F4
G1 X5.780 Y2.520 Z-0.057 F4
G1 X5.783 Y2.520 Z-0.057 F4
G1 X5.786 Y2.518 Z-0.057 F4
G1 X5.788 Y2.516 Z-0.057 F4
G1 X5.790 Y2.513 Z-0.057 F4
G1 X5.790 Y2.510 Z-0.057 F4
G1 X5.790 Y2.507 Z-0.064 F4
G1 X5.788 Y2.504 Z-0.064 F4
G1 X5.786 Y2.502 Z-0.064 F4
G1 X5.783 Y2.500 Z-0.064 F4
G1 X5.780 Y2.500 Z-0.064 F4
G1 X5.777 Y2.500 Z-0.064 F4
G1 X5.774 Y2.502 Z-0.064 F4
G1 X5.772 Y2.504 Z-0.064 F4
G1 X5.770 Y2.507 Z-0.064 F4
G1 X5.770 Y2.510 Z-0.064 F4
G1 X5.770 Y2.513 Z-0.064 F4
G1 X5.772 Y2.516 Z-0.064 F4
G1 X5.774 Y2.518 Z-0.064 F4
G1 X5.777 Y2.520 Z-0.064 F4
G1 X5.780 Y2.520 Z-0.064 F4
G1 X5.783 Y2.520 Z-0.064 F4
G1 X5.786 Y2.518 Z-0.064 F4
G1 X5.788 Y2.516 Z-0.064 F4
G1 X5.790 Y2.513 Z-0.064 F4
G1 X5.790 Y2.510 Z-0.064 F4
G1 X5.790 Y2.507 Z-0.071 F4
G1 X5.788 Y2.504 Z-0.071 F4
G1 X5.786 Y2.502 Z-0.071 F4
G1 X5.783 Y2.500 Z-0.071 F4
G1 X5.780 Y2.500 Z-0.071 F4
G1 X5.777 Y2.500 Z-0.071 F4
G1 X5.774 Y2.502 Z-0.071 F4
G1 X5.772 Y2.504 Z-0.071 F4
G1 X5.770 Y2.507 Z-0.071 F4
G1 X5.770 Y2.510 Z-0.071 F4
G1 X5.770 Y2.513 Z-0.071 F4
G1 X5.772 Y2.516 Z-0.071 F4
G1 X5.774 Y2.518 Z-0.071 F4
G1 X5.777 Y2.520 Z-0.071 F4
G1 X5.780 Y2.520 Z-0.071 F4
G1 X5.783 Y2.520 Z-0.071 F4
G1 X5.786 Y2.518 Z-0.071 F4
G1 X5.788 Y2.516 Z-0.071 F4
G1 X5.790 Y2.513 Z-0.071 F4
G1 X5.790 Y2.510 Z-0.071 F4
G1 Z0.07874 F1.96850

G0 X5.79035 Y0.59000
G1 Z0.00709 F1.96850
G1 F3.93701
G1 X5.790 Y0.587 Z0.007 F4
G1 X5.788 Y0.584 Z0.007 F4
G1 X5.786 Y0.582 Z0.007 F4
G1 X5.783 Y0.580 Z0.007 F4
G1 X5.780 Y0.580 Z0.007 F4
G1 X5.777 Y0.580 Z0.007 F4
G1 X5.774 Y0.582 Z0.007 F4
G1 X5.772 Y0.584 Z0.007 F4
G1 X5.770 Y0.587 Z0.007 F4
G1 X5.770 Y0.590 Z0.007 F4
G1 X5.770 Y0.593 Z0.007 F4
G1 X5.772 Y0.596 Z0.007 F4
G1 X5.774 Y0.598 Z0.007 F4
G1 X5.777 Y0.600 Z0.007 F4
G1 X5.780 Y0.600 Z0.007 F4
G1 X5.783 Y0.600 Z0.007 F4
G1 X5.786 Y0.598 Z0.007 F4
G1 X5.788 Y0.596 Z0.007 F4
G1 X5.790 Y0.593 Z0.007 F4
G1 X5.790 Y0.590 Z0.007 F4
G1 X5.790 Y0.587 F4
G1 X5.788 Y0.584 F4
G1 X5.786 Y0.582 F4
G1 X5.783 Y0.580 F4
G1 X5.780 Y0.580 F4
G1 X5.777 Y0.580 F4
G1 X5.774 Y0.582 F4
G1 X5.772 Y0.584 F4
G1 X5.770 Y0.587 F4
G1 X5.770 Y0.590 F4
G1 X5.770 Y0.593 F4
G1 X5.772 Y0.596 F4
G1 X5.774 Y0.598 F4
G1 X5.777 Y0.600 F4
G1 X5.780 Y0.600 F4
G1 X5.783 Y0.600 F4
G1 X5.786 Y0.598 F4
G1 X5.788 Y0.596 F4
G1 X5.790 Y0.593 F4
G1 X5.790 Y0.590 F4
G1 X5.790 Y0.587 Z-0.007 F4
G1 X5.788 Y0.584 Z-0.007 F4
G1 X5.786 Y0.582 Z-0.007 F4
G1 X5.783 Y0.580 Z-0.007 F4
G1 X5.780 Y0.580 Z-0.007 F4
G1 X5.777 Y0.580 Z-0.007 F4
G1 X5.774 Y0.582 Z-0.007 F4
G1 X5.772 Y0.584 Z-0.007 F4
G1 X5.770 Y0.587 Z-0.007 F4
G1 X5.770 Y0.590 Z-0.007 F4
G1 X5.770 Y0.593 Z-0.007 F4
G1 X5.772 Y0.596 Z-0.007 F4
G1 X5.774 Y0.598 Z-0.007 F4
G1 X5.777 Y0.600 Z-0.007 F4
G1 X5.780 Y0.600 Z-0.007 F4
G1 X5.783 Y0.600 Z-0.007 F4
G1 X5.786 Y0.598 Z-0.007 F4
G1 X5.788 Y0.596 Z-0.007 F4
G1 X5.790 Y0.593 Z-0.007 F4
G1 X5.790 Y0.590 Z-0.007 F4
G1 X5.790 Y0.587 Z-0.014 F4
G1 X5.788 Y0.584 Z-0.014 F4
G1 X5.786 Y0.582 Z-0.014 F4
G1 X5.783 Y0.580 Z-0.014 F4
G1 X5.780 Y0.580 Z-0.014 F4
G1 X5.777 Y0.580 Z-0.014 F4
G1 X5.774 Y0.582 Z-0.014 F4
G1 X5.772 Y0.584 Z-0.014 F4
G1 X5.770 Y0.587 Z-0.014 F4
G1 X5.770 Y0.590 Z-0.014 F4
G1 X5.770 Y0.593 Z-0.014 F4
G1 X5.772 Y0.596 Z-0.014 F4
G1 X5.774 Y0.598 Z-0.014 F4
G1 X5.777 Y0.600 Z-0.014 F4
G1 X5.780 Y0.600 Z-0.014 F4
G1 X5.783 Y0.600 Z-0.014 F4
G1 X5.786 Y0.598 Z-0.014 F4
G1 X5.788 Y0.596 Z-0.014 F4
G1 X5.790 Y0.593 Z-0.014 F4
G1 X5.790 Y0.590 Z-0.014 F4
G1 X5.790 Y0.587 Z-0.021 F4
G1 X5.788 Y0.584 Z-0.021 F4
G1 X5.786 Y0.582 Z-0.021 F4
G1 X5.783 Y0.580 Z-0.021 F4
G1 X5.780 Y0.580 Z-0.021 F4
G1 X5.777 Y0.580 Z-0.021 F4
G1 X5.774 Y0.582 Z-0.021 F4
G1 X5.772 Y0.584 Z-0.021 F4
G1 X5.770 Y0.587 Z-0.021 F4
G1 X5.770 Y0.590 Z-0.021 F4
G1 X5.770 Y0.593 Z-0.021 F4
G1 X5.772 Y0.596 Z-0.021 F4
G1 X5.774 Y0.598 Z-0.021 F4
G1 X5.777 Y0.600 Z-0.021 F4
G1 X5.780 Y0.600 Z-0.021 F4
G1 X5.783 Y0.600 Z-0.021 F4
G1 X5.786 Y0.598 Z-0.021 F4
G1 X5.788 Y0.596 Z-0.021 F4
G1 X5.790 Y0.593 Z-0.021 F4
G1 X5.790 Y0.590 Z-0.021 F4
G1 X5.790 Y0.587 Z-0.028 F4
G1 X5.788 Y0.584 Z-0.028 F4
G1 X5.786 Y0.582 Z-0.028 F4
G1 X5.783 Y0.580 Z-0.028 F4
G1 X5.780 Y0.580 Z-0.028 F4
G1 X5.777 Y0.580 Z-0.028 F4
G1 X5.774 Y0.582 Z-0.028 F4
G1 X5.772 Y0.584 Z-0.028 F4
G1 X5.770 Y0.587 Z-0.028 F4
G1 X5.770 Y0.590 Z-0.028 F4
G1 X5.770 Y0.593 Z-0.028 F4
G1 X5.772 Y0.596 Z-0.028 F4
G1 X5.774 Y0.598 Z-0.028 F4
G1 X5.777 Y0.600 Z-0.028 F4
G1 X5.780 Y0.600 Z-0.028 F4
G1 X5.783 Y0.600 Z-0.028 F4
G1 X5.786 Y0.598 Z-0.028 F4
G1 X5.788 Y0.596 Z-0.028 F4
G1 X5.790 Y0.593 Z-0.028 F4
G1 X5.790 Y0.590 Z-0.028 F4
G1 X5.790 Y0.587 Z-0.035 F4
G1 X5.788 Y0.584 Z-0.035 F4
G1 X5.786 Y0.582 Z-0.035 F4
G1 X5.783 Y0.580 Z-0.035 F4
G1 X5.780 Y0.580 Z-0.035 F4
G1 X5.777 Y0.580 Z-0.035 F4
G1 X5.774 Y0.582 Z-0.035 F4
G1 X5.772 Y0.584 Z-0.035 F4
G1 X5.770 Y0.587 Z-0.035 F4
G1 X5.770 Y0.590 Z-0.035 F4
G1 X5.770 Y0.593 Z-0.035 F4
G1 X5.772 Y0.596 Z-0.035 F4
G1 X5.774 Y0.598 Z-0.035 F4
G1 X5.777 Y0.600 Z-0.035 F4
G1 X5.780 Y0.600 Z-0.035 F4
G1 X5.783 Y0.600 Z-0.035 F4
G1 X5.786 Y0.598 Z-0.035 F4
G1 X5.788 Y0.596 Z-0.035 F4
G1 X5.790 Y0.593 Z-0.035 F4
G1 X5.790 Y0.590 Z-0.035 F4
G1 X5.790 Y0.587 Z-0.043 F4
G1 X5.788 Y0.584 Z-0.043 F4
G1 X5.786 Y0.582 Z-0.043 F4
G1 X5.783 Y0.580 Z-0.043 F4
G1 X5.780 Y0.580 Z-0.043 F4
G1 X5.777 Y0.580 Z-0.043 F4
G1 X5.774 Y0.582 Z-0.043 F4
G1 X5.772 Y0.584 Z-0.043 F4
G1 X5.770 Y0.587 Z-0.043 F4
G1 X5.770 Y0.590 Z-0.043 F4
G1 X5.770 Y0.593 Z-0.043 F4
G1 X5.772 Y0.596 Z-0.043 F4
G1 X5.774 Y0.598 Z-0.043 F4
G1 X5.777 Y0.600 Z-0.043 F4
G1 X5.780 Y0.600 Z-0.043 F4
G1 X5.783 Y0.600 Z-0.043 F4
G1 X5.786 Y0.598 Z-0.043 F4
G1 X5.788 Y0.596 Z-0.043 F4
G1 X5.790 Y0.593 Z-0.043 F4
G1 X5.790 Y0.590 Z-0.043 F4
G1 X5.790 Y0.587 Z-0.050 F4
G1 X5.788 Y0.584 Z-0.050 F4
G1 X5.786 Y0.582 Z-0.050 F4
G1 X5.783 Y0.580 Z-0.050 F4
G1 X5.780 Y0.580 Z-0.050 F4
G1 X5.777 Y0.580 Z-0.050 F4
G1 X5.774 Y0.582 Z-0.050 F4
G1 X5.772 Y0.584 Z-0.050 F4
G1 X5.770 Y0.587 Z-0.050 F4
G1 X5.770 Y0.590 Z-0.050 F4
G1 X5.770 Y0.593 Z-0.050 F4
G1 X5.772 Y0.596 Z-0.050 F4
G1 X5.774 Y0.598 Z-0.050 F4
G1 X5.777 Y0.600 Z-0.050 F4
G1 X5.780 Y0.600 Z-0.050 F4
G1 X5.783 Y0.600 Z-0.050 F4
G1 X5.786 Y0.598 Z-0.050 F4
G1 X5.788 Y0.596 Z-0.050 F4
G1 X5.790 Y0.593 Z-0.050 F4
G1 X5.790 Y0.590 Z-0.050 F4
G1 X5.790 Y0.587 Z-0.057 F4
G1 X5.788 Y0.584 Z-0.057 F4
G1 X5.786 Y0.582 Z-0.057 F4
G1 X5.783 Y0.580 Z-0.057 F4
G1 X5.780 Y0.580 Z-0.057 F4
G1 X5.777 Y0.580 Z-0.057 F4
G1 X5.774 Y0.582 Z-0.057 F4
G1 X5.772 Y0.584 Z-0.057 F4
G1 X5.770 Y0.587 Z-0.057 F4
G1 X5.770 Y0.590 Z-0.057 F4
G1 X5.770 Y0.593 Z-0.057 F4
G1 X5.772 Y0.596 Z-0.057 F4
G1 X5.774 Y0.598 Z-0.057 F4
G1 X5.777 Y0.600 Z-0.057 F4
G1 X5.780 Y0.600 Z-0.057 F4
G1 X5.783 Y0.600 Z-0.057 F4
G1 X5.786 Y0.598 Z-0.057 F4
G1 X5.788 Y0.596 Z-0.057 F4
G1 X5.790 Y0.593 Z-0.057 F4
G1 X5.790 Y0.590 Z-0.057 F4
G1 X5.790 Y0.587 Z-0.064 F4
G1 X5.788 Y0.584 Z-0.064 F4
G1 X5.786 Y0.582 Z-0.064 F4
G1 X5.783 Y0.580 Z-0.064 F4
G1 X5.780 Y0.580 Z-0.064 F4
G1 X5.777 Y0.580 Z-0.064 F4
G1 X5.774 Y0.582 Z-0.064 F4
G1 X5.772 Y0.584 Z-0.064 F4
G1 X5.770 Y0.587 Z-0.064 F4
G1 X5.770 Y0.590 Z-0.064 F4
G1 X5.770 Y0.593 Z-0.064 F4
G1 X5.772 Y0.596 Z-0.064 F4
G1 X5.774 Y0.598 Z-0.064 F4
G1 X5.777 Y0.600 Z-0.064 F4
G1 X5.780 Y0.600 Z-0.064 F4
G1 X5.783 Y0.600 Z-0.064 F4
G1 X5.786 Y0.598 Z-0.064 F4
G1 X5.788 Y0.596 Z-0.064 F4
G1 X5.790 Y0.593 Z-0.064 F4
G1 X5.790 Y0.590 Z-0.064 F4
G1 X5.790 Y0.587 Z-0.071 F4
G1 X5.788 Y0.584 Z-0.071 F4
G1 X5.786 Y0.582 Z-0.071 F4
G1 X5.783 Y0.580 Z-0.071 F4
G1 X5.780 Y0.580 Z-0.071 F4
G1 X5.777 Y0.580 Z-0.071 F4
G1 X5.774 Y0.582 Z-0.071 F4
G1 X5.772 Y0.584 Z-0.071 F4
G1 X5.770 Y0.587 Z-0.071 F4
G1 X5.770 Y0.590 Z-0.071 F4
G1 X5.770 Y0.593 Z-0.071 F4
G1 X5.772 Y0.596 Z-0.071 F4
G1 X5.774 Y0.598 Z-0.071 F4
G1 X5.777 Y0.600 Z-0.071 F4
G1 X5.780 Y0.600 Z-0.071 F4
G1 X5.783 Y0.600 Z-0.071 F4
G1 X5.786 Y0.598 Z-0.071 F4
G1 X5.788 Y0.596 Z-0.071 F4
G1 X5.790 Y0.593 Z-0.071 F4
G1 X5.790 Y0.590 Z-0.071 F4
G1 Z0.07874 F1.96850

G00 Z0.393701 ( All done -- retract )

M5      (Spindle off.)
G04 P1.000000
M9      (Coolant off.)
M2      (Program end.)

