( pcb2gcode 2.5.0 )
( Software-independent Gcode )

G94 ( Inches per minute feed rate. )
G21 ( Units == MM. )

G90 ( Absolute coordinates. )
G00 S10000 ( RPM spindle speed. )
G64 P0.00040 ( set maximum deviation from commanded toolpath )
G01 F100.0001 ( Feedrate. )


G00 Z10.0000 (Retract to tool change height)
T1
M5      (Spindle stop.)
(MSG, Change tool bit to cutter diameter 0.12500in)
M6      (Tool change.)
M0      (Temporary machine stop.)
M3 ( Spindle on clockwise. )
G00 Z2.0000 ( retract )

G00 X153.4719 Y14.8306 ( rapid move to begin. )
G01 Z-0.4501 F49.9999 ( plunge. )
G01 F100.0001
G01 X153.4719 Y15.1414
G01 X153.3743 Y16.1326
G01 X153.3515 Y16.2867
G01 X153.3136 Y16.4379
G01 X153.0243 Y17.3909
G01 X152.9055 Y17.6784
G01 X152.4358 Y18.5565
G01 X152.3558 Y18.6903
G01 X152.2631 Y18.8153
G01 X151.6314 Y19.5852
G01 X151.5267 Y19.7007
G01 X151.4112 Y19.8051
G01 X150.6416 Y20.4371
G01 X150.5163 Y20.5298
G01 X150.3827 Y20.6098
G01 X149.5044 Y21.0795
G01 X149.2169 Y21.1983
G01 X148.2639 Y21.4874
G01 X148.1127 Y21.5252
G01 X147.9588 Y21.5483
G01 X146.9677 Y21.6459
G01 X146.8120 Y21.6535
G01 X145.2390 Y21.6535
G01 X145.1005 Y21.6672
G01 X145.0424 Y21.6847
G01 X144.9890 Y21.7134
G01 X144.9421 Y21.7518
G01 X144.9034 Y21.7988
G01 X144.8747 Y21.8524
G01 X144.8572 Y21.9105
G01 X144.8435 Y22.0490
G01 X144.8435 Y56.6910
G01 X144.8572 Y56.8295
G01 X144.8747 Y56.8876
G01 X144.9034 Y56.9412
G01 X144.9421 Y56.9879
G01 X144.9890 Y57.0266
G01 X145.0424 Y57.0553
G01 X145.1005 Y57.0728
G01 X145.2390 Y57.0865
G01 X146.8120 Y57.0865
G01 X146.9677 Y57.0941
G01 X147.9586 Y57.1917
G01 X148.1127 Y57.2145
G01 X148.2639 Y57.2524
G01 X149.2169 Y57.5414
G01 X149.5044 Y57.6605
G01 X150.3827 Y58.1299
G01 X150.5163 Y58.2102
G01 X150.6416 Y58.3029
G01 X151.4112 Y58.9346
G01 X151.5267 Y59.0393
G01 X151.6314 Y59.1548
G01 X152.2631 Y59.9244
G01 X152.3558 Y60.0497
G01 X152.4358 Y60.1833
G01 X152.9055 Y61.0616
G01 X153.0243 Y61.3491
G01 X153.3136 Y62.3021
G01 X153.3515 Y62.4533
G01 X153.3743 Y62.6074
G01 X153.4719 Y63.5983
G01 X153.4719 Y63.9094
G01 X153.3743 Y64.9006
G01 X153.3515 Y65.0547
G01 X153.3136 Y65.2059
G01 X153.0243 Y66.1589
G01 X152.9055 Y66.4464
G01 X152.4358 Y67.3245
G01 X152.3558 Y67.4583
G01 X152.2631 Y67.5833
G01 X151.6314 Y68.3532
G01 X151.5267 Y68.4687
G01 X151.4112 Y68.5731
G01 X150.6416 Y69.2051
G01 X150.5163 Y69.2978
G01 X150.3827 Y69.3778
G01 X149.5044 Y69.8472
G01 X149.2169 Y69.9663
G01 X148.2639 Y70.2556
G01 X148.1127 Y70.2932
G01 X147.9588 Y70.3163
G01 X146.9677 Y70.4139
G01 X146.8120 Y70.4215
G01 X145.2390 Y70.4215
G01 X145.1005 Y70.4352
G01 X145.0424 Y70.4527
G01 X144.9888 Y70.4814
G01 X144.9421 Y70.5198
G01 X144.9034 Y70.5668
G01 X144.8747 Y70.6204
G01 X144.8572 Y70.6785
G01 X144.8435 Y70.8170
G01 X144.8435 Y76.2000
G01 X144.8359 Y76.3554
G01 X144.7871 Y76.8510
G01 X144.7643 Y77.0052
G01 X144.7264 Y77.1563
G01 X144.5819 Y77.6328
G01 X144.4628 Y77.9203
G01 X144.2281 Y78.3595
G01 X144.1478 Y78.4931
G01 X144.0551 Y78.6183
G01 X143.7391 Y79.0031
G01 X143.5191 Y79.2231
G01 X143.1343 Y79.5391
G01 X143.0091 Y79.6318
G01 X142.8755 Y79.7121
G01 X142.4363 Y79.9468
G01 X142.1488 Y80.0656
G01 X141.6726 Y80.2104
G01 X141.5214 Y80.2483
G01 X141.3673 Y80.2711
G01 X140.8717 Y80.3199
G01 X140.7160 Y80.3275
G01 X11.1760 Y80.3275
G01 X11.0203 Y80.3199
G01 X10.5247 Y80.2711
G01 X10.2197 Y80.2104
G01 X9.7432 Y80.0656
G01 X9.4557 Y79.9468
G01 X9.0165 Y79.7121
G01 X8.8829 Y79.6318
G01 X8.7577 Y79.5391
G01 X8.3729 Y79.2231
G01 X8.1529 Y79.0031
G01 X7.8369 Y78.6183
G01 X7.7442 Y78.4931
G01 X7.6639 Y78.3595
G01 X7.4292 Y77.9203
G01 X7.3104 Y77.6328
G01 X7.1656 Y77.1563
G01 X7.1049 Y76.8513
G01 X7.0561 Y76.3557
G01 X7.0485 Y76.2000
G01 X7.0485 Y70.8170
G01 X7.0348 Y70.6785
G01 X7.0173 Y70.6204
G01 X6.9886 Y70.5668
G01 X6.9502 Y70.5198
G01 X6.9032 Y70.4814
G01 X6.8496 Y70.4527
G01 X6.7915 Y70.4352
G01 X6.6530 Y70.4215
G01 X5.0800 Y70.4215
G01 X4.9246 Y70.4139
G01 X3.9334 Y70.3163
G01 X3.7793 Y70.2935
G01 X3.6281 Y70.2556
G01 X2.6751 Y69.9663
G01 X2.3876 Y69.8472
G01 X1.5095 Y69.3778
G01 X1.3757 Y69.2978
G01 X1.2507 Y69.2051
G01 X0.4808 Y68.5731
G01 X0.3655 Y68.4687
G01 X0.2609 Y68.3532
G01 X-0.3711 Y67.5833
G01 X-0.4638 Y67.4583
G01 X-0.5438 Y67.3245
G01 X-1.0132 Y66.4464
G01 X-1.1323 Y66.1589
G01 X-1.4214 Y65.2059
G01 X-1.4595 Y65.0547
G01 X-1.4823 Y64.9006
G01 X-1.5799 Y63.9094
G01 X-1.5799 Y63.5983
G01 X-1.4823 Y62.6074
G01 X-1.4595 Y62.4533
G01 X-1.4214 Y62.3021
G01 X-1.1323 Y61.3491
G01 X-1.0132 Y61.0616
G01 X-0.5438 Y60.1833
G01 X-0.4638 Y60.0497
G01 X-0.3711 Y59.9244
G01 X0.2609 Y59.1548
G01 X0.3655 Y59.0393
G01 X0.4808 Y58.9346
G01 X1.2507 Y58.3029
G01 X1.3757 Y58.2102
G01 X1.5095 Y58.1299
G01 X2.3876 Y57.6605
G01 X2.6751 Y57.5414
G01 X3.6281 Y57.2524
G01 X3.7793 Y57.2145
G01 X3.9334 Y57.1917
G01 X4.9246 Y57.0941
G01 X5.0800 Y57.0865
G01 X6.6530 Y57.0865
G01 X6.7915 Y57.0728
G01 X6.8496 Y57.0553
G01 X6.9032 Y57.0266
G01 X6.9502 Y56.9879
G01 X6.9886 Y56.9412
G01 X7.0173 Y56.8876
G01 X7.0348 Y56.8295
G01 X7.0485 Y56.6910
G01 X7.0485 Y22.0490
G01 X7.0348 Y21.9105
G01 X7.0173 Y21.8524
G01 X6.9886 Y21.7988
G01 X6.9502 Y21.7518
G01 X6.9032 Y21.7134
G01 X6.8496 Y21.6847
G01 X6.7915 Y21.6672
G01 X6.6530 Y21.6535
G01 X5.0800 Y21.6535
G01 X4.9246 Y21.6459
G01 X3.9334 Y21.5483
G01 X3.7793 Y21.5255
G01 X3.6281 Y21.4874
G01 X2.6751 Y21.1983
G01 X2.3876 Y21.0795
G01 X1.5095 Y20.6098
G01 X1.3757 Y20.5298
G01 X1.2507 Y20.4371
G01 X0.4808 Y19.8051
G01 X0.3655 Y19.7007
G01 X0.2609 Y19.5852
G01 X-0.3711 Y18.8153
G01 X-0.4638 Y18.6903
G01 X-0.5438 Y18.5565
G01 X-1.0132 Y17.6784
G01 X-1.1323 Y17.3909
G01 X-1.4214 Y16.4379
G01 X-1.4595 Y16.2867
G01 X-1.4823 Y16.1326
G01 X-1.5799 Y15.1414
G01 X-1.5799 Y14.8306
G01 X-1.4823 Y13.8394
G01 X-1.4595 Y13.6853
G01 X-1.4214 Y13.5341
G01 X-1.1323 Y12.5811
G01 X-1.0132 Y12.2936
G01 X-0.5438 Y11.4153
G01 X-0.4638 Y11.2817
G01 X-0.3711 Y11.1564
G01 X0.2609 Y10.3868
G01 X0.3655 Y10.2713
G01 X0.4808 Y10.1666
G01 X1.2507 Y9.5349
G01 X1.3757 Y9.4422
G01 X1.5095 Y9.3619
G01 X2.3876 Y8.8925
G01 X2.6751 Y8.7737
G01 X3.6281 Y8.4844
G01 X3.7793 Y8.4465
G01 X3.9334 Y8.4237
G01 X4.9246 Y8.3261
G01 X5.0800 Y8.3185
G01 X6.6530 Y8.3185
G01 X6.7915 Y8.3048
G01 X6.8496 Y8.2873
G01 X6.9032 Y8.2586
G01 X6.9502 Y8.2199
G01 X6.9886 Y8.1730
G01 X7.0173 Y8.1196
G01 X7.0348 Y8.0615
G01 X7.0485 Y7.9230
G01 X7.0485 Y2.5400
G01 X7.0561 Y2.3843
G01 X7.1049 Y1.8887
G01 X7.1277 Y1.7346
G01 X7.1656 Y1.5834
G01 X7.3104 Y1.1072
G01 X7.4292 Y0.8197
G01 X7.6639 Y0.3805
G01 X7.7442 Y0.2469
G01 X7.8369 Y0.1217
G01 X8.1529 Y-0.2631
G01 X8.3729 Y-0.4831
G01 X8.7577 Y-0.7991
G01 X8.8829 Y-0.8918
G01 X9.0165 Y-0.9721
G01 X9.4557 Y-1.2068
G01 X9.7432 Y-1.3259
G01 X10.2197 Y-1.4704
G01 X10.3708 Y-1.5083
G01 X10.5250 Y-1.5311
G01 X11.0206 Y-1.5799
G01 X11.1760 Y-1.5875
G01 X140.7160 Y-1.5875
G01 X140.8714 Y-1.5799
G01 X141.3673 Y-1.5311
G01 X141.5212 Y-1.5083
G01 X141.6726 Y-1.4704
G01 X142.1488 Y-1.3259
G01 X142.4363 Y-1.2068
G01 X142.8755 Y-0.9721
G01 X143.0091 Y-0.8918
G01 X143.1343 Y-0.7991
G01 X143.5191 Y-0.4831
G01 X143.7391 Y-0.2631
G01 X144.0551 Y0.1217
G01 X144.1478 Y0.2469
G01 X144.2281 Y0.3805
G01 X144.4628 Y0.8197
G01 X144.5819 Y1.1072
G01 X144.7264 Y1.5834
G01 X144.7643 Y1.7348
G01 X144.7871 Y1.8890
G01 X144.8359 Y2.3846
G01 X144.8435 Y2.5400
G01 X144.8435 Y7.9230
G01 X144.8572 Y8.0615
G01 X144.8747 Y8.1196
G01 X144.9034 Y8.1730
G01 X144.9421 Y8.2199
G01 X144.9890 Y8.2586
G01 X145.0424 Y8.2873
G01 X145.1005 Y8.3048
G01 X145.2390 Y8.3185
G01 X146.8120 Y8.3185
G01 X146.9677 Y8.3261
G01 X147.9586 Y8.4237
G01 X148.1127 Y8.4465
G01 X148.2639 Y8.4844
G01 X149.2169 Y8.7737
G01 X149.5044 Y8.8925
G01 X150.3827 Y9.3619
G01 X150.5163 Y9.4422
G01 X150.6416 Y9.5349
G01 X151.4112 Y10.1666
G01 X151.5267 Y10.2713
G01 X151.6314 Y10.3868
G01 X152.2631 Y11.1564
G01 X152.3558 Y11.2817
G01 X152.4358 Y11.4153
G01 X152.9055 Y12.2936
G01 X153.0243 Y12.5811
G01 X153.3136 Y13.5341
G01 X153.3515 Y13.6853
G01 X153.3743 Y13.8394
G01 X153.4719 Y14.8306
G01 Z-0.8999 F49.9999 ( plunge. )
G01 F100.0001
G01 X153.4719 Y15.1414
G01 X153.3743 Y16.1326
G01 X153.3515 Y16.2867
G01 X153.3136 Y16.4379
G01 X153.0243 Y17.3909
G01 X152.9055 Y17.6784
G01 X152.4358 Y18.5565
G01 X152.3558 Y18.6903
G01 X152.2631 Y18.8153
G01 X151.6314 Y19.5852
G01 X151.5267 Y19.7007
G01 X151.4112 Y19.8051
G01 X150.6416 Y20.4371
G01 X150.5163 Y20.5298
G01 X150.3827 Y20.6098
G01 X149.5044 Y21.0795
G01 X149.2169 Y21.1983
G01 X148.2639 Y21.4874
G01 X148.1127 Y21.5252
G01 X147.9588 Y21.5483
G01 X146.9677 Y21.6459
G01 X146.8120 Y21.6535
G01 X145.2390 Y21.6535
G01 X145.1005 Y21.6672
G01 X145.0424 Y21.6847
G01 X144.9890 Y21.7134
G01 X144.9421 Y21.7518
G01 X144.9034 Y21.7988
G01 X144.8747 Y21.8524
G01 X144.8572 Y21.9105
G01 X144.8435 Y22.0490
G01 X144.8435 Y56.6910
G01 X144.8572 Y56.8295
G01 X144.8747 Y56.8876
G01 X144.9034 Y56.9412
G01 X144.9421 Y56.9879
G01 X144.9890 Y57.0266
G01 X145.0424 Y57.0553
G01 X145.1005 Y57.0728
G01 X145.2390 Y57.0865
G01 X146.8120 Y57.0865
G01 X146.9677 Y57.0941
G01 X147.9586 Y57.1917
G01 X148.1127 Y57.2145
G01 X148.2639 Y57.2524
G01 X149.2169 Y57.5414
G01 X149.5044 Y57.6605
G01 X150.3827 Y58.1299
G01 X150.5163 Y58.2102
G01 X150.6416 Y58.3029
G01 X151.4112 Y58.9346
G01 X151.5267 Y59.0393
G01 X151.6314 Y59.1548
G01 X152.2631 Y59.9244
G01 X152.3558 Y60.0497
G01 X152.4358 Y60.1833
G01 X152.9055 Y61.0616
G01 X153.0243 Y61.3491
G01 X153.3136 Y62.3021
G01 X153.3515 Y62.4533
G01 X153.3743 Y62.6074
G01 X153.4719 Y63.5983
G01 X153.4719 Y63.9094
G01 X153.3743 Y64.9006
G01 X153.3515 Y65.0547
G01 X153.3136 Y65.2059
G01 X153.0243 Y66.1589
G01 X152.9055 Y66.4464
G01 X152.4358 Y67.3245
G01 X152.3558 Y67.4583
G01 X152.2631 Y67.5833
G01 X151.6314 Y68.3532
G01 X151.5267 Y68.4687
G01 X151.4112 Y68.5731
G01 X150.6416 Y69.2051
G01 X150.5163 Y69.2978
G01 X150.3827 Y69.3778
G01 X149.5044 Y69.8472
G01 X149.2169 Y69.9663
G01 X148.2639 Y70.2556
G01 X148.1127 Y70.2932
G01 X147.9588 Y70.3163
G01 X146.9677 Y70.4139
G01 X146.8120 Y70.4215
G01 X145.2390 Y70.4215
G01 X145.1005 Y70.4352
G01 X145.0424 Y70.4527
G01 X144.9888 Y70.4814
G01 X144.9421 Y70.5198
G01 X144.9034 Y70.5668
G01 X144.8747 Y70.6204
G01 X144.8572 Y70.6785
G01 X144.8435 Y70.8170
G01 X144.8435 Y76.2000
G01 X144.8359 Y76.3554
G01 X144.7871 Y76.8510
G01 X144.7643 Y77.0052
G01 X144.7264 Y77.1563
G01 X144.5819 Y77.6328
G01 X144.4628 Y77.9203
G01 X144.2281 Y78.3595
G01 X144.1478 Y78.4931
G01 X144.0551 Y78.6183
G01 X143.7391 Y79.0031
G01 X143.5191 Y79.2231
G01 X143.1343 Y79.5391
G01 X143.0091 Y79.6318
G01 X142.8755 Y79.7121
G01 X142.4363 Y79.9468
G01 X142.1488 Y80.0656
G01 X141.6726 Y80.2104
G01 X141.5214 Y80.2483
G01 X141.3673 Y80.2711
G01 X140.8717 Y80.3199
G01 X140.7160 Y80.3275
G01 X11.1760 Y80.3275
G01 X11.0203 Y80.3199
G01 X10.5247 Y80.2711
G01 X10.2197 Y80.2104
G01 X9.7432 Y80.0656
G01 X9.4557 Y79.9468
G01 X9.0165 Y79.7121
G01 X8.8829 Y79.6318
G01 X8.7577 Y79.5391
G01 X8.3729 Y79.2231
G01 X8.1529 Y79.0031
G01 X7.8369 Y78.6183
G01 X7.7442 Y78.4931
G01 X7.6639 Y78.3595
G01 X7.4292 Y77.9203
G01 X7.3104 Y77.6328
G01 X7.1656 Y77.1563
G01 X7.1049 Y76.8513
G01 X7.0561 Y76.3557
G01 X7.0485 Y76.2000
G01 X7.0485 Y70.8170
G01 X7.0348 Y70.6785
G01 X7.0173 Y70.6204
G01 X6.9886 Y70.5668
G01 X6.9502 Y70.5198
G01 X6.9032 Y70.4814
G01 X6.8496 Y70.4527
G01 X6.7915 Y70.4352
G01 X6.6530 Y70.4215
G01 X5.0800 Y70.4215
G01 X4.9246 Y70.4139
G01 X3.9334 Y70.3163
G01 X3.7793 Y70.2935
G01 X3.6281 Y70.2556
G01 X2.6751 Y69.9663
G01 X2.3876 Y69.8472
G01 X1.5095 Y69.3778
G01 X1.3757 Y69.2978
G01 X1.2507 Y69.2051
G01 X0.4808 Y68.5731
G01 X0.3655 Y68.4687
G01 X0.2609 Y68.3532
G01 X-0.3711 Y67.5833
G01 X-0.4638 Y67.4583
G01 X-0.5438 Y67.3245
G01 X-1.0132 Y66.4464
G01 X-1.1323 Y66.1589
G01 X-1.4214 Y65.2059
G01 X-1.4595 Y65.0547
G01 X-1.4823 Y64.9006
G01 X-1.5799 Y63.9094
G01 X-1.5799 Y63.5983
G01 X-1.4823 Y62.6074
G01 X-1.4595 Y62.4533
G01 X-1.4214 Y62.3021
G01 X-1.1323 Y61.3491
G01 X-1.0132 Y61.0616
G01 X-0.5438 Y60.1833
G01 X-0.4638 Y60.0497
G01 X-0.3711 Y59.9244
G01 X0.2609 Y59.1548
G01 X0.3655 Y59.0393
G01 X0.4808 Y58.9346
G01 X1.2507 Y58.3029
G01 X1.3757 Y58.2102
G01 X1.5095 Y58.1299
G01 X2.3876 Y57.6605
G01 X2.6751 Y57.5414
G01 X3.6281 Y57.2524
G01 X3.7793 Y57.2145
G01 X3.9334 Y57.1917
G01 X4.9246 Y57.0941
G01 X5.0800 Y57.0865
G01 X6.6530 Y57.0865
G01 X6.7915 Y57.0728
G01 X6.8496 Y57.0553
G01 X6.9032 Y57.0266
G01 X6.9502 Y56.9879
G01 X6.9886 Y56.9412
G01 X7.0173 Y56.8876
G01 X7.0348 Y56.8295
G01 X7.0485 Y56.6910
G01 X7.0485 Y22.0490
G01 X7.0348 Y21.9105
G01 X7.0173 Y21.8524
G01 X6.9886 Y21.7988
G01 X6.9502 Y21.7518
G01 X6.9032 Y21.7134
G01 X6.8496 Y21.6847
G01 X6.7915 Y21.6672
G01 X6.6530 Y21.6535
G01 X5.0800 Y21.6535
G01 X4.9246 Y21.6459
G01 X3.9334 Y21.5483
G01 X3.7793 Y21.5255
G01 X3.6281 Y21.4874
G01 X2.6751 Y21.1983
G01 X2.3876 Y21.0795
G01 X1.5095 Y20.6098
G01 X1.3757 Y20.5298
G01 X1.2507 Y20.4371
G01 X0.4808 Y19.8051
G01 X0.3655 Y19.7007
G01 X0.2609 Y19.5852
G01 X-0.3711 Y18.8153
G01 X-0.4638 Y18.6903
G01 X-0.5438 Y18.5565
G01 X-1.0132 Y17.6784
G01 X-1.1323 Y17.3909
G01 X-1.4214 Y16.4379
G01 X-1.4595 Y16.2867
G01 X-1.4823 Y16.1326
G01 X-1.5799 Y15.1414
G01 X-1.5799 Y14.8306
G01 X-1.4823 Y13.8394
G01 X-1.4595 Y13.6853
G01 X-1.4214 Y13.5341
G01 X-1.1323 Y12.5811
G01 X-1.0132 Y12.2936
G01 X-0.5438 Y11.4153
G01 X-0.4638 Y11.2817
G01 X-0.3711 Y11.1564
G01 X0.2609 Y10.3868
G01 X0.3655 Y10.2713
G01 X0.4808 Y10.1666
G01 X1.2507 Y9.5349
G01 X1.3757 Y9.4422
G01 X1.5095 Y9.3619
G01 X2.3876 Y8.8925
G01 X2.6751 Y8.7737
G01 X3.6281 Y8.4844
G01 X3.7793 Y8.4465
G01 X3.9334 Y8.4237
G01 X4.9246 Y8.3261
G01 X5.0800 Y8.3185
G01 X6.6530 Y8.3185
G01 X6.7915 Y8.3048
G01 X6.8496 Y8.2873
G01 X6.9032 Y8.2586
G01 X6.9502 Y8.2199
G01 X6.9886 Y8.1730
G01 X7.0173 Y8.1196
G01 X7.0348 Y8.0615
G01 X7.0485 Y7.9230
G01 X7.0485 Y2.5400
G01 X7.0561 Y2.3843
G01 X7.1049 Y1.8887
G01 X7.1277 Y1.7346
G01 X7.1656 Y1.5834
G01 X7.3104 Y1.1072
G01 X7.4292 Y0.8197
G01 X7.6639 Y0.3805
G01 X7.7442 Y0.2469
G01 X7.8369 Y0.1217
G01 X8.1529 Y-0.2631
G01 X8.3729 Y-0.4831
G01 X8.7577 Y-0.7991
G01 X8.8829 Y-0.8918
G01 X9.0165 Y-0.9721
G01 X9.4557 Y-1.2068
G01 X9.7432 Y-1.3259
G01 X10.2197 Y-1.4704
G01 X10.3708 Y-1.5083
G01 X10.5250 Y-1.5311
G01 X11.0206 Y-1.5799
G01 X11.1760 Y-1.5875
G01 X140.7160 Y-1.5875
G01 X140.8714 Y-1.5799
G01 X141.3673 Y-1.5311
G01 X141.5212 Y-1.5083
G01 X141.6726 Y-1.4704
G01 X142.1488 Y-1.3259
G01 X142.4363 Y-1.2068
G01 X142.8755 Y-0.9721
G01 X143.0091 Y-0.8918
G01 X143.1343 Y-0.7991
G01 X143.5191 Y-0.4831
G01 X143.7391 Y-0.2631
G01 X144.0551 Y0.1217
G01 X144.1478 Y0.2469
G01 X144.2281 Y0.3805
G01 X144.4628 Y0.8197
G01 X144.5819 Y1.1072
G01 X144.7264 Y1.5834
G01 X144.7643 Y1.7348
G01 X144.7871 Y1.8890
G01 X144.8359 Y2.3846
G01 X144.8435 Y2.5400
G01 X144.8435 Y7.9230
G01 X144.8572 Y8.0615
G01 X144.8747 Y8.1196
G01 X144.9034 Y8.1730
G01 X144.9421 Y8.2199
G01 X144.9890 Y8.2586
G01 X145.0424 Y8.2873
G01 X145.1005 Y8.3048
G01 X145.2390 Y8.3185
G01 X146.8120 Y8.3185
G01 X146.9677 Y8.3261
G01 X147.9586 Y8.4237
G01 X148.1127 Y8.4465
G01 X148.2639 Y8.4844
G01 X149.2169 Y8.7737
G01 X149.5044 Y8.8925
G01 X150.3827 Y9.3619
G01 X150.5163 Y9.4422
G01 X150.6416 Y9.5349
G01 X151.4112 Y10.1666
G01 X151.5267 Y10.2713
G01 X151.6314 Y10.3868
G01 X152.2631 Y11.1564
G01 X152.3558 Y11.2817
G01 X152.4358 Y11.4153
G01 X152.9055 Y12.2936
G01 X153.0243 Y12.5811
G01 X153.3136 Y13.5341
G01 X153.3515 Y13.6853
G01 X153.3743 Y13.8394
G01 X153.4719 Y14.8306
G01 Z-1.3500 F49.9999 ( plunge. )
G01 F100.0001
G01 X153.4719 Y15.1414
G01 X153.3743 Y16.1326
G01 X153.3515 Y16.2867
G01 X153.3136 Y16.4379
G01 X153.0243 Y17.3909
G01 X152.9055 Y17.6784
G01 X152.4358 Y18.5565
G01 X152.3558 Y18.6903
G01 X152.2631 Y18.8153
G01 X151.6314 Y19.5852
G01 X151.5267 Y19.7007
G01 X151.4112 Y19.8051
G01 X150.6416 Y20.4371
G01 X150.5163 Y20.5298
G01 X150.3827 Y20.6098
G01 X149.5044 Y21.0795
G01 X149.2169 Y21.1983
G01 X148.2639 Y21.4874
G01 X148.1127 Y21.5252
G01 X147.9588 Y21.5483
G01 X146.9677 Y21.6459
G01 X146.8120 Y21.6535
G01 X145.2390 Y21.6535
G01 X145.1005 Y21.6672
G01 X145.0424 Y21.6847
G01 X144.9890 Y21.7134
G01 X144.9421 Y21.7518
G01 X144.9034 Y21.7988
G01 X144.8747 Y21.8524
G01 X144.8572 Y21.9105
G01 X144.8435 Y22.0490
G01 X144.8435 Y56.6910
G01 X144.8572 Y56.8295
G01 X144.8747 Y56.8876
G01 X144.9034 Y56.9412
G01 X144.9421 Y56.9879
G01 X144.9890 Y57.0266
G01 X145.0424 Y57.0553
G01 X145.1005 Y57.0728
G01 X145.2390 Y57.0865
G01 X146.8120 Y57.0865
G01 X146.9677 Y57.0941
G01 X147.9586 Y57.1917
G01 X148.1127 Y57.2145
G01 X148.2639 Y57.2524
G01 X149.2169 Y57.5414
G01 X149.5044 Y57.6605
G01 X150.3827 Y58.1299
G01 X150.5163 Y58.2102
G01 X150.6416 Y58.3029
G01 X151.4112 Y58.9346
G01 X151.5267 Y59.0393
G01 X151.6314 Y59.1548
G01 X152.2631 Y59.9244
G01 X152.3558 Y60.0497
G01 X152.4358 Y60.1833
G01 X152.9055 Y61.0616
G01 X153.0243 Y61.3491
G01 X153.3136 Y62.3021
G01 X153.3515 Y62.4533
G01 X153.3743 Y62.6074
G01 X153.4719 Y63.5983
G01 X153.4719 Y63.9094
G01 X153.3743 Y64.9006
G01 X153.3515 Y65.0547
G01 X153.3136 Y65.2059
G01 X153.0243 Y66.1589
G01 X152.9055 Y66.4464
G01 X152.4358 Y67.3245
G01 X152.3558 Y67.4583
G01 X152.2631 Y67.5833
G01 X151.6314 Y68.3532
G01 X151.5267 Y68.4687
G01 X151.4112 Y68.5731
G01 X150.6416 Y69.2051
G01 X150.5163 Y69.2978
G01 X150.3827 Y69.3778
G01 X149.5044 Y69.8472
G01 X149.2169 Y69.9663
G01 X148.2639 Y70.2556
G01 X148.1127 Y70.2932
G01 X147.9588 Y70.3163
G01 X146.9677 Y70.4139
G01 X146.8120 Y70.4215
G01 X145.2390 Y70.4215
G01 X145.1005 Y70.4352
G01 X145.0424 Y70.4527
G01 X144.9888 Y70.4814
G01 X144.9421 Y70.5198
G01 X144.9034 Y70.5668
G01 X144.8747 Y70.6204
G01 X144.8572 Y70.6785
G01 X144.8435 Y70.8170
G01 X144.8435 Y76.2000
G01 X144.8359 Y76.3554
G01 X144.7871 Y76.8510
G01 X144.7643 Y77.0052
G01 X144.7264 Y77.1563
G01 X144.5819 Y77.6328
G01 X144.4628 Y77.9203
G01 X144.2281 Y78.3595
G01 X144.1478 Y78.4931
G01 X144.0551 Y78.6183
G01 X143.7391 Y79.0031
G01 X143.5191 Y79.2231
G01 X143.1343 Y79.5391
G01 X143.0091 Y79.6318
G01 X142.8755 Y79.7121
G01 X142.4363 Y79.9468
G01 X142.1488 Y80.0656
G01 X141.6726 Y80.2104
G01 X141.5214 Y80.2483
G01 X141.3673 Y80.2711
G01 X140.8717 Y80.3199
G01 X140.7160 Y80.3275
G01 X11.1760 Y80.3275
G01 X11.0203 Y80.3199
G01 X10.5247 Y80.2711
G01 X10.2197 Y80.2104
G01 X9.7432 Y80.0656
G01 X9.4557 Y79.9468
G01 X9.0165 Y79.7121
G01 X8.8829 Y79.6318
G01 X8.7577 Y79.5391
G01 X8.3729 Y79.2231
G01 X8.1529 Y79.0031
G01 X7.8369 Y78.6183
G01 X7.7442 Y78.4931
G01 X7.6639 Y78.3595
G01 X7.4292 Y77.9203
G01 X7.3104 Y77.6328
G01 X7.1656 Y77.1563
G01 X7.1049 Y76.8513
G01 X7.0561 Y76.3557
G01 X7.0485 Y76.2000
G01 X7.0485 Y70.8170
G01 X7.0348 Y70.6785
G01 X7.0173 Y70.6204
G01 X6.9886 Y70.5668
G01 X6.9502 Y70.5198
G01 X6.9032 Y70.4814
G01 X6.8496 Y70.4527
G01 X6.7915 Y70.4352
G01 X6.6530 Y70.4215
G01 X5.0800 Y70.4215
G01 X4.9246 Y70.4139
G01 X3.9334 Y70.3163
G01 X3.7793 Y70.2935
G01 X3.6281 Y70.2556
G01 X2.6751 Y69.9663
G01 X2.3876 Y69.8472
G01 X1.5095 Y69.3778
G01 X1.3757 Y69.2978
G01 X1.2507 Y69.2051
G01 X0.4808 Y68.5731
G01 X0.3655 Y68.4687
G01 X0.2609 Y68.3532
G01 X-0.3711 Y67.5833
G01 X-0.4638 Y67.4583
G01 X-0.5438 Y67.3245
G01 X-1.0132 Y66.4464
G01 X-1.1323 Y66.1589
G01 X-1.4214 Y65.2059
G01 X-1.4595 Y65.0547
G01 X-1.4823 Y64.9006
G01 X-1.5799 Y63.9094
G01 X-1.5799 Y63.5983
G01 X-1.4823 Y62.6074
G01 X-1.4595 Y62.4533
G01 X-1.4214 Y62.3021
G01 X-1.1323 Y61.3491
G01 X-1.0132 Y61.0616
G01 X-0.5438 Y60.1833
G01 X-0.4638 Y60.0497
G01 X-0.3711 Y59.9244
G01 X0.2609 Y59.1548
G01 X0.3655 Y59.0393
G01 X0.4808 Y58.9346
G01 X1.2507 Y58.3029
G01 X1.3757 Y58.2102
G01 X1.5095 Y58.1299
G01 X2.3876 Y57.6605
G01 X2.6751 Y57.5414
G01 X3.6281 Y57.2524
G01 X3.7793 Y57.2145
G01 X3.9334 Y57.1917
G01 X4.9246 Y57.0941
G01 X5.0800 Y57.0865
G01 X6.6530 Y57.0865
G01 X6.7915 Y57.0728
G01 X6.8496 Y57.0553
G01 X6.9032 Y57.0266
G01 X6.9502 Y56.9879
G01 X6.9886 Y56.9412
G01 X7.0173 Y56.8876
G01 X7.0348 Y56.8295
G01 X7.0485 Y56.6910
G01 X7.0485 Y22.0490
G01 X7.0348 Y21.9105
G01 X7.0173 Y21.8524
G01 X6.9886 Y21.7988
G01 X6.9502 Y21.7518
G01 X6.9032 Y21.7134
G01 X6.8496 Y21.6847
G01 X6.7915 Y21.6672
G01 X6.6530 Y21.6535
G01 X5.0800 Y21.6535
G01 X4.9246 Y21.6459
G01 X3.9334 Y21.5483
G01 X3.7793 Y21.5255
G01 X3.6281 Y21.4874
G01 X2.6751 Y21.1983
G01 X2.3876 Y21.0795
G01 X1.5095 Y20.6098
G01 X1.3757 Y20.5298
G01 X1.2507 Y20.4371
G01 X0.4808 Y19.8051
G01 X0.3655 Y19.7007
G01 X0.2609 Y19.5852
G01 X-0.3711 Y18.8153
G01 X-0.4638 Y18.6903
G01 X-0.5438 Y18.5565
G01 X-1.0132 Y17.6784
G01 X-1.1323 Y17.3909
G01 X-1.4214 Y16.4379
G01 X-1.4595 Y16.2867
G01 X-1.4823 Y16.1326
G01 X-1.5799 Y15.1414
G01 X-1.5799 Y14.8306
G01 X-1.4823 Y13.8394
G01 X-1.4595 Y13.6853
G01 X-1.4214 Y13.5341
G01 X-1.1323 Y12.5811
G01 X-1.0132 Y12.2936
G01 X-0.5438 Y11.4153
G01 X-0.4638 Y11.2817
G01 X-0.3711 Y11.1564
G01 X0.2609 Y10.3868
G01 X0.3655 Y10.2713
G01 X0.4808 Y10.1666
G01 X1.2507 Y9.5349
G01 X1.3757 Y9.4422
G01 X1.5095 Y9.3619
G01 X2.3876 Y8.8925
G01 X2.6751 Y8.7737
G01 X3.6281 Y8.4844
G01 X3.7793 Y8.4465
G01 X3.9334 Y8.4237
G01 X4.9246 Y8.3261
G01 X5.0800 Y8.3185
G01 X6.6530 Y8.3185
G01 X6.7915 Y8.3048
G01 X6.8496 Y8.2873
G01 X6.9032 Y8.2586
G01 X6.9502 Y8.2199
G01 X6.9886 Y8.1730
G01 X7.0173 Y8.1196
G01 X7.0348 Y8.0615
G01 X7.0485 Y7.9230
G01 X7.0485 Y2.5400
G01 X7.0561 Y2.3843
G01 X7.1049 Y1.8887
G01 X7.1277 Y1.7346
G01 X7.1656 Y1.5834
G01 X7.3104 Y1.1072
G01 X7.4292 Y0.8197
G01 X7.6639 Y0.3805
G01 X7.7442 Y0.2469
G01 X7.8369 Y0.1217
G01 X8.1529 Y-0.2631
G01 X8.3729 Y-0.4831
G01 X8.7577 Y-0.7991
G01 X8.8829 Y-0.8918
G01 X9.0165 Y-0.9721
G01 X9.4557 Y-1.2068
G01 X9.7432 Y-1.3259
G01 X10.2197 Y-1.4704
G01 X10.3708 Y-1.5083
G01 X10.5250 Y-1.5311
G01 X11.0206 Y-1.5799
G01 X11.1760 Y-1.5875
G01 X140.7160 Y-1.5875
G01 X140.8714 Y-1.5799
G01 X141.3673 Y-1.5311
G01 X141.5212 Y-1.5083
G01 X141.6726 Y-1.4704
G01 X142.1488 Y-1.3259
G01 X142.4363 Y-1.2068
G01 X142.8755 Y-0.9721
G01 X143.0091 Y-0.8918
G01 X143.1343 Y-0.7991
G01 X143.5191 Y-0.4831
G01 X143.7391 Y-0.2631
G01 X144.0551 Y0.1217
G01 X144.1478 Y0.2469
G01 X144.2281 Y0.3805
G01 X144.4628 Y0.8197
G01 X144.5819 Y1.1072
G01 X144.7264 Y1.5834
G01 X144.7643 Y1.7348
G01 X144.7871 Y1.8890
G01 X144.8359 Y2.3846
G01 X144.8435 Y2.5400
G01 X144.8435 Y7.9230
G01 X144.8572 Y8.0615
G01 X144.8747 Y8.1196
G01 X144.9034 Y8.1730
G01 X144.9421 Y8.2199
G01 X144.9890 Y8.2586
G01 X145.0424 Y8.2873
G01 X145.1005 Y8.3048
G01 X145.2390 Y8.3185
G01 X146.8120 Y8.3185
G01 X146.9677 Y8.3261
G01 X147.9586 Y8.4237
G01 X148.1127 Y8.4465
G01 X148.2639 Y8.4844
G01 X149.2169 Y8.7737
G01 X149.5044 Y8.8925
G01 X150.3827 Y9.3619
G01 X150.5163 Y9.4422
G01 X150.6416 Y9.5349
G01 X151.4112 Y10.1666
G01 X151.5267 Y10.2713
G01 X151.6314 Y10.3868
G01 X152.2631 Y11.1564
G01 X152.3558 Y11.2817
G01 X152.4358 Y11.4153
G01 X152.9055 Y12.2936
G01 X153.0243 Y12.5811
G01 X153.3136 Y13.5341
G01 X153.3515 Y13.6853
G01 X153.3743 Y13.8394
G01 X153.4719 Y14.8306
G01 Z-1.8001 F49.9999 ( plunge. )
G01 F100.0001
G01 X153.4719 Y15.1414
G01 X153.3743 Y16.1326
G01 X153.3515 Y16.2867
G01 X153.3136 Y16.4379
G01 X153.0243 Y17.3909
G01 X152.9055 Y17.6784
G01 X152.4358 Y18.5565
G01 X152.3558 Y18.6903
G01 X152.2631 Y18.8153
G01 X151.6314 Y19.5852
G01 X151.5267 Y19.7007
G01 X151.4112 Y19.8051
G01 X150.6416 Y20.4371
G01 X150.5163 Y20.5298
G01 X150.3827 Y20.6098
G01 X149.5044 Y21.0795
G01 X149.2169 Y21.1983
G01 X148.2639 Y21.4874
G01 X148.1127 Y21.5252
G01 X147.9588 Y21.5483
G01 X146.9677 Y21.6459
G01 X146.8120 Y21.6535
G01 X145.2390 Y21.6535
G01 X145.1005 Y21.6672
G01 X145.0424 Y21.6847
G01 X144.9890 Y21.7134
G01 X144.9421 Y21.7518
G01 X144.9034 Y21.7988
G01 X144.8747 Y21.8524
G01 X144.8572 Y21.9105
G01 X144.8435 Y22.0490
G01 X144.8435 Y56.6910
G01 X144.8572 Y56.8295
G01 X144.8747 Y56.8876
G01 X144.9034 Y56.9412
G01 X144.9421 Y56.9879
G01 X144.9890 Y57.0266
G01 X145.0424 Y57.0553
G01 X145.1005 Y57.0728
G01 X145.2390 Y57.0865
G01 X146.8120 Y57.0865
G01 X146.9677 Y57.0941
G01 X147.9586 Y57.1917
G01 X148.1127 Y57.2145
G01 X148.2639 Y57.2524
G01 X149.2169 Y57.5414
G01 X149.5044 Y57.6605
G01 X150.3827 Y58.1299
G01 X150.5163 Y58.2102
G01 X150.6416 Y58.3029
G01 X151.4112 Y58.9346
G01 X151.5267 Y59.0393
G01 X151.6314 Y59.1548
G01 X152.2631 Y59.9244
G01 X152.3558 Y60.0497
G01 X152.4358 Y60.1833
G01 X152.9055 Y61.0616
G01 X153.0243 Y61.3491
G01 X153.3136 Y62.3021
G01 X153.3515 Y62.4533
G01 X153.3743 Y62.6074
G01 X153.4719 Y63.5983
G01 X153.4719 Y63.9094
G01 X153.3743 Y64.9006
G01 X153.3515 Y65.0547
G01 X153.3136 Y65.2059
G01 X153.0243 Y66.1589
G01 X152.9055 Y66.4464
G01 X152.4358 Y67.3245
G01 X152.3558 Y67.4583
G01 X152.2631 Y67.5833
G01 X151.6314 Y68.3532
G01 X151.5267 Y68.4687
G01 X151.4112 Y68.5731
G01 X150.6416 Y69.2051
G01 X150.5163 Y69.2978
G01 X150.3827 Y69.3778
G01 X149.5044 Y69.8472
G01 X149.2169 Y69.9663
G01 X148.2639 Y70.2556
G01 X148.1127 Y70.2932
G01 X147.9588 Y70.3163
G01 X146.9677 Y70.4139
G01 X146.8120 Y70.4215
G01 X145.2390 Y70.4215
G01 X145.1005 Y70.4352
G01 X145.0424 Y70.4527
G01 X144.9888 Y70.4814
G01 X144.9421 Y70.5198
G01 X144.9034 Y70.5668
G01 X144.8747 Y70.6204
G01 X144.8572 Y70.6785
G01 X144.8435 Y70.8170
G01 X144.8435 Y76.2000
G01 X144.8359 Y76.3554
G01 X144.7871 Y76.8510
G01 X144.7643 Y77.0052
G01 X144.7264 Y77.1563
G01 X144.5819 Y77.6328
G01 X144.4628 Y77.9203
G01 X144.2281 Y78.3595
G01 X144.1478 Y78.4931
G01 X144.0551 Y78.6183
G01 X143.7391 Y79.0031
G01 X143.5191 Y79.2231
G01 X143.1343 Y79.5391
G01 X143.0091 Y79.6318
G01 X142.8755 Y79.7121
G01 X142.4363 Y79.9468
G01 X142.1488 Y80.0656
G01 X141.6726 Y80.2104
G01 X141.5214 Y80.2483
G01 X141.3673 Y80.2711
G01 X140.8717 Y80.3199
G01 X140.7160 Y80.3275
G01 X11.1760 Y80.3275
G01 X11.0203 Y80.3199
G01 X10.5247 Y80.2711
G01 X10.2197 Y80.2104
G01 X9.7432 Y80.0656
G01 X9.4557 Y79.9468
G01 X9.0165 Y79.7121
G01 X8.8829 Y79.6318
G01 X8.7577 Y79.5391
G01 X8.3729 Y79.2231
G01 X8.1529 Y79.0031
G01 X7.8369 Y78.6183
G01 X7.7442 Y78.4931
G01 X7.6639 Y78.3595
G01 X7.4292 Y77.9203
G01 X7.3104 Y77.6328
G01 X7.1656 Y77.1563
G01 X7.1049 Y76.8513
G01 X7.0561 Y76.3557
G01 X7.0485 Y76.2000
G01 X7.0485 Y70.8170
G01 X7.0348 Y70.6785
G01 X7.0173 Y70.6204
G01 X6.9886 Y70.5668
G01 X6.9502 Y70.5198
G01 X6.9032 Y70.4814
G01 X6.8496 Y70.4527
G01 X6.7915 Y70.4352
G01 X6.6530 Y70.4215
G01 X5.0800 Y70.4215
G01 X4.9246 Y70.4139
G01 X3.9334 Y70.3163
G01 X3.7793 Y70.2935
G01 X3.6281 Y70.2556
G01 X2.6751 Y69.9663
G01 X2.3876 Y69.8472
G01 X1.5095 Y69.3778
G01 X1.3757 Y69.2978
G01 X1.2507 Y69.2051
G01 X0.4808 Y68.5731
G01 X0.3655 Y68.4687
G01 X0.2609 Y68.3532
G01 X-0.3711 Y67.5833
G01 X-0.4638 Y67.4583
G01 X-0.5438 Y67.3245
G01 X-1.0132 Y66.4464
G01 X-1.1323 Y66.1589
G01 X-1.4214 Y65.2059
G01 X-1.4595 Y65.0547
G01 X-1.4823 Y64.9006
G01 X-1.5799 Y63.9094
G01 X-1.5799 Y63.5983
G01 X-1.4823 Y62.6074
G01 X-1.4595 Y62.4533
G01 X-1.4214 Y62.3021
G01 X-1.1323 Y61.3491
G01 X-1.0132 Y61.0616
G01 X-0.5438 Y60.1833
G01 X-0.4638 Y60.0497
G01 X-0.3711 Y59.9244
G01 X0.2609 Y59.1548
G01 X0.3655 Y59.0393
G01 X0.4808 Y58.9346
G01 X1.2507 Y58.3029
G01 X1.3757 Y58.2102
G01 X1.5095 Y58.1299
G01 X2.3876 Y57.6605
G01 X2.6751 Y57.5414
G01 X3.6281 Y57.2524
G01 X3.7793 Y57.2145
G01 X3.9334 Y57.1917
G01 X4.9246 Y57.0941
G01 X5.0800 Y57.0865
G01 X6.6530 Y57.0865
G01 X6.7915 Y57.0728
G01 X6.8496 Y57.0553
G01 X6.9032 Y57.0266
G01 X6.9502 Y56.9879
G01 X6.9886 Y56.9412
G01 X7.0173 Y56.8876
G01 X7.0348 Y56.8295
G01 X7.0485 Y56.6910
G01 X7.0485 Y22.0490
G01 X7.0348 Y21.9105
G01 X7.0173 Y21.8524
G01 X6.9886 Y21.7988
G01 X6.9502 Y21.7518
G01 X6.9032 Y21.7134
G01 X6.8496 Y21.6847
G01 X6.7915 Y21.6672
G01 X6.6530 Y21.6535
G01 X5.0800 Y21.6535
G01 X4.9246 Y21.6459
G01 X3.9334 Y21.5483
G01 X3.7793 Y21.5255
G01 X3.6281 Y21.4874
G01 X2.6751 Y21.1983
G01 X2.3876 Y21.0795
G01 X1.5095 Y20.6098
G01 X1.3757 Y20.5298
G01 X1.2507 Y20.4371
G01 X0.4808 Y19.8051
G01 X0.3655 Y19.7007
G01 X0.2609 Y19.5852
G01 X-0.3711 Y18.8153
G01 X-0.4638 Y18.6903
G01 X-0.5438 Y18.5565
G01 X-1.0132 Y17.6784
G01 X-1.1323 Y17.3909
G01 X-1.4214 Y16.4379
G01 X-1.4595 Y16.2867
G01 X-1.4823 Y16.1326
G01 X-1.5799 Y15.1414
G01 X-1.5799 Y14.8306
G01 X-1.4823 Y13.8394
G01 X-1.4595 Y13.6853
G01 X-1.4214 Y13.5341
G01 X-1.1323 Y12.5811
G01 X-1.0132 Y12.2936
G01 X-0.5438 Y11.4153
G01 X-0.4638 Y11.2817
G01 X-0.3711 Y11.1564
G01 X0.2609 Y10.3868
G01 X0.3655 Y10.2713
G01 X0.4808 Y10.1666
G01 X1.2507 Y9.5349
G01 X1.3757 Y9.4422
G01 X1.5095 Y9.3619
G01 X2.3876 Y8.8925
G01 X2.6751 Y8.7737
G01 X3.6281 Y8.4844
G01 X3.7793 Y8.4465
G01 X3.9334 Y8.4237
G01 X4.9246 Y8.3261
G01 X5.0800 Y8.3185
G01 X6.6530 Y8.3185
G01 X6.7915 Y8.3048
G01 X6.8496 Y8.2873
G01 X6.9032 Y8.2586
G01 X6.9502 Y8.2199
G01 X6.9886 Y8.1730
G01 X7.0173 Y8.1196
G01 X7.0348 Y8.0615
G01 X7.0485 Y7.9230
G01 X7.0485 Y2.5400
G01 X7.0561 Y2.3843
G01 X7.1049 Y1.8887
G01 X7.1277 Y1.7346
G01 X7.1656 Y1.5834
G01 X7.3104 Y1.1072
G01 X7.4292 Y0.8197
G01 X7.6639 Y0.3805
G01 X7.7442 Y0.2469
G01 X7.8369 Y0.1217
G01 X8.1529 Y-0.2631
G01 X8.3729 Y-0.4831
G01 X8.7577 Y-0.7991
G01 X8.8829 Y-0.8918
G01 X9.0165 Y-0.9721
G01 X9.4557 Y-1.2068
G01 X9.7432 Y-1.3259
G01 X10.2197 Y-1.4704
G01 X10.3708 Y-1.5083
G01 X10.5250 Y-1.5311
G01 X11.0206 Y-1.5799
G01 X11.1760 Y-1.5875
G01 X140.7160 Y-1.5875
G01 X140.8714 Y-1.5799
G01 X141.3673 Y-1.5311
G01 X141.5212 Y-1.5083
G01 X141.6726 Y-1.4704
G01 X142.1488 Y-1.3259
G01 X142.4363 Y-1.2068
G01 X142.8755 Y-0.9721
G01 X143.0091 Y-0.8918
G01 X143.1343 Y-0.7991
G01 X143.5191 Y-0.4831
G01 X143.7391 Y-0.2631
G01 X144.0551 Y0.1217
G01 X144.1478 Y0.2469
G01 X144.2281 Y0.3805
G01 X144.4628 Y0.8197
G01 X144.5819 Y1.1072
G01 X144.7264 Y1.5834
G01 X144.7643 Y1.7348
G01 X144.7871 Y1.8890
G01 X144.8359 Y2.3846
G01 X144.8435 Y2.5400
G01 X144.8435 Y7.9230
G01 X144.8572 Y8.0615
G01 X144.8747 Y8.1196
G01 X144.9034 Y8.1730
G01 X144.9421 Y8.2199
G01 X144.9890 Y8.2586
G01 X145.0424 Y8.2873
G01 X145.1005 Y8.3048
G01 X145.2390 Y8.3185
G01 X146.8120 Y8.3185
G01 X146.9677 Y8.3261
G01 X147.9586 Y8.4237
G01 X148.1127 Y8.4465
G01 X148.2639 Y8.4844
G01 X149.2169 Y8.7737
G01 X149.5044 Y8.8925
G01 X150.3827 Y9.3619
G01 X150.5163 Y9.4422
G01 X150.6416 Y9.5349
G01 X151.4112 Y10.1666
G01 X151.5267 Y10.2713
G01 X151.6314 Y10.3868
G01 X152.2631 Y11.1564
G01 X152.3558 Y11.2817
G01 X152.4358 Y11.4153
G01 X152.9055 Y12.2936
G01 X153.0243 Y12.5811
G01 X153.3136 Y13.5341
G01 X153.3515 Y13.6853
G01 X153.3743 Y13.8394
G01 X153.4719 Y14.8306

G00 Z10.0000 ( retract )

M5 ( Spindle off. )
M9 ( Coolant off. )
M2 ( Program end. )

