( pcb2gcode 2.5.0 )
( Software-independent Gcode )

G94 ( Inches per minute feed rate. )
G20 ( Units == INCHES. )

G90 ( Absolute coordinates. )
G00 S10000 ( RPM spindle speed. )
G64 P0.00040 ( set maximum deviation from commanded toolpath )
G01 F3.93701 ( Feedrate. )


G00 Z0.39370 (Retract to tool change height)
T1
M5      (Spindle stop.)
G04 P1.00000 (Wait for spindle to stop)
(MSG, Change tool bit to cutter diameter 0.12500in)
M6      (Tool change.)
M0      (Temporary machine stop.)
M3 ( Spindle on clockwise. )
G04 P1.00000 (Wait for spindle to get up to speed)
G04 P0 ( dwell for no time -- G64 should not smooth over this point )
G00 Z0.07874 ( retract )

G00 X6.04220 Y0.58388 ( rapid move to begin. )
G01 Z-0.01772 F1.96850 ( plunge. )
G04 P0 ( dwell for no time -- G64 should not smooth over this point )
G01 F3.93701
G01 X6.04220 Y0.59612
G01 X6.03836 Y0.63514
G01 X6.03746 Y0.64121
G01 X6.03597 Y0.64716
G01 X6.02458 Y0.68468
G01 X6.01990 Y0.69600
G01 X6.00141 Y0.73057
G01 X5.99826 Y0.73584
G01 X5.99461 Y0.74076
G01 X5.96974 Y0.77107
G01 X5.96562 Y0.77562
G01 X5.96107 Y0.77973
G01 X5.93077 Y0.80461
G01 X5.92584 Y0.80826
G01 X5.92058 Y0.81141
G01 X5.88600 Y0.82990
G01 X5.87468 Y0.83458
G01 X5.83716 Y0.84596
G01 X5.83121 Y0.84745
G01 X5.82515 Y0.84836
G01 X5.78613 Y0.85220
G01 X5.78000 Y0.85250
G01 X5.71807 Y0.85250
G01 X5.71262 Y0.85304
G01 X5.71033 Y0.85373
G01 X5.70823 Y0.85486
G01 X5.70638 Y0.85637
G01 X5.70486 Y0.85822
G01 X5.70373 Y0.86033
G01 X5.70304 Y0.86262
G01 X5.70250 Y0.86807
G01 X5.70250 Y2.23193
G01 X5.70304 Y2.23738
G01 X5.70373 Y2.23967
G01 X5.70486 Y2.24178
G01 X5.70638 Y2.24362
G01 X5.70823 Y2.24514
G01 X5.71033 Y2.24627
G01 X5.71262 Y2.24696
G01 X5.71807 Y2.24750
G01 X5.78000 Y2.24750
G01 X5.78613 Y2.24780
G01 X5.82514 Y2.25164
G01 X5.83121 Y2.25254
G01 X5.83716 Y2.25403
G01 X5.87468 Y2.26541
G01 X5.88600 Y2.27010
G01 X5.92058 Y2.28858
G01 X5.92584 Y2.29174
G01 X5.93077 Y2.29539
G01 X5.96107 Y2.32026
G01 X5.96562 Y2.32438
G01 X5.96974 Y2.32893
G01 X5.99461 Y2.35923
G01 X5.99826 Y2.36416
G01 X6.00141 Y2.36942
G01 X6.01990 Y2.40400
G01 X6.02458 Y2.41532
G01 X6.03597 Y2.45284
G01 X6.03746 Y2.45879
G01 X6.03836 Y2.46486
G01 X6.04220 Y2.50387
G01 X6.04220 Y2.51612
G01 X6.03836 Y2.55514
G01 X6.03746 Y2.56121
G01 X6.03597 Y2.56716
G01 X6.02458 Y2.60468
G01 X6.01990 Y2.61600
G01 X6.00141 Y2.65057
G01 X5.99826 Y2.65584
G01 X5.99461 Y2.66076
G01 X5.96974 Y2.69107
G01 X5.96562 Y2.69562
G01 X5.96107 Y2.69973
G01 X5.93077 Y2.72461
G01 X5.92584 Y2.72826
G01 X5.92058 Y2.73141
G01 X5.88600 Y2.74989
G01 X5.87468 Y2.75458
G01 X5.83716 Y2.76597
G01 X5.83121 Y2.76745
G01 X5.82515 Y2.76836
G01 X5.78613 Y2.77220
G01 X5.78000 Y2.77250
G01 X5.71807 Y2.77250
G01 X5.71262 Y2.77304
G01 X5.71033 Y2.77373
G01 X5.70822 Y2.77486
G01 X5.70638 Y2.77637
G01 X5.70486 Y2.77822
G01 X5.70373 Y2.78033
G01 X5.70304 Y2.78262
G01 X5.70250 Y2.78807
G01 X5.70250 Y3.00000
G01 X5.70220 Y3.00612
G01 X5.70028 Y3.02563
G01 X5.69938 Y3.03170
G01 X5.69789 Y3.03765
G01 X5.69220 Y3.05641
G01 X5.68751 Y3.06773
G01 X5.67827 Y3.08502
G01 X5.67511 Y3.09028
G01 X5.67146 Y3.09521
G01 X5.65902 Y3.11036
G01 X5.65036 Y3.11902
G01 X5.63521 Y3.13146
G01 X5.63028 Y3.13511
G01 X5.62502 Y3.13827
G01 X5.60773 Y3.14751
G01 X5.59641 Y3.15219
G01 X5.57766 Y3.15789
G01 X5.57171 Y3.15938
G01 X5.56564 Y3.16028
G01 X5.54613 Y3.16220
G01 X5.54000 Y3.16250
G01 X0.44000 Y3.16250
G01 X0.43387 Y3.16220
G01 X0.41436 Y3.16028
G01 X0.40235 Y3.15789
G01 X0.38359 Y3.15219
G01 X0.37227 Y3.14751
G01 X0.35498 Y3.13827
G01 X0.34972 Y3.13511
G01 X0.34479 Y3.13146
G01 X0.32964 Y3.11902
G01 X0.32098 Y3.11036
G01 X0.30854 Y3.09521
G01 X0.30489 Y3.09028
G01 X0.30173 Y3.08502
G01 X0.29249 Y3.06773
G01 X0.28781 Y3.05641
G01 X0.28211 Y3.03765
G01 X0.27972 Y3.02564
G01 X0.27780 Y3.00613
G01 X0.27750 Y3.00000
G01 X0.27750 Y2.78807
G01 X0.27696 Y2.78262
G01 X0.27627 Y2.78033
G01 X0.27514 Y2.77822
G01 X0.27363 Y2.77637
G01 X0.27178 Y2.77486
G01 X0.26967 Y2.77373
G01 X0.26738 Y2.77304
G01 X0.26193 Y2.77250
G01 X0.20000 Y2.77250
G01 X0.19388 Y2.77220
G01 X0.15486 Y2.76836
G01 X0.14879 Y2.76746
G01 X0.14284 Y2.76597
G01 X0.10532 Y2.75458
G01 X0.09400 Y2.74989
G01 X0.05943 Y2.73141
G01 X0.05416 Y2.72826
G01 X0.04924 Y2.72461
G01 X0.01893 Y2.69973
G01 X0.01439 Y2.69562
G01 X0.01027 Y2.69107
G01 X-0.01461 Y2.66076
G01 X-0.01826 Y2.65584
G01 X-0.02141 Y2.65057
G01 X-0.03989 Y2.61600
G01 X-0.04458 Y2.60468
G01 X-0.05596 Y2.56716
G01 X-0.05746 Y2.56121
G01 X-0.05836 Y2.55514
G01 X-0.06220 Y2.51612
G01 X-0.06220 Y2.50387
G01 X-0.05836 Y2.46486
G01 X-0.05746 Y2.45879
G01 X-0.05596 Y2.45284
G01 X-0.04458 Y2.41532
G01 X-0.03989 Y2.40400
G01 X-0.02141 Y2.36942
G01 X-0.01826 Y2.36416
G01 X-0.01461 Y2.35923
G01 X0.01027 Y2.32893
G01 X0.01439 Y2.32438
G01 X0.01893 Y2.32026
G01 X0.04924 Y2.29539
G01 X0.05416 Y2.29174
G01 X0.05943 Y2.28858
G01 X0.09400 Y2.27010
G01 X0.10532 Y2.26541
G01 X0.14284 Y2.25403
G01 X0.14879 Y2.25254
G01 X0.15486 Y2.25164
G01 X0.19388 Y2.24780
G01 X0.20000 Y2.24750
G01 X0.26193 Y2.24750
G01 X0.26738 Y2.24696
G01 X0.26967 Y2.24627
G01 X0.27178 Y2.24514
G01 X0.27363 Y2.24362
G01 X0.27514 Y2.24178
G01 X0.27627 Y2.23967
G01 X0.27696 Y2.23738
G01 X0.27750 Y2.23193
G01 X0.27750 Y0.86807
G01 X0.27696 Y0.86262
G01 X0.27627 Y0.86033
G01 X0.27514 Y0.85822
G01 X0.27363 Y0.85637
G01 X0.27178 Y0.85486
G01 X0.26967 Y0.85373
G01 X0.26738 Y0.85304
G01 X0.26193 Y0.85250
G01 X0.20000 Y0.85250
G01 X0.19388 Y0.85220
G01 X0.15486 Y0.84836
G01 X0.14879 Y0.84746
G01 X0.14284 Y0.84596
G01 X0.10532 Y0.83458
G01 X0.09400 Y0.82990
G01 X0.05943 Y0.81141
G01 X0.05416 Y0.80826
G01 X0.04924 Y0.80461
G01 X0.01893 Y0.77973
G01 X0.01439 Y0.77562
G01 X0.01027 Y0.77107
G01 X-0.01461 Y0.74076
G01 X-0.01826 Y0.73584
G01 X-0.02141 Y0.73057
G01 X-0.03989 Y0.69600
G01 X-0.04458 Y0.68468
G01 X-0.05596 Y0.64716
G01 X-0.05746 Y0.64121
G01 X-0.05836 Y0.63514
G01 X-0.06220 Y0.59612
G01 X-0.06220 Y0.58388
G01 X-0.05836 Y0.54486
G01 X-0.05746 Y0.53879
G01 X-0.05596 Y0.53284
G01 X-0.04458 Y0.49532
G01 X-0.03989 Y0.48400
G01 X-0.02141 Y0.44942
G01 X-0.01826 Y0.44416
G01 X-0.01461 Y0.43923
G01 X0.01027 Y0.40893
G01 X0.01439 Y0.40438
G01 X0.01893 Y0.40026
G01 X0.04924 Y0.37539
G01 X0.05416 Y0.37174
G01 X0.05943 Y0.36858
G01 X0.09400 Y0.35010
G01 X0.10532 Y0.34542
G01 X0.14284 Y0.33403
G01 X0.14879 Y0.33254
G01 X0.15486 Y0.33164
G01 X0.19388 Y0.32780
G01 X0.20000 Y0.32750
G01 X0.26193 Y0.32750
G01 X0.26738 Y0.32696
G01 X0.26967 Y0.32627
G01 X0.27178 Y0.32514
G01 X0.27363 Y0.32362
G01 X0.27514 Y0.32177
G01 X0.27627 Y0.31967
G01 X0.27696 Y0.31738
G01 X0.27750 Y0.31193
G01 X0.27750 Y0.10000
G01 X0.27780 Y0.09387
G01 X0.27972 Y0.07436
G01 X0.28062 Y0.06829
G01 X0.28211 Y0.06234
G01 X0.28781 Y0.04359
G01 X0.29249 Y0.03227
G01 X0.30173 Y0.01498
G01 X0.30489 Y0.00972
G01 X0.30854 Y0.00479
G01 X0.32098 Y-0.01036
G01 X0.32964 Y-0.01902
G01 X0.34479 Y-0.03146
G01 X0.34972 Y-0.03511
G01 X0.35498 Y-0.03827
G01 X0.37227 Y-0.04751
G01 X0.38359 Y-0.05220
G01 X0.40235 Y-0.05789
G01 X0.40830 Y-0.05938
G01 X0.41437 Y-0.06028
G01 X0.43388 Y-0.06220
G01 X0.44000 Y-0.06250
G01 X5.54000 Y-0.06250
G01 X5.54612 Y-0.06220
G01 X5.56564 Y-0.06028
G01 X5.57170 Y-0.05938
G01 X5.57766 Y-0.05789
G01 X5.59641 Y-0.05220
G01 X5.60773 Y-0.04751
G01 X5.62502 Y-0.03827
G01 X5.63028 Y-0.03511
G01 X5.63521 Y-0.03146
G01 X5.65036 Y-0.01902
G01 X5.65902 Y-0.01036
G01 X5.67146 Y0.00479
G01 X5.67511 Y0.00972
G01 X5.67827 Y0.01498
G01 X5.68751 Y0.03227
G01 X5.69220 Y0.04359
G01 X5.69789 Y0.06234
G01 X5.69938 Y0.06830
G01 X5.70028 Y0.07437
G01 X5.70220 Y0.09388
G01 X5.70250 Y0.10000
G01 X5.70250 Y0.31193
G01 X5.70304 Y0.31738
G01 X5.70373 Y0.31967
G01 X5.70486 Y0.32177
G01 X5.70638 Y0.32362
G01 X5.70823 Y0.32514
G01 X5.71033 Y0.32627
G01 X5.71262 Y0.32696
G01 X5.71807 Y0.32750
G01 X5.78000 Y0.32750
G01 X5.78613 Y0.32780
G01 X5.82514 Y0.33164
G01 X5.83121 Y0.33254
G01 X5.83716 Y0.33403
G01 X5.87468 Y0.34542
G01 X5.88600 Y0.35010
G01 X5.92058 Y0.36858
G01 X5.92584 Y0.37174
G01 X5.93077 Y0.37539
G01 X5.96107 Y0.40026
G01 X5.96562 Y0.40438
G01 X5.96974 Y0.40893
G01 X5.99461 Y0.43923
G01 X5.99826 Y0.44416
G01 X6.00141 Y0.44942
G01 X6.01990 Y0.48400
G01 X6.02458 Y0.49532
G01 X6.03597 Y0.53284
G01 X6.03746 Y0.53879
G01 X6.03836 Y0.54486
G01 X6.04220 Y0.58388
G01 Z-0.03543 F1.96850 ( plunge. )
G04 P0 ( dwell for no time -- G64 should not smooth over this point )
G01 F3.93701
G01 X6.04220 Y0.59612
G01 X6.03836 Y0.63514
G01 X6.03746 Y0.64121
G01 X6.03597 Y0.64716
G01 X6.02458 Y0.68468
G01 X6.01990 Y0.69600
G01 X6.00141 Y0.73057
G01 X5.99826 Y0.73584
G01 X5.99461 Y0.74076
G01 X5.96974 Y0.77107
G01 X5.96562 Y0.77562
G01 X5.96107 Y0.77973
G01 X5.93077 Y0.80461
G01 X5.92584 Y0.80826
G01 X5.92058 Y0.81141
G01 X5.88600 Y0.82990
G01 X5.87468 Y0.83458
G01 X5.83716 Y0.84596
G01 X5.83121 Y0.84745
G01 X5.82515 Y0.84836
G01 X5.78613 Y0.85220
G01 X5.78000 Y0.85250
G01 X5.71807 Y0.85250
G01 X5.71262 Y0.85304
G01 X5.71033 Y0.85373
G01 X5.70823 Y0.85486
G01 X5.70638 Y0.85637
G01 X5.70486 Y0.85822
G01 X5.70373 Y0.86033
G01 X5.70304 Y0.86262
G01 X5.70250 Y0.86807
G01 X5.70250 Y2.23193
G01 X5.70304 Y2.23738
G01 X5.70373 Y2.23967
G01 X5.70486 Y2.24178
G01 X5.70638 Y2.24362
G01 X5.70823 Y2.24514
G01 X5.71033 Y2.24627
G01 X5.71262 Y2.24696
G01 X5.71807 Y2.24750
G01 X5.78000 Y2.24750
G01 X5.78613 Y2.24780
G01 X5.82514 Y2.25164
G01 X5.83121 Y2.25254
G01 X5.83716 Y2.25403
G01 X5.87468 Y2.26541
G01 X5.88600 Y2.27010
G01 X5.92058 Y2.28858
G01 X5.92584 Y2.29174
G01 X5.93077 Y2.29539
G01 X5.96107 Y2.32026
G01 X5.96562 Y2.32438
G01 X5.96974 Y2.32893
G01 X5.99461 Y2.35923
G01 X5.99826 Y2.36416
G01 X6.00141 Y2.36942
G01 X6.01990 Y2.40400
G01 X6.02458 Y2.41532
G01 X6.03597 Y2.45284
G01 X6.03746 Y2.45879
G01 X6.03836 Y2.46486
G01 X6.04220 Y2.50387
G01 X6.04220 Y2.51612
G01 X6.03836 Y2.55514
G01 X6.03746 Y2.56121
G01 X6.03597 Y2.56716
G01 X6.02458 Y2.60468
G01 X6.01990 Y2.61600
G01 X6.00141 Y2.65057
G01 X5.99826 Y2.65584
G01 X5.99461 Y2.66076
G01 X5.96974 Y2.69107
G01 X5.96562 Y2.69562
G01 X5.96107 Y2.69973
G01 X5.93077 Y2.72461
G01 X5.92584 Y2.72826
G01 X5.92058 Y2.73141
G01 X5.88600 Y2.74989
G01 X5.87468 Y2.75458
G01 X5.83716 Y2.76597
G01 X5.83121 Y2.76745
G01 X5.82515 Y2.76836
G01 X5.78613 Y2.77220
G01 X5.78000 Y2.77250
G01 X5.71807 Y2.77250
G01 X5.71262 Y2.77304
G01 X5.71033 Y2.77373
G01 X5.70822 Y2.77486
G01 X5.70638 Y2.77637
G01 X5.70486 Y2.77822
G01 X5.70373 Y2.78033
G01 X5.70304 Y2.78262
G01 X5.70250 Y2.78807
G01 X5.70250 Y3.00000
G01 X5.70220 Y3.00612
G01 X5.70028 Y3.02563
G01 X5.69938 Y3.03170
G01 X5.69789 Y3.03765
G01 X5.69220 Y3.05641
G01 X5.68751 Y3.06773
G01 X5.67827 Y3.08502
G01 X5.67511 Y3.09028
G01 X5.67146 Y3.09521
G01 X5.65902 Y3.11036
G01 X5.65036 Y3.11902
G01 X5.63521 Y3.13146
G01 X5.63028 Y3.13511
G01 X5.62502 Y3.13827
G01 X5.60773 Y3.14751
G01 X5.59641 Y3.15219
G01 X5.57766 Y3.15789
G01 X5.57171 Y3.15938
G01 X5.56564 Y3.16028
G01 X5.54613 Y3.16220
G01 X5.54000 Y3.16250
G01 X0.44000 Y3.16250
G01 X0.43387 Y3.16220
G01 X0.41436 Y3.16028
G01 X0.40235 Y3.15789
G01 X0.38359 Y3.15219
G01 X0.37227 Y3.14751
G01 X0.35498 Y3.13827
G01 X0.34972 Y3.13511
G01 X0.34479 Y3.13146
G01 X0.32964 Y3.11902
G01 X0.32098 Y3.11036
G01 X0.30854 Y3.09521
G01 X0.30489 Y3.09028
G01 X0.30173 Y3.08502
G01 X0.29249 Y3.06773
G01 X0.28781 Y3.05641
G01 X0.28211 Y3.03765
G01 X0.27972 Y3.02564
G01 X0.27780 Y3.00613
G01 X0.27750 Y3.00000
G01 X0.27750 Y2.78807
G01 X0.27696 Y2.78262
G01 X0.27627 Y2.78033
G01 X0.27514 Y2.77822
G01 X0.27363 Y2.77637
G01 X0.27178 Y2.77486
G01 X0.26967 Y2.77373
G01 X0.26738 Y2.77304
G01 X0.26193 Y2.77250
G01 X0.20000 Y2.77250
G01 X0.19388 Y2.77220
G01 X0.15486 Y2.76836
G01 X0.14879 Y2.76746
G01 X0.14284 Y2.76597
G01 X0.10532 Y2.75458
G01 X0.09400 Y2.74989
G01 X0.05943 Y2.73141
G01 X0.05416 Y2.72826
G01 X0.04924 Y2.72461
G01 X0.01893 Y2.69973
G01 X0.01439 Y2.69562
G01 X0.01027 Y2.69107
G01 X-0.01461 Y2.66076
G01 X-0.01826 Y2.65584
G01 X-0.02141 Y2.65057
G01 X-0.03989 Y2.61600
G01 X-0.04458 Y2.60468
G01 X-0.05596 Y2.56716
G01 X-0.05746 Y2.56121
G01 X-0.05836 Y2.55514
G01 X-0.06220 Y2.51612
G01 X-0.06220 Y2.50387
G01 X-0.05836 Y2.46486
G01 X-0.05746 Y2.45879
G01 X-0.05596 Y2.45284
G01 X-0.04458 Y2.41532
G01 X-0.03989 Y2.40400
G01 X-0.02141 Y2.36942
G01 X-0.01826 Y2.36416
G01 X-0.01461 Y2.35923
G01 X0.01027 Y2.32893
G01 X0.01439 Y2.32438
G01 X0.01893 Y2.32026
G01 X0.04924 Y2.29539
G01 X0.05416 Y2.29174
G01 X0.05943 Y2.28858
G01 X0.09400 Y2.27010
G01 X0.10532 Y2.26541
G01 X0.14284 Y2.25403
G01 X0.14879 Y2.25254
G01 X0.15486 Y2.25164
G01 X0.19388 Y2.24780
G01 X0.20000 Y2.24750
G01 X0.26193 Y2.24750
G01 X0.26738 Y2.24696
G01 X0.26967 Y2.24627
G01 X0.27178 Y2.24514
G01 X0.27363 Y2.24362
G01 X0.27514 Y2.24178
G01 X0.27627 Y2.23967
G01 X0.27696 Y2.23738
G01 X0.27750 Y2.23193
G01 X0.27750 Y0.86807
G01 X0.27696 Y0.86262
G01 X0.27627 Y0.86033
G01 X0.27514 Y0.85822
G01 X0.27363 Y0.85637
G01 X0.27178 Y0.85486
G01 X0.26967 Y0.85373
G01 X0.26738 Y0.85304
G01 X0.26193 Y0.85250
G01 X0.20000 Y0.85250
G01 X0.19388 Y0.85220
G01 X0.15486 Y0.84836
G01 X0.14879 Y0.84746
G01 X0.14284 Y0.84596
G01 X0.10532 Y0.83458
G01 X0.09400 Y0.82990
G01 X0.05943 Y0.81141
G01 X0.05416 Y0.80826
G01 X0.04924 Y0.80461
G01 X0.01893 Y0.77973
G01 X0.01439 Y0.77562
G01 X0.01027 Y0.77107
G01 X-0.01461 Y0.74076
G01 X-0.01826 Y0.73584
G01 X-0.02141 Y0.73057
G01 X-0.03989 Y0.69600
G01 X-0.04458 Y0.68468
G01 X-0.05596 Y0.64716
G01 X-0.05746 Y0.64121
G01 X-0.05836 Y0.63514
G01 X-0.06220 Y0.59612
G01 X-0.06220 Y0.58388
G01 X-0.05836 Y0.54486
G01 X-0.05746 Y0.53879
G01 X-0.05596 Y0.53284
G01 X-0.04458 Y0.49532
G01 X-0.03989 Y0.48400
G01 X-0.02141 Y0.44942
G01 X-0.01826 Y0.44416
G01 X-0.01461 Y0.43923
G01 X0.01027 Y0.40893
G01 X0.01439 Y0.40438
G01 X0.01893 Y0.40026
G01 X0.04924 Y0.37539
G01 X0.05416 Y0.37174
G01 X0.05943 Y0.36858
G01 X0.09400 Y0.35010
G01 X0.10532 Y0.34542
G01 X0.14284 Y0.33403
G01 X0.14879 Y0.33254
G01 X0.15486 Y0.33164
G01 X0.19388 Y0.32780
G01 X0.20000 Y0.32750
G01 X0.26193 Y0.32750
G01 X0.26738 Y0.32696
G01 X0.26967 Y0.32627
G01 X0.27178 Y0.32514
G01 X0.27363 Y0.32362
G01 X0.27514 Y0.32177
G01 X0.27627 Y0.31967
G01 X0.27696 Y0.31738
G01 X0.27750 Y0.31193
G01 X0.27750 Y0.10000
G01 X0.27780 Y0.09387
G01 X0.27972 Y0.07436
G01 X0.28062 Y0.06829
G01 X0.28211 Y0.06234
G01 X0.28781 Y0.04359
G01 X0.29249 Y0.03227
G01 X0.30173 Y0.01498
G01 X0.30489 Y0.00972
G01 X0.30854 Y0.00479
G01 X0.32098 Y-0.01036
G01 X0.32964 Y-0.01902
G01 X0.34479 Y-0.03146
G01 X0.34972 Y-0.03511
G01 X0.35498 Y-0.03827
G01 X0.37227 Y-0.04751
G01 X0.38359 Y-0.05220
G01 X0.40235 Y-0.05789
G01 X0.40830 Y-0.05938
G01 X0.41437 Y-0.06028
G01 X0.43388 Y-0.06220
G01 X0.44000 Y-0.06250
G01 X5.54000 Y-0.06250
G01 X5.54612 Y-0.06220
G01 X5.56564 Y-0.06028
G01 X5.57170 Y-0.05938
G01 X5.57766 Y-0.05789
G01 X5.59641 Y-0.05220
G01 X5.60773 Y-0.04751
G01 X5.62502 Y-0.03827
G01 X5.63028 Y-0.03511
G01 X5.63521 Y-0.03146
G01 X5.65036 Y-0.01902
G01 X5.65902 Y-0.01036
G01 X5.67146 Y0.00479
G01 X5.67511 Y0.00972
G01 X5.67827 Y0.01498
G01 X5.68751 Y0.03227
G01 X5.69220 Y0.04359
G01 X5.69789 Y0.06234
G01 X5.69938 Y0.06830
G01 X5.70028 Y0.07437
G01 X5.70220 Y0.09388
G01 X5.70250 Y0.10000
G01 X5.70250 Y0.31193
G01 X5.70304 Y0.31738
G01 X5.70373 Y0.31967
G01 X5.70486 Y0.32177
G01 X5.70638 Y0.32362
G01 X5.70823 Y0.32514
G01 X5.71033 Y0.32627
G01 X5.71262 Y0.32696
G01 X5.71807 Y0.32750
G01 X5.78000 Y0.32750
G01 X5.78613 Y0.32780
G01 X5.82514 Y0.33164
G01 X5.83121 Y0.33254
G01 X5.83716 Y0.33403
G01 X5.87468 Y0.34542
G01 X5.88600 Y0.35010
G01 X5.92058 Y0.36858
G01 X5.92584 Y0.37174
G01 X5.93077 Y0.37539
G01 X5.96107 Y0.40026
G01 X5.96562 Y0.40438
G01 X5.96974 Y0.40893
G01 X5.99461 Y0.43923
G01 X5.99826 Y0.44416
G01 X6.00141 Y0.44942
G01 X6.01990 Y0.48400
G01 X6.02458 Y0.49532
G01 X6.03597 Y0.53284
G01 X6.03746 Y0.53879
G01 X6.03836 Y0.54486
G01 X6.04220 Y0.58388
G01 Z-0.05315 F1.96850 ( plunge. )
G04 P0 ( dwell for no time -- G64 should not smooth over this point )
G01 F3.93701
G01 X6.04220 Y0.59612
G01 X6.03836 Y0.63514
G01 X6.03746 Y0.64121
G01 X6.03597 Y0.64716
G01 X6.02458 Y0.68468
G01 X6.01990 Y0.69600
G01 X6.00141 Y0.73057
G01 X5.99826 Y0.73584
G01 X5.99461 Y0.74076
G01 X5.96974 Y0.77107
G01 X5.96562 Y0.77562
G01 X5.96107 Y0.77973
G01 X5.93077 Y0.80461
G01 X5.92584 Y0.80826
G01 X5.92058 Y0.81141
G01 X5.88600 Y0.82990
G01 X5.87468 Y0.83458
G01 X5.83716 Y0.84596
G01 X5.83121 Y0.84745
G01 X5.82515 Y0.84836
G01 X5.78613 Y0.85220
G01 X5.78000 Y0.85250
G01 X5.71807 Y0.85250
G01 X5.71262 Y0.85304
G01 X5.71033 Y0.85373
G01 X5.70823 Y0.85486
G01 X5.70638 Y0.85637
G01 X5.70486 Y0.85822
G01 X5.70373 Y0.86033
G01 X5.70304 Y0.86262
G01 X5.70250 Y0.86807
G01 X5.70250 Y2.23193
G01 X5.70304 Y2.23738
G01 X5.70373 Y2.23967
G01 X5.70486 Y2.24178
G01 X5.70638 Y2.24362
G01 X5.70823 Y2.24514
G01 X5.71033 Y2.24627
G01 X5.71262 Y2.24696
G01 X5.71807 Y2.24750
G01 X5.78000 Y2.24750
G01 X5.78613 Y2.24780
G01 X5.82514 Y2.25164
G01 X5.83121 Y2.25254
G01 X5.83716 Y2.25403
G01 X5.87468 Y2.26541
G01 X5.88600 Y2.27010
G01 X5.92058 Y2.28858
G01 X5.92584 Y2.29174
G01 X5.93077 Y2.29539
G01 X5.96107 Y2.32026
G01 X5.96562 Y2.32438
G01 X5.96974 Y2.32893
G01 X5.99461 Y2.35923
G01 X5.99826 Y2.36416
G01 X6.00141 Y2.36942
G01 X6.01990 Y2.40400
G01 X6.02458 Y2.41532
G01 X6.03597 Y2.45284
G01 X6.03746 Y2.45879
G01 X6.03836 Y2.46486
G01 X6.04220 Y2.50387
G01 X6.04220 Y2.51612
G01 X6.03836 Y2.55514
G01 X6.03746 Y2.56121
G01 X6.03597 Y2.56716
G01 X6.02458 Y2.60468
G01 X6.01990 Y2.61600
G01 X6.00141 Y2.65057
G01 X5.99826 Y2.65584
G01 X5.99461 Y2.66076
G01 X5.96974 Y2.69107
G01 X5.96562 Y2.69562
G01 X5.96107 Y2.69973
G01 X5.93077 Y2.72461
G01 X5.92584 Y2.72826
G01 X5.92058 Y2.73141
G01 X5.88600 Y2.74989
G01 X5.87468 Y2.75458
G01 X5.83716 Y2.76597
G01 X5.83121 Y2.76745
G01 X5.82515 Y2.76836
G01 X5.78613 Y2.77220
G01 X5.78000 Y2.77250
G01 X5.71807 Y2.77250
G01 X5.71262 Y2.77304
G01 X5.71033 Y2.77373
G01 X5.70822 Y2.77486
G01 X5.70638 Y2.77637
G01 X5.70486 Y2.77822
G01 X5.70373 Y2.78033
G01 X5.70304 Y2.78262
G01 X5.70250 Y2.78807
G01 X5.70250 Y3.00000
G01 X5.70220 Y3.00612
G01 X5.70028 Y3.02563
G01 X5.69938 Y3.03170
G01 X5.69789 Y3.03765
G01 X5.69220 Y3.05641
G01 X5.68751 Y3.06773
G01 X5.67827 Y3.08502
G01 X5.67511 Y3.09028
G01 X5.67146 Y3.09521
G01 X5.65902 Y3.11036
G01 X5.65036 Y3.11902
G01 X5.63521 Y3.13146
G01 X5.63028 Y3.13511
G01 X5.62502 Y3.13827
G01 X5.60773 Y3.14751
G01 X5.59641 Y3.15219
G01 X5.57766 Y3.15789
G01 X5.57171 Y3.15938
G01 X5.56564 Y3.16028
G01 X5.54613 Y3.16220
G01 X5.54000 Y3.16250
G01 X0.44000 Y3.16250
G01 X0.43387 Y3.16220
G01 X0.41436 Y3.16028
G01 X0.40235 Y3.15789
G01 X0.38359 Y3.15219
G01 X0.37227 Y3.14751
G01 X0.35498 Y3.13827
G01 X0.34972 Y3.13511
G01 X0.34479 Y3.13146
G01 X0.32964 Y3.11902
G01 X0.32098 Y3.11036
G01 X0.30854 Y3.09521
G01 X0.30489 Y3.09028
G01 X0.30173 Y3.08502
G01 X0.29249 Y3.06773
G01 X0.28781 Y3.05641
G01 X0.28211 Y3.03765
G01 X0.27972 Y3.02564
G01 X0.27780 Y3.00613
G01 X0.27750 Y3.00000
G01 X0.27750 Y2.78807
G01 X0.27696 Y2.78262
G01 X0.27627 Y2.78033
G01 X0.27514 Y2.77822
G01 X0.27363 Y2.77637
G01 X0.27178 Y2.77486
G01 X0.26967 Y2.77373
G01 X0.26738 Y2.77304
G01 X0.26193 Y2.77250
G01 X0.20000 Y2.77250
G01 X0.19388 Y2.77220
G01 X0.15486 Y2.76836
G01 X0.14879 Y2.76746
G01 X0.14284 Y2.76597
G01 X0.10532 Y2.75458
G01 X0.09400 Y2.74989
G01 X0.05943 Y2.73141
G01 X0.05416 Y2.72826
G01 X0.04924 Y2.72461
G01 X0.01893 Y2.69973
G01 X0.01439 Y2.69562
G01 X0.01027 Y2.69107
G01 X-0.01461 Y2.66076
G01 X-0.01826 Y2.65584
G01 X-0.02141 Y2.65057
G01 X-0.03989 Y2.61600
G01 X-0.04458 Y2.60468
G01 X-0.05596 Y2.56716
G01 X-0.05746 Y2.56121
G01 X-0.05836 Y2.55514
G01 X-0.06220 Y2.51612
G01 X-0.06220 Y2.50387
G01 X-0.05836 Y2.46486
G01 X-0.05746 Y2.45879
G01 X-0.05596 Y2.45284
G01 X-0.04458 Y2.41532
G01 X-0.03989 Y2.40400
G01 X-0.02141 Y2.36942
G01 X-0.01826 Y2.36416
G01 X-0.01461 Y2.35923
G01 X0.01027 Y2.32893
G01 X0.01439 Y2.32438
G01 X0.01893 Y2.32026
G01 X0.04924 Y2.29539
G01 X0.05416 Y2.29174
G01 X0.05943 Y2.28858
G01 X0.09400 Y2.27010
G01 X0.10532 Y2.26541
G01 X0.14284 Y2.25403
G01 X0.14879 Y2.25254
G01 X0.15486 Y2.25164
G01 X0.19388 Y2.24780
G01 X0.20000 Y2.24750
G01 X0.26193 Y2.24750
G01 X0.26738 Y2.24696
G01 X0.26967 Y2.24627
G01 X0.27178 Y2.24514
G01 X0.27363 Y2.24362
G01 X0.27514 Y2.24178
G01 X0.27627 Y2.23967
G01 X0.27696 Y2.23738
G01 X0.27750 Y2.23193
G01 X0.27750 Y0.86807
G01 X0.27696 Y0.86262
G01 X0.27627 Y0.86033
G01 X0.27514 Y0.85822
G01 X0.27363 Y0.85637
G01 X0.27178 Y0.85486
G01 X0.26967 Y0.85373
G01 X0.26738 Y0.85304
G01 X0.26193 Y0.85250
G01 X0.20000 Y0.85250
G01 X0.19388 Y0.85220
G01 X0.15486 Y0.84836
G01 X0.14879 Y0.84746
G01 X0.14284 Y0.84596
G01 X0.10532 Y0.83458
G01 X0.09400 Y0.82990
G01 X0.05943 Y0.81141
G01 X0.05416 Y0.80826
G01 X0.04924 Y0.80461
G01 X0.01893 Y0.77973
G01 X0.01439 Y0.77562
G01 X0.01027 Y0.77107
G01 X-0.01461 Y0.74076
G01 X-0.01826 Y0.73584
G01 X-0.02141 Y0.73057
G01 X-0.03989 Y0.69600
G01 X-0.04458 Y0.68468
G01 X-0.05596 Y0.64716
G01 X-0.05746 Y0.64121
G01 X-0.05836 Y0.63514
G01 X-0.06220 Y0.59612
G01 X-0.06220 Y0.58388
G01 X-0.05836 Y0.54486
G01 X-0.05746 Y0.53879
G01 X-0.05596 Y0.53284
G01 X-0.04458 Y0.49532
G01 X-0.03989 Y0.48400
G01 X-0.02141 Y0.44942
G01 X-0.01826 Y0.44416
G01 X-0.01461 Y0.43923
G01 X0.01027 Y0.40893
G01 X0.01439 Y0.40438
G01 X0.01893 Y0.40026
G01 X0.04924 Y0.37539
G01 X0.05416 Y0.37174
G01 X0.05943 Y0.36858
G01 X0.09400 Y0.35010
G01 X0.10532 Y0.34542
G01 X0.14284 Y0.33403
G01 X0.14879 Y0.33254
G01 X0.15486 Y0.33164
G01 X0.19388 Y0.32780
G01 X0.20000 Y0.32750
G01 X0.26193 Y0.32750
G01 X0.26738 Y0.32696
G01 X0.26967 Y0.32627
G01 X0.27178 Y0.32514
G01 X0.27363 Y0.32362
G01 X0.27514 Y0.32177
G01 X0.27627 Y0.31967
G01 X0.27696 Y0.31738
G01 X0.27750 Y0.31193
G01 X0.27750 Y0.10000
G01 X0.27780 Y0.09387
G01 X0.27972 Y0.07436
G01 X0.28062 Y0.06829
G01 X0.28211 Y0.06234
G01 X0.28781 Y0.04359
G01 X0.29249 Y0.03227
G01 X0.30173 Y0.01498
G01 X0.30489 Y0.00972
G01 X0.30854 Y0.00479
G01 X0.32098 Y-0.01036
G01 X0.32964 Y-0.01902
G01 X0.34479 Y-0.03146
G01 X0.34972 Y-0.03511
G01 X0.35498 Y-0.03827
G01 X0.37227 Y-0.04751
G01 X0.38359 Y-0.05220
G01 X0.40235 Y-0.05789
G01 X0.40830 Y-0.05938
G01 X0.41437 Y-0.06028
G01 X0.43388 Y-0.06220
G01 X0.44000 Y-0.06250
G01 X5.54000 Y-0.06250
G01 X5.54612 Y-0.06220
G01 X5.56564 Y-0.06028
G01 X5.57170 Y-0.05938
G01 X5.57766 Y-0.05789
G01 X5.59641 Y-0.05220
G01 X5.60773 Y-0.04751
G01 X5.62502 Y-0.03827
G01 X5.63028 Y-0.03511
G01 X5.63521 Y-0.03146
G01 X5.65036 Y-0.01902
G01 X5.65902 Y-0.01036
G01 X5.67146 Y0.00479
G01 X5.67511 Y0.00972
G01 X5.67827 Y0.01498
G01 X5.68751 Y0.03227
G01 X5.69220 Y0.04359
G01 X5.69789 Y0.06234
G01 X5.69938 Y0.06830
G01 X5.70028 Y0.07437
G01 X5.70220 Y0.09388
G01 X5.70250 Y0.10000
G01 X5.70250 Y0.31193
G01 X5.70304 Y0.31738
G01 X5.70373 Y0.31967
G01 X5.70486 Y0.32177
G01 X5.70638 Y0.32362
G01 X5.70823 Y0.32514
G01 X5.71033 Y0.32627
G01 X5.71262 Y0.32696
G01 X5.71807 Y0.32750
G01 X5.78000 Y0.32750
G01 X5.78613 Y0.32780
G01 X5.82514 Y0.33164
G01 X5.83121 Y0.33254
G01 X5.83716 Y0.33403
G01 X5.87468 Y0.34542
G01 X5.88600 Y0.35010
G01 X5.92058 Y0.36858
G01 X5.92584 Y0.37174
G01 X5.93077 Y0.37539
G01 X5.96107 Y0.40026
G01 X5.96562 Y0.40438
G01 X5.96974 Y0.40893
G01 X5.99461 Y0.43923
G01 X5.99826 Y0.44416
G01 X6.00141 Y0.44942
G01 X6.01990 Y0.48400
G01 X6.02458 Y0.49532
G01 X6.03597 Y0.53284
G01 X6.03746 Y0.53879
G01 X6.03836 Y0.54486
G01 X6.04220 Y0.58388
G01 Z-0.07087 F1.96850 ( plunge. )
G04 P0 ( dwell for no time -- G64 should not smooth over this point )
G01 F3.93701
G01 X6.04220 Y0.59612
G01 X6.03836 Y0.63514
G01 X6.03746 Y0.64121
G01 X6.03597 Y0.64716
G01 X6.02458 Y0.68468
G01 X6.01990 Y0.69600
G01 X6.00141 Y0.73057
G01 X5.99826 Y0.73584
G01 X5.99461 Y0.74076
G01 X5.96974 Y0.77107
G01 X5.96562 Y0.77562
G01 X5.96107 Y0.77973
G01 X5.93077 Y0.80461
G01 X5.92584 Y0.80826
G01 X5.92058 Y0.81141
G01 X5.88600 Y0.82990
G01 X5.87468 Y0.83458
G01 X5.83716 Y0.84596
G01 X5.83121 Y0.84745
G01 X5.82515 Y0.84836
G01 X5.78613 Y0.85220
G01 X5.78000 Y0.85250
G01 X5.71807 Y0.85250
G01 X5.71262 Y0.85304
G01 X5.71033 Y0.85373
G01 X5.70823 Y0.85486
G01 X5.70638 Y0.85637
G01 X5.70486 Y0.85822
G01 X5.70373 Y0.86033
G01 X5.70304 Y0.86262
G01 X5.70250 Y0.86807
G01 X5.70250 Y2.23193
G01 X5.70304 Y2.23738
G01 X5.70373 Y2.23967
G01 X5.70486 Y2.24178
G01 X5.70638 Y2.24362
G01 X5.70823 Y2.24514
G01 X5.71033 Y2.24627
G01 X5.71262 Y2.24696
G01 X5.71807 Y2.24750
G01 X5.78000 Y2.24750
G01 X5.78613 Y2.24780
G01 X5.82514 Y2.25164
G01 X5.83121 Y2.25254
G01 X5.83716 Y2.25403
G01 X5.87468 Y2.26541
G01 X5.88600 Y2.27010
G01 X5.92058 Y2.28858
G01 X5.92584 Y2.29174
G01 X5.93077 Y2.29539
G01 X5.96107 Y2.32026
G01 X5.96562 Y2.32438
G01 X5.96974 Y2.32893
G01 X5.99461 Y2.35923
G01 X5.99826 Y2.36416
G01 X6.00141 Y2.36942
G01 X6.01990 Y2.40400
G01 X6.02458 Y2.41532
G01 X6.03597 Y2.45284
G01 X6.03746 Y2.45879
G01 X6.03836 Y2.46486
G01 X6.04220 Y2.50387
G01 X6.04220 Y2.51612
G01 X6.03836 Y2.55514
G01 X6.03746 Y2.56121
G01 X6.03597 Y2.56716
G01 X6.02458 Y2.60468
G01 X6.01990 Y2.61600
G01 X6.00141 Y2.65057
G01 X5.99826 Y2.65584
G01 X5.99461 Y2.66076
G01 X5.96974 Y2.69107
G01 X5.96562 Y2.69562
G01 X5.96107 Y2.69973
G01 X5.93077 Y2.72461
G01 X5.92584 Y2.72826
G01 X5.92058 Y2.73141
G01 X5.88600 Y2.74989
G01 X5.87468 Y2.75458
G01 X5.83716 Y2.76597
G01 X5.83121 Y2.76745
G01 X5.82515 Y2.76836
G01 X5.78613 Y2.77220
G01 X5.78000 Y2.77250
G01 X5.71807 Y2.77250
G01 X5.71262 Y2.77304
G01 X5.71033 Y2.77373
G01 X5.70822 Y2.77486
G01 X5.70638 Y2.77637
G01 X5.70486 Y2.77822
G01 X5.70373 Y2.78033
G01 X5.70304 Y2.78262
G01 X5.70250 Y2.78807
G01 X5.70250 Y3.00000
G01 X5.70220 Y3.00612
G01 X5.70028 Y3.02563
G01 X5.69938 Y3.03170
G01 X5.69789 Y3.03765
G01 X5.69220 Y3.05641
G01 X5.68751 Y3.06773
G01 X5.67827 Y3.08502
G01 X5.67511 Y3.09028
G01 X5.67146 Y3.09521
G01 X5.65902 Y3.11036
G01 X5.65036 Y3.11902
G01 X5.63521 Y3.13146
G01 X5.63028 Y3.13511
G01 X5.62502 Y3.13827
G01 X5.60773 Y3.14751
G01 X5.59641 Y3.15219
G01 X5.57766 Y3.15789
G01 X5.57171 Y3.15938
G01 X5.56564 Y3.16028
G01 X5.54613 Y3.16220
G01 X5.54000 Y3.16250
G01 X0.44000 Y3.16250
G01 X0.43387 Y3.16220
G01 X0.41436 Y3.16028
G01 X0.40235 Y3.15789
G01 X0.38359 Y3.15219
G01 X0.37227 Y3.14751
G01 X0.35498 Y3.13827
G01 X0.34972 Y3.13511
G01 X0.34479 Y3.13146
G01 X0.32964 Y3.11902
G01 X0.32098 Y3.11036
G01 X0.30854 Y3.09521
G01 X0.30489 Y3.09028
G01 X0.30173 Y3.08502
G01 X0.29249 Y3.06773
G01 X0.28781 Y3.05641
G01 X0.28211 Y3.03765
G01 X0.27972 Y3.02564
G01 X0.27780 Y3.00613
G01 X0.27750 Y3.00000
G01 X0.27750 Y2.78807
G01 X0.27696 Y2.78262
G01 X0.27627 Y2.78033
G01 X0.27514 Y2.77822
G01 X0.27363 Y2.77637
G01 X0.27178 Y2.77486
G01 X0.26967 Y2.77373
G01 X0.26738 Y2.77304
G01 X0.26193 Y2.77250
G01 X0.20000 Y2.77250
G01 X0.19388 Y2.77220
G01 X0.15486 Y2.76836
G01 X0.14879 Y2.76746
G01 X0.14284 Y2.76597
G01 X0.10532 Y2.75458
G01 X0.09400 Y2.74989
G01 X0.05943 Y2.73141
G01 X0.05416 Y2.72826
G01 X0.04924 Y2.72461
G01 X0.01893 Y2.69973
G01 X0.01439 Y2.69562
G01 X0.01027 Y2.69107
G01 X-0.01461 Y2.66076
G01 X-0.01826 Y2.65584
G01 X-0.02141 Y2.65057
G01 X-0.03989 Y2.61600
G01 X-0.04458 Y2.60468
G01 X-0.05596 Y2.56716
G01 X-0.05746 Y2.56121
G01 X-0.05836 Y2.55514
G01 X-0.06220 Y2.51612
G01 X-0.06220 Y2.50387
G01 X-0.05836 Y2.46486
G01 X-0.05746 Y2.45879
G01 X-0.05596 Y2.45284
G01 X-0.04458 Y2.41532
G01 X-0.03989 Y2.40400
G01 X-0.02141 Y2.36942
G01 X-0.01826 Y2.36416
G01 X-0.01461 Y2.35923
G01 X0.01027 Y2.32893
G01 X0.01439 Y2.32438
G01 X0.01893 Y2.32026
G01 X0.04924 Y2.29539
G01 X0.05416 Y2.29174
G01 X0.05943 Y2.28858
G01 X0.09400 Y2.27010
G01 X0.10532 Y2.26541
G01 X0.14284 Y2.25403
G01 X0.14879 Y2.25254
G01 X0.15486 Y2.25164
G01 X0.19388 Y2.24780
G01 X0.20000 Y2.24750
G01 X0.26193 Y2.24750
G01 X0.26738 Y2.24696
G01 X0.26967 Y2.24627
G01 X0.27178 Y2.24514
G01 X0.27363 Y2.24362
G01 X0.27514 Y2.24178
G01 X0.27627 Y2.23967
G01 X0.27696 Y2.23738
G01 X0.27750 Y2.23193
G01 X0.27750 Y0.86807
G01 X0.27696 Y0.86262
G01 X0.27627 Y0.86033
G01 X0.27514 Y0.85822
G01 X0.27363 Y0.85637
G01 X0.27178 Y0.85486
G01 X0.26967 Y0.85373
G01 X0.26738 Y0.85304
G01 X0.26193 Y0.85250
G01 X0.20000 Y0.85250
G01 X0.19388 Y0.85220
G01 X0.15486 Y0.84836
G01 X0.14879 Y0.84746
G01 X0.14284 Y0.84596
G01 X0.10532 Y0.83458
G01 X0.09400 Y0.82990
G01 X0.05943 Y0.81141
G01 X0.05416 Y0.80826
G01 X0.04924 Y0.80461
G01 X0.01893 Y0.77973
G01 X0.01439 Y0.77562
G01 X0.01027 Y0.77107
G01 X-0.01461 Y0.74076
G01 X-0.01826 Y0.73584
G01 X-0.02141 Y0.73057
G01 X-0.03989 Y0.69600
G01 X-0.04458 Y0.68468
G01 X-0.05596 Y0.64716
G01 X-0.05746 Y0.64121
G01 X-0.05836 Y0.63514
G01 X-0.06220 Y0.59612
G01 X-0.06220 Y0.58388
G01 X-0.05836 Y0.54486
G01 X-0.05746 Y0.53879
G01 X-0.05596 Y0.53284
G01 X-0.04458 Y0.49532
G01 X-0.03989 Y0.48400
G01 X-0.02141 Y0.44942
G01 X-0.01826 Y0.44416
G01 X-0.01461 Y0.43923
G01 X0.01027 Y0.40893
G01 X0.01439 Y0.40438
G01 X0.01893 Y0.40026
G01 X0.04924 Y0.37539
G01 X0.05416 Y0.37174
G01 X0.05943 Y0.36858
G01 X0.09400 Y0.35010
G01 X0.10532 Y0.34542
G01 X0.14284 Y0.33403
G01 X0.14879 Y0.33254
G01 X0.15486 Y0.33164
G01 X0.19388 Y0.32780
G01 X0.20000 Y0.32750
G01 X0.26193 Y0.32750
G01 X0.26738 Y0.32696
G01 X0.26967 Y0.32627
G01 X0.27178 Y0.32514
G01 X0.27363 Y0.32362
G01 X0.27514 Y0.32177
G01 X0.27627 Y0.31967
G01 X0.27696 Y0.31738
G01 X0.27750 Y0.31193
G01 X0.27750 Y0.10000
G01 X0.27780 Y0.09387
G01 X0.27972 Y0.07436
G01 X0.28062 Y0.06829
G01 X0.28211 Y0.06234
G01 X0.28781 Y0.04359
G01 X0.29249 Y0.03227
G01 X0.30173 Y0.01498
G01 X0.30489 Y0.00972
G01 X0.30854 Y0.00479
G01 X0.32098 Y-0.01036
G01 X0.32964 Y-0.01902
G01 X0.34479 Y-0.03146
G01 X0.34972 Y-0.03511
G01 X0.35498 Y-0.03827
G01 X0.37227 Y-0.04751
G01 X0.38359 Y-0.05220
G01 X0.40235 Y-0.05789
G01 X0.40830 Y-0.05938
G01 X0.41437 Y-0.06028
G01 X0.43388 Y-0.06220
G01 X0.44000 Y-0.06250
G01 X5.54000 Y-0.06250
G01 X5.54612 Y-0.06220
G01 X5.56564 Y-0.06028
G01 X5.57170 Y-0.05938
G01 X5.57766 Y-0.05789
G01 X5.59641 Y-0.05220
G01 X5.60773 Y-0.04751
G01 X5.62502 Y-0.03827
G01 X5.63028 Y-0.03511
G01 X5.63521 Y-0.03146
G01 X5.65036 Y-0.01902
G01 X5.65902 Y-0.01036
G01 X5.67146 Y0.00479
G01 X5.67511 Y0.00972
G01 X5.67827 Y0.01498
G01 X5.68751 Y0.03227
G01 X5.69220 Y0.04359
G01 X5.69789 Y0.06234
G01 X5.69938 Y0.06830
G01 X5.70028 Y0.07437
G01 X5.70220 Y0.09388
G01 X5.70250 Y0.10000
G01 X5.70250 Y0.31193
G01 X5.70304 Y0.31738
G01 X5.70373 Y0.31967
G01 X5.70486 Y0.32177
G01 X5.70638 Y0.32362
G01 X5.70823 Y0.32514
G01 X5.71033 Y0.32627
G01 X5.71262 Y0.32696
G01 X5.71807 Y0.32750
G01 X5.78000 Y0.32750
G01 X5.78613 Y0.32780
G01 X5.82514 Y0.33164
G01 X5.83121 Y0.33254
G01 X5.83716 Y0.33403
G01 X5.87468 Y0.34542
G01 X5.88600 Y0.35010
G01 X5.92058 Y0.36858
G01 X5.92584 Y0.37174
G01 X5.93077 Y0.37539
G01 X5.96107 Y0.40026
G01 X5.96562 Y0.40438
G01 X5.96974 Y0.40893
G01 X5.99461 Y0.43923
G01 X5.99826 Y0.44416
G01 X6.00141 Y0.44942
G01 X6.01990 Y0.48400
G01 X6.02458 Y0.49532
G01 X6.03597 Y0.53284
G01 X6.03746 Y0.53879
G01 X6.03836 Y0.54486
G01 X6.04220 Y0.58388

G04 P0 ( dwell for no time -- G64 should not smooth over this point )
G00 Z0.393701 ( retract )

M5 ( Spindle off. )
G04 P1.000000
M9 ( Coolant off. )
M2 ( Program end. )

