( pcb2gcode 2.5.0 )
( Software-independent Gcode )

G94 ( Inches per minute feed rate. )
G20 ( Units == INCHES. )

G90 ( Absolute coordinates. )
G00 S200 ( RPM spindle speed. )
G64 P0.00040 ( set maximum deviation from commanded toolpath )
G01 F35.43307 ( Feedrate. )


G00 Z0.39370 (Retract to tool change height)
T0
M5      (Spindle stop.)
G04 P1.00000 (Wait for spindle to stop)
(MSG, Change tool bit to mill diameter 0.00787in)
M6      (Tool change.)
M0      (Temporary machine stop.)
M3 ( Spindle on clockwise. )
G04 P1.00000 (Wait for spindle to get up to speed)
G04 P0 ( dwell for no time -- G64 should not smooth over this point )
G00 Z0.07874 ( retract )

G00 X7.99055 Y0.42491 ( rapid move to begin. )
G01 F17.71654
( Mill infeed pass 1/1 )
G01 Z-0.00500
G04 P0 ( dwell for no time -- G64 should not smooth over this point )
G01 F35.43307
G01 X7.99055 Y0.42491
G01 X7.98901 Y0.40742
G01 X7.98578 Y0.38971
G01 X7.98114 Y0.37306
G01 X7.97541 Y0.35778
G01 X7.96959 Y0.34560
G01 X7.96749 Y0.34133
G01 X7.95911 Y0.32732
G01 X7.94899 Y0.31331
G01 X7.93697 Y0.29955
G01 X7.92444 Y0.28764
G01 X7.91090 Y0.27690
G01 X7.89668 Y0.26754
G01 X7.88208 Y0.25967
G01 X7.86553 Y0.25259
G01 X7.84882 Y0.24719
G01 X7.83196 Y0.24339
G01 X7.81482 Y0.24111
G01 X7.79797 Y0.24036
G01 X7.71289 Y0.24036
G01 X7.70014 Y0.23903
G01 X7.68761 Y0.23636
G01 X7.67542 Y0.23240
G01 X7.66371 Y0.22719
G01 X7.65262 Y0.22078
G01 X7.64225 Y0.21325
G01 X7.63273 Y0.20468
G01 X7.62415 Y0.19515
G01 X7.61662 Y0.18479
G01 X7.61021 Y0.17369
G01 X7.60500 Y0.16198
G01 X7.60104 Y0.14980
G01 X7.59838 Y0.13726
G01 X7.59704 Y0.12451
G01 X7.59701 Y0.11744
G01 X7.59637 Y0.10847
G01 X7.59425 Y0.09810
G01 X7.59031 Y0.08727
G01 X7.58459 Y0.07694
G01 X7.57814 Y0.06855
G01 X7.57119 Y0.06171
G01 X7.56267 Y0.05534
G01 X7.55434 Y0.05073
G01 X7.54246 Y0.04630
G01 X7.53314 Y0.04433
G01 X7.52311 Y0.04354
G01 X0.59341 Y0.04351
G01 X0.58368 Y0.04418
G01 X0.57330 Y0.04630
G01 X0.56141 Y0.05073
G01 X0.55308 Y0.05534
G01 X0.54456 Y0.06171
G01 X0.53761 Y0.06855
G01 X0.53116 Y0.07694
G01 X0.52544 Y0.08727
G01 X0.52150 Y0.09810
G01 X0.51938 Y0.10847
G01 X0.51874 Y0.11744
G01 X0.51872 Y0.12451
G01 X0.51738 Y0.13726
G01 X0.51472 Y0.14980
G01 X0.51076 Y0.16198
G01 X0.50554 Y0.17369
G01 X0.49914 Y0.18479
G01 X0.49160 Y0.19516
G01 X0.48303 Y0.20468
G01 X0.47351 Y0.21325
G01 X0.46314 Y0.22079
G01 X0.45204 Y0.22719
G01 X0.44033 Y0.23241
G01 X0.42815 Y0.23637
G01 X0.41561 Y0.23903
G01 X0.40287 Y0.24037
G01 X0.31778 Y0.24036
G01 X0.30093 Y0.24111
G01 X0.28379 Y0.24339
G01 X0.26693 Y0.24719
G01 X0.25022 Y0.25259
G01 X0.23367 Y0.25967
G01 X0.21847 Y0.26791
G01 X0.20463 Y0.27705
G01 X0.19130 Y0.28764
G01 X0.17860 Y0.29975
G01 X0.16676 Y0.31331
G01 X0.15717 Y0.32651
G01 X0.14827 Y0.34133
G01 X0.14073 Y0.35689
G01 X0.13431 Y0.37399
G01 X0.12975 Y0.39067
G01 X0.12671 Y0.40769
G01 X0.12520 Y0.42491
G01 X0.12520 Y0.44123
G01 X0.12671 Y0.45845
G01 X0.12981 Y0.47573
G01 X0.13461 Y0.49308
G01 X0.14073 Y0.50925
G01 X0.14827 Y0.52481
G01 X0.15717 Y0.53963
G01 X0.16676 Y0.55283
G01 X0.17878 Y0.56659
G01 X0.19131 Y0.57850
G01 X0.20485 Y0.58925
G01 X0.21870 Y0.59837
G01 X0.23368 Y0.60647
G01 X0.25022 Y0.61355
G01 X0.26693 Y0.61895
G01 X0.28379 Y0.62275
G01 X0.30093 Y0.62503
G01 X0.31778 Y0.62577
G01 X0.40287 Y0.62577
G01 X0.41561 Y0.62711
G01 X0.42814 Y0.62977
G01 X0.44033 Y0.63373
G01 X0.45204 Y0.63894
G01 X0.46314 Y0.64535
G01 X0.47351 Y0.65289
G01 X0.48303 Y0.66146
G01 X0.49160 Y0.67098
G01 X0.49914 Y0.68135
G01 X0.50554 Y0.69245
G01 X0.51076 Y0.70416
G01 X0.51472 Y0.71634
G01 X0.51738 Y0.72888
G01 X0.51872 Y0.74163
G01 X0.51874 Y0.74870
G01 X0.51938 Y0.75767
G01 X0.52150 Y0.76804
G01 X0.52544 Y0.77887
G01 X0.53113 Y0.78916
G01 X0.53703 Y0.79692
G01 X0.54456 Y0.80443
G01 X0.55308 Y0.81080
G01 X0.56141 Y0.81541
G01 X0.57330 Y0.81984
G01 X0.58261 Y0.82181
G01 X0.59264 Y0.82260
G01 X7.52234 Y0.82263
G01 X7.53207 Y0.82196
G01 X7.54246 Y0.81984
G01 X7.55434 Y0.81541
G01 X7.56267 Y0.81080
G01 X7.57119 Y0.80443
G01 X7.57872 Y0.79692
G01 X7.58462 Y0.78916
G01 X7.59031 Y0.77887
G01 X7.59425 Y0.76804
G01 X7.59637 Y0.75767
G01 X7.59701 Y0.74870
G01 X7.59704 Y0.74163
G01 X7.59838 Y0.72888
G01 X7.60104 Y0.71635
G01 X7.60500 Y0.70416
G01 X7.61021 Y0.69245
G01 X7.61662 Y0.68135
G01 X7.62415 Y0.67099
G01 X7.63273 Y0.66146
G01 X7.64225 Y0.65289
G01 X7.65262 Y0.64536
G01 X7.66371 Y0.63895
G01 X7.67542 Y0.63374
G01 X7.68761 Y0.62978
G01 X7.70014 Y0.62711
G01 X7.71289 Y0.62577
G01 X7.79797 Y0.62577
G01 X7.81482 Y0.62503
G01 X7.83222 Y0.62270
G01 X7.84883 Y0.61895
G01 X7.86528 Y0.61365
G01 X7.88208 Y0.60647
G01 X7.89728 Y0.59823
G01 X7.91112 Y0.58909
G01 X7.92445 Y0.57850
G01 X7.93716 Y0.56639
G01 X7.94899 Y0.55283
G01 X7.95873 Y0.53940
G01 X7.96749 Y0.52481
G01 X7.97502 Y0.50925
G01 X7.98144 Y0.49215
G01 X7.98600 Y0.47547
G01 X7.98905 Y0.45845
G01 X7.99055 Y0.44123
G01 X7.99055 Y0.42491
G01 X7.98662 Y0.42491
G01 X7.98662 Y0.44123
G01 X7.98512 Y0.45810
G01 X7.98213 Y0.47477
G01 X7.97754 Y0.49144
G01 X7.97148 Y0.50754
G01 X7.96411 Y0.52279
G01 X7.95573 Y0.53680
G01 X7.94580 Y0.55051
G01 X7.93468 Y0.56329
G01 X7.92199 Y0.57542
G01 X7.90895 Y0.58580
G01 X7.89511 Y0.59495
G01 X7.88021 Y0.60300
G01 X7.86407 Y0.60990
G01 X7.84795 Y0.61511
G01 X7.83169 Y0.61880
G01 X7.81465 Y0.62110
G01 X7.79797 Y0.62184
G01 X7.71268 Y0.62184
G01 X7.69952 Y0.62322
G01 X7.68659 Y0.62597
G01 X7.67401 Y0.63006
G01 X7.66192 Y0.63544
G01 X7.65047 Y0.64205
G01 X7.63977 Y0.64982
G01 X7.62994 Y0.65868
G01 X7.62109 Y0.66851
G01 X7.61331 Y0.67921
G01 X7.60670 Y0.69066
G01 X7.60132 Y0.70274
G01 X7.59723 Y0.71532
G01 X7.59448 Y0.72826
G01 X7.59310 Y0.74142
G01 X7.59308 Y0.74842
G01 X7.59244 Y0.75739
G01 X7.59040 Y0.76723
G01 X7.58662 Y0.77749
G01 X7.58147 Y0.78680
G01 X7.57592 Y0.79415
G01 X7.56881 Y0.80129
G01 X7.56076 Y0.80735
G01 X7.55244 Y0.81196
G01 X7.54164 Y0.81599
G01 X7.53233 Y0.81795
G01 X7.52262 Y0.81868
G01 X0.59320 Y0.81868
G01 X0.58342 Y0.81795
G01 X0.57411 Y0.81599
G01 X0.56332 Y0.81196
G01 X0.55499 Y0.80735
G01 X0.54694 Y0.80129
G01 X0.53983 Y0.79415
G01 X0.53428 Y0.78680
G01 X0.52913 Y0.77749
G01 X0.52535 Y0.76723
G01 X0.52331 Y0.75739
G01 X0.52267 Y0.74842
G01 X0.52265 Y0.74142
G01 X0.52127 Y0.72826
G01 X0.51852 Y0.71532
G01 X0.51443 Y0.70274
G01 X0.50905 Y0.69066
G01 X0.50244 Y0.67921
G01 X0.49466 Y0.66851
G01 X0.48581 Y0.65868
G01 X0.47598 Y0.64982
G01 X0.46528 Y0.64205
G01 X0.45383 Y0.63544
G01 X0.44174 Y0.63006
G01 X0.42916 Y0.62597
G01 X0.41623 Y0.62322
G01 X0.40307 Y0.62184
G01 X0.31778 Y0.62184
G01 X0.30111 Y0.62110
G01 X0.28432 Y0.61885
G01 X0.26780 Y0.61511
G01 X0.25144 Y0.60981
G01 X0.23554 Y0.60300
G01 X0.22087 Y0.59509
G01 X0.20702 Y0.58596
G01 X0.19376 Y0.57542
G01 X0.18125 Y0.56348
G01 X0.16995 Y0.55052
G01 X0.16036 Y0.53731
G01 X0.15165 Y0.52279
G01 X0.14413 Y0.50722
G01 X0.13829 Y0.49169
G01 X0.13376 Y0.47538
G01 X0.13067 Y0.45845
G01 X0.12914 Y0.44123
G01 X0.12915 Y0.42456
G01 X0.13067 Y0.40769
G01 X0.13362 Y0.39137
G01 X0.13810 Y0.37504
G01 X0.14413 Y0.35892
G01 X0.15148 Y0.34366
G01 X0.16036 Y0.32883
G01 X0.16995 Y0.31562
G01 X0.18107 Y0.30285
G01 X0.19376 Y0.29072
G01 X0.20680 Y0.28034
G01 X0.22064 Y0.27119
G01 X0.23554 Y0.26314
G01 X0.25144 Y0.25633
G01 X0.26780 Y0.25103
G01 X0.28432 Y0.24729
G01 X0.30111 Y0.24504
G01 X0.31778 Y0.24430
G01 X0.40307 Y0.24430
G01 X0.41623 Y0.24292
G01 X0.42916 Y0.24017
G01 X0.44174 Y0.23608
G01 X0.45383 Y0.23070
G01 X0.46528 Y0.22409
G01 X0.47598 Y0.21631
G01 X0.48581 Y0.20746
G01 X0.49466 Y0.19763
G01 X0.50244 Y0.18693
G01 X0.50905 Y0.17548
G01 X0.51443 Y0.16340
G01 X0.51852 Y0.15082
G01 X0.52127 Y0.13788
G01 X0.52265 Y0.12472
G01 X0.52267 Y0.11772
G01 X0.52331 Y0.10875
G01 X0.52535 Y0.09891
G01 X0.52913 Y0.08865
G01 X0.53429 Y0.07932
G01 X0.54040 Y0.07134
G01 X0.54694 Y0.06484
G01 X0.55499 Y0.05879
G01 X0.56332 Y0.05418
G01 X0.57411 Y0.05015
G01 X0.58342 Y0.04818
G01 X0.59314 Y0.04746
G01 X7.52255 Y0.04746
G01 X7.53233 Y0.04818
G01 X7.54164 Y0.05015
G01 X7.55244 Y0.05418
G01 X7.56076 Y0.05879
G01 X7.56881 Y0.06484
G01 X7.57535 Y0.07134
G01 X7.58146 Y0.07932
G01 X7.58662 Y0.08865
G01 X7.59040 Y0.09891
G01 X7.59244 Y0.10875
G01 X7.59308 Y0.11772
G01 X7.59310 Y0.12472
G01 X7.59448 Y0.13788
G01 X7.59723 Y0.15082
G01 X7.60132 Y0.16340
G01 X7.60670 Y0.17548
G01 X7.61331 Y0.18693
G01 X7.62109 Y0.19763
G01 X7.62994 Y0.20746
G01 X7.63977 Y0.21631
G01 X7.65047 Y0.22409
G01 X7.66192 Y0.23070
G01 X7.67401 Y0.23608
G01 X7.68659 Y0.24017
G01 X7.69952 Y0.24292
G01 X7.71268 Y0.24430
G01 X7.79797 Y0.24430
G01 X7.81465 Y0.24504
G01 X7.83143 Y0.24729
G01 X7.84795 Y0.25103
G01 X7.86432 Y0.25633
G01 X7.88021 Y0.26314
G01 X7.89481 Y0.27101
G01 X7.90873 Y0.28018
G01 X7.92199 Y0.29072
G01 X7.93450 Y0.30266
G01 X7.94580 Y0.31562
G01 X7.95573 Y0.32934
G01 X7.96411 Y0.34335
G01 X7.96605 Y0.34732
G01 X7.97172 Y0.35917
G01 X7.97746 Y0.37445
G01 X7.98199 Y0.39076
G01 X7.98509 Y0.40778
G01 X7.98662 Y0.42491
G04 P0 ( dwell for no time -- G64 should not smooth over this point )
G00 Z0.07874 ( retract )

G00 X7.33782 Y0.49213 ( rapid move to begin. )
G01 F17.71654
( Mill infeed pass 1/1 )
G01 Z-0.00500
G04 P0 ( dwell for no time -- G64 should not smooth over this point )
G01 F35.43307
G01 X7.33782 Y0.49213
G01 X7.33758 Y0.48933
G01 X7.33594 Y0.48447
G01 X7.33328 Y0.48015
G01 X7.32969 Y0.47656
G01 X7.32538 Y0.47390
G01 X7.32051 Y0.47227
G01 X7.31771 Y0.47203
G01 X7.30833 Y0.47196
G01 X7.30439 Y0.47097
G01 X7.30310 Y0.47050
G01 X7.30191 Y0.46982
G01 X7.30086 Y0.46893
G01 X7.29783 Y0.46574
G01 X7.29714 Y0.46455
G01 X7.29667 Y0.46326
G01 X7.29569 Y0.45931
G01 X7.29562 Y0.43593
G01 X7.29575 Y0.43369
G01 X7.29520 Y0.42997
G01 X7.29343 Y0.42547
G01 X7.29084 Y0.42182
G01 X7.28916 Y0.42033
G01 X6.95389 Y0.08506
G01 X6.95239 Y0.08338
G01 X6.94874 Y0.08078
G01 X6.94495 Y0.07921
G01 X6.94053 Y0.07846
G01 X6.93828 Y0.07859
G01 X3.56667 Y0.07859
G01 X3.56443 Y0.07846
G01 X3.56001 Y0.07921
G01 X3.55622 Y0.08078
G01 X3.55257 Y0.08338
G01 X3.55107 Y0.08506
G01 X3.08860 Y0.54753
G01 X3.08692 Y0.54902
G01 X3.08432 Y0.55268
G01 X3.08256 Y0.55717
G01 X3.08201 Y0.56088
G01 X3.08214 Y0.56313
G01 X3.08214 Y0.58136
G01 X3.08187 Y0.58340
G01 X3.08066 Y0.58751
G01 X3.08006 Y0.58862
G01 X3.07929 Y0.58961
G01 X3.07696 Y0.59208
G01 X3.07273 Y0.59508
G01 X3.06713 Y0.60069
G01 X3.06258 Y0.60709
G01 X3.05951 Y0.60975
G01 X3.05839 Y0.61054
G01 X3.05714 Y0.61112
G01 X3.05582 Y0.61147
G01 X3.05283 Y0.61200
G01 X3.05146 Y0.61212
G01 X3.05009 Y0.61200
G01 X3.04877 Y0.61164
G01 X3.04487 Y0.61014
G01 X3.04390 Y0.60952
G01 X3.04160 Y0.60733
G01 X3.04071 Y0.60628
G01 X3.03681 Y0.60068
G01 X3.03121 Y0.59508
G01 X3.02471 Y0.59053
G01 X3.01753 Y0.58718
G01 X3.00987 Y0.58513
G01 X3.00198 Y0.58444
G01 X2.99315 Y0.58525
G01 X2.98823 Y0.58509
G01 X2.98696 Y0.58473
G01 X2.98576 Y0.58417
G01 X2.98313 Y0.58265
G01 X2.98150 Y0.58140
G01 X2.53436 Y0.13427
G01 X2.53287 Y0.13259
G01 X2.52922 Y0.13000
G01 X2.52542 Y0.12843
G01 X2.52101 Y0.12767
G01 X2.51876 Y0.12781
G01 X1.70644 Y0.12781
G01 X1.70419 Y0.12767
G01 X1.69978 Y0.12843
G01 X1.69598 Y0.13000
G01 X1.69233 Y0.13259
G01 X1.69084 Y0.13427
G01 X1.38447 Y0.44064
G01 X1.38289 Y0.44206
G01 X1.38190 Y0.44337
G01 X1.37885 Y0.44605
G01 X1.37773 Y0.44685
G01 X1.37649 Y0.44744
G01 X1.37517 Y0.44780
G01 X1.37218 Y0.44835
G01 X1.37081 Y0.44848
G01 X1.36945 Y0.44837
G01 X1.36526 Y0.44700
G01 X1.36401 Y0.44643
G01 X1.36288 Y0.44565
G01 X1.36190 Y0.44469
G01 X1.35994 Y0.44238
G01 X1.35920 Y0.44135
G01 X1.35863 Y0.44021
G01 X1.35769 Y0.43649
G01 X1.35749 Y0.43476
G01 X1.35751 Y0.42949
G01 X1.35620 Y0.42246
G01 X1.35361 Y0.41579
G01 X1.34984 Y0.40970
G01 X1.34502 Y0.40441
G01 X1.33931 Y0.40010
G01 X1.33291 Y0.39691
G01 X1.32603 Y0.39495
G01 X1.32068 Y0.39448
G01 X1.31711 Y0.39447
G01 X1.31177 Y0.39495
G01 X1.30489 Y0.39691
G01 X1.29849 Y0.40010
G01 X1.29278 Y0.40441
G01 X1.28796 Y0.40970
G01 X1.28419 Y0.41579
G01 X1.28160 Y0.42246
G01 X1.28029 Y0.42949
G01 X1.28029 Y0.43665
G01 X1.28160 Y0.44368
G01 X1.28445 Y0.45116
G01 X1.28495 Y0.45520
G01 X1.28498 Y0.45657
G01 X1.28477 Y0.45793
G01 X1.28433 Y0.45923
G01 X1.28244 Y0.46321
G01 X1.28158 Y0.46427
G01 X1.28054 Y0.46518
G01 X1.27809 Y0.46697
G01 X1.27602 Y0.46805
G01 X1.27277 Y0.46875
G01 X1.27133 Y0.46888
G01 X1.26650 Y0.46888
G01 X1.25930 Y0.46941
G01 X1.24992 Y0.47155
G01 X1.24097 Y0.47507
G01 X1.23263 Y0.47988
G01 X1.22511 Y0.48588
G01 X1.21857 Y0.49293
G01 X1.21315 Y0.50088
G01 X1.20897 Y0.50955
G01 X1.20614 Y0.51875
G01 X1.20470 Y0.52826
G01 X1.20470 Y0.53788
G01 X1.20614 Y0.54739
G01 X1.20897 Y0.55659
G01 X1.21315 Y0.56526
G01 X1.21857 Y0.57321
G01 X1.22511 Y0.58026
G01 X1.23263 Y0.58626
G01 X1.24097 Y0.59107
G01 X1.24992 Y0.59459
G01 X1.25930 Y0.59673
G01 X1.26650 Y0.59725
G01 X1.27130 Y0.59726
G01 X1.27849 Y0.59673
G01 X1.28787 Y0.59459
G01 X1.29683 Y0.59107
G01 X1.30516 Y0.58626
G01 X1.31268 Y0.58026
G01 X1.31572 Y0.57708
G01 X1.31912 Y0.57486
G01 X1.32035 Y0.57423
G01 X1.32166 Y0.57383
G01 X1.32605 Y0.57354
G01 X1.32742 Y0.57361
G01 X1.32876 Y0.57391
G01 X1.33003 Y0.57445
G01 X1.33384 Y0.57659
G01 X1.33483 Y0.57751
G01 X1.33710 Y0.58061
G01 X1.34037 Y0.58600
G01 X1.34393 Y0.58958
G01 X1.34825 Y0.59224
G01 X1.35312 Y0.59388
G01 X1.35591 Y0.59411
G01 X1.43976 Y0.59414
G01 X1.44255 Y0.59383
G01 X1.44743 Y0.59226
G01 X1.45174 Y0.58958
G01 X1.45533 Y0.58599
G01 X1.45799 Y0.58167
G01 X1.45963 Y0.57681
G01 X1.45986 Y0.57401
G01 X1.45986 Y0.49213
G01 X1.45963 Y0.48934
G01 X1.45799 Y0.48447
G01 X1.45533 Y0.48015
G01 X1.45174 Y0.47656
G01 X1.44743 Y0.47390
G01 X1.44255 Y0.47231
G01 X1.43975 Y0.47196
G01 X1.43877 Y0.47166
G01 X1.43469 Y0.46998
G01 X1.43358 Y0.46917
G01 X1.43263 Y0.46819
G01 X1.43071 Y0.46583
G01 X1.42994 Y0.46470
G01 X1.42938 Y0.46345
G01 X1.42904 Y0.46212
G01 X1.42846 Y0.45775
G01 X1.42860 Y0.45638
G01 X1.42897 Y0.45506
G01 X1.43052 Y0.45122
G01 X1.43184 Y0.44946
G01 X1.70970 Y0.17149
G01 X1.71133 Y0.17024
G01 X1.71396 Y0.16872
G01 X1.71586 Y0.16794
G01 X1.71942 Y0.16747
G01 X2.50578 Y0.16747
G01 X2.50782 Y0.16774
G01 X2.51075 Y0.16852
G01 X2.51220 Y0.16906
G01 X2.51351 Y0.16988
G01 X2.51550 Y0.17149
G01 X2.90619 Y0.56228
G01 X2.90828 Y0.56576
G01 X2.90886 Y0.56701
G01 X2.90921 Y0.56834
G01 X2.90933 Y0.56970
G01 X2.90933 Y0.57274
G01 X2.90921 Y0.57410
G01 X2.90886 Y0.57543
G01 X2.90828 Y0.57667
G01 X2.90597 Y0.58043
G01 X2.90500 Y0.58140
G01 X2.90388 Y0.58219
G01 X2.90026 Y0.58418
G01 X2.89815 Y0.58471
G01 X2.89415 Y0.58514
G01 X2.88642 Y0.58719
G01 X2.87924 Y0.59055
G01 X2.87275 Y0.59509
G01 X2.86714 Y0.60070
G01 X2.86260 Y0.60719
G01 X2.86028 Y0.61220
G01 X2.85742 Y0.61403
G01 X2.86028 Y0.61220
G01 X2.86468 Y0.61220
G01 X2.86498 Y0.61272
G01 X2.86468 Y0.61220
G01 X2.86808 Y0.60631
G01 X2.86904 Y0.60498
G01 X2.87431 Y0.59920
G01 X2.88130 Y0.59412
G01 X2.88920 Y0.59061
G01 X2.89683 Y0.58894
G01 X2.89847 Y0.58876
G01 X2.90629 Y0.58881
G01 X2.91474 Y0.59061
G01 X2.92264 Y0.59412
G01 X2.92899 Y0.59868
G01 X2.93021 Y0.59978
G01 X2.93541 Y0.60562
G01 X2.93936 Y0.61237
G01 X2.94003 Y0.61388
G01 X2.94219 Y0.62053
G01 X2.94253 Y0.62214
G01 X2.94331 Y0.62992
G01 X2.94240 Y0.63852
G01 X2.93973 Y0.64673
G01 X2.93586 Y0.65353
G01 X2.93489 Y0.65486
G01 X2.93021 Y0.66006
G01 X2.92899 Y0.66116
G01 X2.92259 Y0.66575
G01 X2.91969 Y0.66705
G01 X2.91905 Y0.66663
G01 X2.91969 Y0.66705
G01 X2.91969 Y0.67161
G01 X2.91786 Y0.67448
G01 X2.91969 Y0.67161
G01 X2.92470 Y0.66929
G01 X2.93119 Y0.66475
G01 X2.93680 Y0.65914
G01 X2.94135 Y0.65274
G01 X2.94442 Y0.65007
G01 X2.94554 Y0.64929
G01 X2.94679 Y0.64870
G01 X2.94811 Y0.64835
G01 X2.95247 Y0.64770
G01 X2.95384 Y0.64782
G01 X2.95516 Y0.64818
G01 X2.95801 Y0.64922
G01 X2.96003 Y0.65030
G01 X2.96233 Y0.65249
G01 X2.96321 Y0.65354
G01 X2.96713 Y0.65916
G01 X2.97273 Y0.66476
G01 X2.97923 Y0.66931
G01 X2.98641 Y0.67266
G01 X2.99407 Y0.67471
G01 X3.00197 Y0.67540
G01 X3.00987 Y0.67471
G01 X3.01753 Y0.67266
G01 X3.02471 Y0.66931
G01 X3.03121 Y0.66476
G01 X3.03681 Y0.65916
G01 X3.04136 Y0.65275
G01 X3.04443 Y0.65009
G01 X3.04555 Y0.64930
G01 X3.04680 Y0.64872
G01 X3.04812 Y0.64837
G01 X3.05248 Y0.64772
G01 X3.05385 Y0.64784
G01 X3.05517 Y0.64819
G01 X3.05803 Y0.64923
G01 X3.06004 Y0.65032
G01 X3.06234 Y0.65251
G01 X3.06323 Y0.65356
G01 X3.06713 Y0.65916
G01 X3.07273 Y0.66476
G01 X3.07923 Y0.66931
G01 X3.08641 Y0.67266
G01 X3.09407 Y0.67471
G01 X3.10197 Y0.67540
G01 X3.10987 Y0.67471
G01 X3.11753 Y0.67266
G01 X3.12471 Y0.66931
G01 X3.13121 Y0.66476
G01 X3.13681 Y0.65916
G01 X3.14136 Y0.65275
G01 X3.14443 Y0.65009
G01 X3.14555 Y0.64930
G01 X3.14680 Y0.64872
G01 X3.14812 Y0.64837
G01 X3.15248 Y0.64772
G01 X3.15385 Y0.64784
G01 X3.15517 Y0.64819
G01 X3.15803 Y0.64923
G01 X3.16004 Y0.65032
G01 X3.16234 Y0.65251
G01 X3.16323 Y0.65356
G01 X3.16713 Y0.65916
G01 X3.17273 Y0.66476
G01 X3.17923 Y0.66931
G01 X3.18641 Y0.67266
G01 X3.19407 Y0.67471
G01 X3.20197 Y0.67540
G01 X3.20987 Y0.67471
G01 X3.21753 Y0.67266
G01 X3.22471 Y0.66931
G01 X3.23120 Y0.66476
G01 X3.23443 Y0.66152
G01 X3.23606 Y0.66027
G01 X3.23993 Y0.65817
G01 X3.24126 Y0.65782
G01 X3.24262 Y0.65770
G01 X3.24566 Y0.65770
G01 X3.24703 Y0.65782
G01 X3.24835 Y0.65817
G01 X3.24960 Y0.65875
G01 X3.25325 Y0.66098
G01 X3.25491 Y0.66283
G01 X3.25626 Y0.66493
G01 X3.25702 Y0.66644
G01 X3.25799 Y0.66913
G01 X3.26003 Y0.67187
G01 X3.26276 Y0.67391
G01 X3.26609 Y0.67518
G01 X3.33691 Y0.67526
G01 X3.33784 Y0.67511
G01 X3.34119 Y0.67393
G01 X3.34391 Y0.67187
G01 X3.34596 Y0.66913
G01 X3.34723 Y0.66580
G01 X3.34728 Y0.59499
G01 X3.34716 Y0.59405
G01 X3.34648 Y0.59203
G01 X3.34632 Y0.59102
G01 X3.34602 Y0.58662
G01 X3.34625 Y0.58527
G01 X3.34671 Y0.58397
G01 X3.34866 Y0.57999
G01 X3.34956 Y0.57891
G01 X3.68805 Y0.24039
G01 X3.68968 Y0.23914
G01 X3.69231 Y0.23762
G01 X3.69372 Y0.23698
G01 X3.69522 Y0.23663
G01 X3.69776 Y0.23636
G01 X5.13003 Y0.23636
G01 X5.13207 Y0.23663
G01 X5.13500 Y0.23742
G01 X5.13644 Y0.23796
G01 X5.13775 Y0.23878
G01 X5.13974 Y0.24039
G01 X5.27386 Y0.37451
G01 X5.27512 Y0.37614
G01 X5.27663 Y0.37877
G01 X5.27721 Y0.38001
G01 X5.27757 Y0.38134
G01 X5.27769 Y0.38271
G01 X5.27757 Y0.38711
G01 X5.27721 Y0.38844
G01 X5.27663 Y0.38968
G01 X5.27449 Y0.39323
G01 X5.27375 Y0.39405
G01 X5.27136 Y0.39587
G01 X5.26305 Y0.40010
G01 X5.25734 Y0.40441
G01 X5.25252 Y0.40970
G01 X5.24875 Y0.41579
G01 X5.24617 Y0.42246
G01 X5.24485 Y0.42949
G01 X5.24485 Y0.43665
G01 X5.24617 Y0.44368
G01 X5.24901 Y0.45116
G01 X5.24952 Y0.45520
G01 X5.24955 Y0.45657
G01 X5.24934 Y0.45793
G01 X5.24889 Y0.45923
G01 X5.24767 Y0.46200
G01 X5.24700 Y0.46321
G01 X5.24614 Y0.46427
G01 X5.24511 Y0.46518
G01 X5.24167 Y0.46759
G01 X5.23946 Y0.46836
G01 X5.23589 Y0.46888
G01 X5.23106 Y0.46888
G01 X5.22387 Y0.46941
G01 X5.21449 Y0.47155
G01 X5.20553 Y0.47507
G01 X5.19720 Y0.47988
G01 X5.18968 Y0.48588
G01 X5.18313 Y0.49293
G01 X5.17771 Y0.50088
G01 X5.17354 Y0.50955
G01 X5.17070 Y0.51875
G01 X5.16927 Y0.52826
G01 X5.16927 Y0.53788
G01 X5.17070 Y0.54739
G01 X5.17354 Y0.55659
G01 X5.17771 Y0.56526
G01 X5.18313 Y0.57321
G01 X5.18968 Y0.58026
G01 X5.19720 Y0.58626
G01 X5.20553 Y0.59107
G01 X5.21449 Y0.59459
G01 X5.22387 Y0.59673
G01 X5.23106 Y0.59725
G01 X5.23587 Y0.59726
G01 X5.24306 Y0.59673
G01 X5.25244 Y0.59459
G01 X5.26140 Y0.59107
G01 X5.26973 Y0.58626
G01 X5.27725 Y0.58026
G01 X5.28029 Y0.57708
G01 X5.28369 Y0.57486
G01 X5.28491 Y0.57423
G01 X5.28622 Y0.57383
G01 X5.29062 Y0.57354
G01 X5.29199 Y0.57361
G01 X5.29333 Y0.57391
G01 X5.29460 Y0.57445
G01 X5.29841 Y0.57659
G01 X5.29940 Y0.57751
G01 X5.30167 Y0.58061
G01 X5.30494 Y0.58600
G01 X5.30850 Y0.58958
G01 X5.31281 Y0.59224
G01 X5.31768 Y0.59388
G01 X5.32048 Y0.59411
G01 X5.40433 Y0.59414
G01 X5.40711 Y0.59383
G01 X5.41200 Y0.59226
G01 X5.41631 Y0.58958
G01 X5.41989 Y0.58599
G01 X5.42256 Y0.58167
G01 X5.42419 Y0.57681
G01 X5.42443 Y0.57401
G01 X5.42446 Y0.49213
G01 X5.42415 Y0.48934
G01 X5.42258 Y0.48446
G01 X5.41989 Y0.48015
G01 X5.41631 Y0.47656
G01 X5.41199 Y0.47390
G01 X5.40712 Y0.47227
G01 X5.40433 Y0.47203
G01 X5.39597 Y0.47203
G01 X5.39394 Y0.47176
G01 X5.38971 Y0.47050
G01 X5.38852 Y0.46982
G01 X5.38747 Y0.46893
G01 X5.38533 Y0.46679
G01 X5.38444 Y0.46574
G01 X5.38376 Y0.46455
G01 X5.38329 Y0.46326
G01 X5.38230 Y0.45931
G01 X5.38223 Y0.43593
G01 X5.38236 Y0.43369
G01 X5.38181 Y0.42997
G01 X5.38005 Y0.42547
G01 X5.37745 Y0.42182
G01 X5.37577 Y0.42033
G01 X5.15861 Y0.20317
G01 X5.15639 Y0.20075
G01 X5.15397 Y0.19725
G01 X5.15331 Y0.19604
G01 X5.15288 Y0.19474
G01 X5.15268 Y0.19338
G01 X5.15253 Y0.18898
G01 X5.15280 Y0.18763
G01 X5.15331 Y0.18636
G01 X5.15466 Y0.18364
G01 X5.15538 Y0.18247
G01 X5.15629 Y0.18144
G01 X5.15737 Y0.18059
G01 X5.15990 Y0.17892
G01 X5.16190 Y0.17797
G01 X5.16610 Y0.17731
G01 X6.02766 Y0.17731
G01 X6.02970 Y0.17758
G01 X6.03361 Y0.17869
G01 X6.03539 Y0.17972
G01 X6.03738 Y0.18133
G01 X6.23056 Y0.37451
G01 X6.23181 Y0.37614
G01 X6.23391 Y0.38001
G01 X6.23426 Y0.38134
G01 X6.23438 Y0.38271
G01 X6.23426 Y0.38711
G01 X6.23391 Y0.38844
G01 X6.23333 Y0.38968
G01 X6.23118 Y0.39323
G01 X6.23044 Y0.39405
G01 X6.22805 Y0.39587
G01 X6.21975 Y0.40010
G01 X6.21404 Y0.40441
G01 X6.20922 Y0.40970
G01 X6.20545 Y0.41579
G01 X6.20286 Y0.42246
G01 X6.20155 Y0.42949
G01 X6.20155 Y0.43665
G01 X6.20286 Y0.44368
G01 X6.20571 Y0.45116
G01 X6.20621 Y0.45520
G01 X6.20624 Y0.45657
G01 X6.20603 Y0.45793
G01 X6.20559 Y0.45923
G01 X6.20436 Y0.46200
G01 X6.20370 Y0.46321
G01 X6.20284 Y0.46427
G01 X6.20180 Y0.46518
G01 X6.19836 Y0.46759
G01 X6.19615 Y0.46836
G01 X6.19259 Y0.46888
G01 X6.18776 Y0.46888
G01 X6.18056 Y0.46941
G01 X6.17118 Y0.47155
G01 X6.16223 Y0.47507
G01 X6.15389 Y0.47988
G01 X6.14637 Y0.48588
G01 X6.13983 Y0.49293
G01 X6.13441 Y0.50088
G01 X6.13023 Y0.50955
G01 X6.12740 Y0.51875
G01 X6.12596 Y0.52826
G01 X6.12596 Y0.53788
G01 X6.12740 Y0.54739
G01 X6.13023 Y0.55659
G01 X6.13441 Y0.56526
G01 X6.13983 Y0.57321
G01 X6.14637 Y0.58026
G01 X6.15389 Y0.58626
G01 X6.16223 Y0.59107
G01 X6.17118 Y0.59459
G01 X6.18056 Y0.59673
G01 X6.18776 Y0.59725
G01 X6.19256 Y0.59726
G01 X6.19975 Y0.59673
G01 X6.20913 Y0.59459
G01 X6.21809 Y0.59107
G01 X6.22642 Y0.58626
G01 X6.23394 Y0.58026
G01 X6.23698 Y0.57708
G01 X6.24038 Y0.57486
G01 X6.24161 Y0.57423
G01 X6.24292 Y0.57383
G01 X6.24731 Y0.57354
G01 X6.24868 Y0.57361
G01 X6.25002 Y0.57391
G01 X6.25129 Y0.57445
G01 X6.25510 Y0.57659
G01 X6.25609 Y0.57751
G01 X6.25836 Y0.58061
G01 X6.26163 Y0.58600
G01 X6.26519 Y0.58958
G01 X6.26951 Y0.59224
G01 X6.27438 Y0.59388
G01 X6.27717 Y0.59411
G01 X6.36102 Y0.59414
G01 X6.36381 Y0.59383
G01 X6.36869 Y0.59226
G01 X6.37300 Y0.58958
G01 X6.37659 Y0.58599
G01 X6.37925 Y0.58167
G01 X6.38089 Y0.57681
G01 X6.38112 Y0.57401
G01 X6.38115 Y0.49213
G01 X6.38084 Y0.48934
G01 X6.37927 Y0.48446
G01 X6.37659 Y0.48015
G01 X6.37300 Y0.47656
G01 X6.36868 Y0.47390
G01 X6.36381 Y0.47227
G01 X6.36102 Y0.47203
G01 X6.35267 Y0.47203
G01 X6.35063 Y0.47176
G01 X6.34641 Y0.47050
G01 X6.34522 Y0.46982
G01 X6.34417 Y0.46893
G01 X6.34202 Y0.46679
G01 X6.34114 Y0.46574
G01 X6.34045 Y0.46455
G01 X6.33998 Y0.46326
G01 X6.33899 Y0.45931
G01 X6.33893 Y0.43593
G01 X6.33906 Y0.43369
G01 X6.33850 Y0.42997
G01 X6.33674 Y0.42547
G01 X6.33415 Y0.42182
G01 X6.33246 Y0.42033
G01 X6.05600 Y0.14385
G01 X6.05328 Y0.14073
G01 X6.05160 Y0.13819
G01 X6.05095 Y0.13699
G01 X6.05052 Y0.13569
G01 X6.05031 Y0.13433
G01 X6.05013 Y0.13130
G01 X6.05017 Y0.12993
G01 X6.05044 Y0.12858
G01 X6.05230 Y0.12459
G01 X6.05302 Y0.12342
G01 X6.05393 Y0.12239
G01 X6.05500 Y0.12154
G01 X6.05850 Y0.11932
G01 X6.06062 Y0.11866
G01 X6.06374 Y0.11825
G01 X6.92530 Y0.11825
G01 X6.92734 Y0.11852
G01 X6.93125 Y0.11964
G01 X6.93303 Y0.12067
G01 X6.93502 Y0.12228
G01 X7.18725 Y0.37451
G01 X7.18850 Y0.37614
G01 X7.19060 Y0.38001
G01 X7.19095 Y0.38134
G01 X7.19107 Y0.38271
G01 X7.19095 Y0.38711
G01 X7.19060 Y0.38844
G01 X7.19002 Y0.38968
G01 X7.18788 Y0.39323
G01 X7.18713 Y0.39405
G01 X7.18475 Y0.39587
G01 X7.17644 Y0.40010
G01 X7.17073 Y0.40441
G01 X7.16591 Y0.40970
G01 X7.16214 Y0.41579
G01 X7.15956 Y0.42246
G01 X7.15824 Y0.42949
G01 X7.15824 Y0.43665
G01 X7.15956 Y0.44368
G01 X7.16240 Y0.45116
G01 X7.16290 Y0.45520
G01 X7.16293 Y0.45657
G01 X7.16272 Y0.45793
G01 X7.16228 Y0.45923
G01 X7.16105 Y0.46200
G01 X7.16039 Y0.46321
G01 X7.15953 Y0.46427
G01 X7.15850 Y0.46518
G01 X7.15505 Y0.46759
G01 X7.15284 Y0.46836
G01 X7.14928 Y0.46888
G01 X7.14445 Y0.46888
G01 X7.13726 Y0.46941
G01 X7.12788 Y0.47155
G01 X7.11892 Y0.47507
G01 X7.11059 Y0.47988
G01 X7.10307 Y0.48588
G01 X7.09652 Y0.49293
G01 X7.09110 Y0.50088
G01 X7.08693 Y0.50955
G01 X7.08409 Y0.51875
G01 X7.08266 Y0.52826
G01 X7.08266 Y0.53788
G01 X7.08409 Y0.54739
G01 X7.08693 Y0.55659
G01 X7.09110 Y0.56526
G01 X7.09652 Y0.57321
G01 X7.10307 Y0.58026
G01 X7.11059 Y0.58626
G01 X7.11892 Y0.59107
G01 X7.12788 Y0.59459
G01 X7.13726 Y0.59673
G01 X7.14445 Y0.59725
G01 X7.14925 Y0.59725
G01 X7.15645 Y0.59673
G01 X7.16583 Y0.59459
G01 X7.17478 Y0.59107
G01 X7.18312 Y0.58626
G01 X7.19064 Y0.58026
G01 X7.19367 Y0.57708
G01 X7.19708 Y0.57486
G01 X7.19830 Y0.57423
G01 X7.19961 Y0.57383
G01 X7.20400 Y0.57354
G01 X7.20538 Y0.57361
G01 X7.20671 Y0.57391
G01 X7.20798 Y0.57445
G01 X7.21180 Y0.57659
G01 X7.21279 Y0.57751
G01 X7.21505 Y0.58061
G01 X7.21832 Y0.58600
G01 X7.22188 Y0.58958
G01 X7.22620 Y0.59224
G01 X7.23107 Y0.59388
G01 X7.23387 Y0.59411
G01 X7.31771 Y0.59411
G01 X7.32051 Y0.59388
G01 X7.32538 Y0.59224
G01 X7.32969 Y0.58958
G01 X7.33328 Y0.58599
G01 X7.33596 Y0.58168
G01 X7.33753 Y0.57680
G01 X7.33785 Y0.57401
G01 X7.33782 Y0.49213
G01 X7.34175 Y0.49193
G01 X7.34175 Y0.57421
G01 X7.34140 Y0.57763
G01 X7.33951 Y0.58334
G01 X7.33637 Y0.58843
G01 X7.33214 Y0.59267
G01 X7.32704 Y0.59581
G01 X7.32133 Y0.59770
G01 X7.31791 Y0.59805
G01 X7.23367 Y0.59805
G01 X7.23025 Y0.59770
G01 X7.22454 Y0.59581
G01 X7.21944 Y0.59267
G01 X7.21522 Y0.58844
G01 X7.21169 Y0.58265
G01 X7.20989 Y0.58017
G01 X7.20882 Y0.57935
G01 X7.20614 Y0.57793
G01 X7.20551 Y0.57766
G01 X7.20415 Y0.57747
G01 X7.20044 Y0.57768
G01 X7.19917 Y0.57819
G01 X7.19618 Y0.58011
G01 X7.19332 Y0.58315
G01 X7.18533 Y0.58951
G01 X7.17649 Y0.59462
G01 X7.16699 Y0.59835
G01 X7.15703 Y0.60062
G01 X7.14940 Y0.60119
G01 X7.14430 Y0.60119
G01 X7.13667 Y0.60062
G01 X7.12672 Y0.59835
G01 X7.11721 Y0.59462
G01 X7.10837 Y0.58951
G01 X7.10039 Y0.58315
G01 X7.09344 Y0.57566
G01 X7.08769 Y0.56723
G01 X7.08326 Y0.55803
G01 X7.08025 Y0.54827
G01 X7.07873 Y0.53817
G01 X7.07873 Y0.52796
G01 X7.08025 Y0.51787
G01 X7.08326 Y0.50811
G01 X7.08769 Y0.49891
G01 X7.09344 Y0.49048
G01 X7.10039 Y0.48299
G01 X7.10837 Y0.47663
G01 X7.11721 Y0.47152
G01 X7.12672 Y0.46779
G01 X7.13667 Y0.46552
G01 X7.14430 Y0.46495
G01 X7.14928 Y0.46495
G01 X7.15212 Y0.46448
G01 X7.15372 Y0.46379
G01 X7.15669 Y0.46155
G01 X7.15745 Y0.46041
G01 X7.15868 Y0.45764
G01 X7.15900 Y0.45631
G01 X7.15899 Y0.45562
G01 X7.15857 Y0.45209
G01 X7.15577 Y0.44476
G01 X7.15432 Y0.43701
G01 X7.15432 Y0.42913
G01 X7.15577 Y0.42138
G01 X7.15862 Y0.41403
G01 X7.16277 Y0.40733
G01 X7.16808 Y0.40151
G01 X7.17437 Y0.39675
G01 X7.18190 Y0.39300
G01 X7.18398 Y0.39157
G01 X7.18478 Y0.39080
G01 X7.18661 Y0.38771
G01 X7.18708 Y0.38643
G01 X7.18714 Y0.38271
G01 X7.18690 Y0.38136
G01 X7.18509 Y0.37811
G01 X7.18446 Y0.37729
G01 X6.93223 Y0.12506
G01 X6.93063 Y0.12379
G01 X6.92974 Y0.12328
G01 X6.92632 Y0.12233
G01 X6.92530 Y0.12219
G01 X6.06374 Y0.12219
G01 X6.06125 Y0.12254
G01 X6.06019 Y0.12287
G01 X6.05664 Y0.12525
G01 X6.05582 Y0.12635
G01 X6.05421 Y0.12970
G01 X6.05406 Y0.13106
G01 X6.05424 Y0.13409
G01 X6.05456 Y0.13542
G01 X6.05489 Y0.13602
G01 X6.05656 Y0.13856
G01 X6.05891 Y0.14120
G01 X6.33525 Y0.41754
G01 X6.33706 Y0.41917
G01 X6.33967 Y0.42271
G01 X6.34026 Y0.42376
G01 X6.34201 Y0.42799
G01 X6.34234 Y0.42915
G01 X6.34300 Y0.43350
G01 X6.34286 Y0.43593
G01 X6.34290 Y0.45880
G01 X6.34402 Y0.46288
G01 X6.34480 Y0.46400
G01 X6.34695 Y0.46615
G01 X6.34807 Y0.46693
G01 X6.35165 Y0.46796
G01 X6.35267 Y0.46809
G01 X6.36122 Y0.46809
G01 X6.36464 Y0.46844
G01 X6.37035 Y0.47033
G01 X6.37544 Y0.47347
G01 X6.37968 Y0.47771
G01 X6.38282 Y0.48280
G01 X6.38471 Y0.48851
G01 X6.38506 Y0.49193
G01 X6.38506 Y0.57421
G01 X6.38471 Y0.57763
G01 X6.38282 Y0.58334
G01 X6.37968 Y0.58843
G01 X6.37544 Y0.59267
G01 X6.37035 Y0.59581
G01 X6.36464 Y0.59770
G01 X6.36122 Y0.59805
G01 X6.27697 Y0.59805
G01 X6.27356 Y0.59770
G01 X6.26784 Y0.59581
G01 X6.26275 Y0.59267
G01 X6.25852 Y0.58844
G01 X6.25500 Y0.58265
G01 X6.25319 Y0.58017
G01 X6.25213 Y0.57935
G01 X6.24945 Y0.57793
G01 X6.24881 Y0.57766
G01 X6.24746 Y0.57747
G01 X6.24374 Y0.57768
G01 X6.24248 Y0.57819
G01 X6.23949 Y0.58011
G01 X6.23662 Y0.58315
G01 X6.22864 Y0.58951
G01 X6.21980 Y0.59462
G01 X6.21029 Y0.59835
G01 X6.20034 Y0.60062
G01 X6.19271 Y0.60119
G01 X6.18761 Y0.60119
G01 X6.17998 Y0.60062
G01 X6.17002 Y0.59835
G01 X6.16052 Y0.59462
G01 X6.15168 Y0.58951
G01 X6.14369 Y0.58315
G01 X6.13675 Y0.57566
G01 X6.13100 Y0.56723
G01 X6.12657 Y0.55803
G01 X6.12356 Y0.54827
G01 X6.12204 Y0.53817
G01 X6.12204 Y0.52797
G01 X6.12356 Y0.51787
G01 X6.12657 Y0.50811
G01 X6.13100 Y0.49891
G01 X6.13675 Y0.49048
G01 X6.14369 Y0.48299
G01 X6.15168 Y0.47663
G01 X6.16052 Y0.47152
G01 X6.17002 Y0.46779
G01 X6.17998 Y0.46552
G01 X6.18761 Y0.46495
G01 X6.19259 Y0.46495
G01 X6.19543 Y0.46448
G01 X6.19703 Y0.46379
G01 X6.20000 Y0.46155
G01 X6.20076 Y0.46041
G01 X6.20198 Y0.45764
G01 X6.20231 Y0.45631
G01 X6.20230 Y0.45562
G01 X6.20188 Y0.45209
G01 X6.19908 Y0.44476
G01 X6.19763 Y0.43701
G01 X6.19763 Y0.42913
G01 X6.19908 Y0.42138
G01 X6.20192 Y0.41403
G01 X6.20607 Y0.40733
G01 X6.21138 Y0.40150
G01 X6.21767 Y0.39675
G01 X6.22521 Y0.39300
G01 X6.22729 Y0.39157
G01 X6.22809 Y0.39080
G01 X6.22992 Y0.38771
G01 X6.23038 Y0.38643
G01 X6.23044 Y0.38271
G01 X6.23021 Y0.38136
G01 X6.22840 Y0.37811
G01 X6.22777 Y0.37729
G01 X6.03460 Y0.18412
G01 X6.03300 Y0.18285
G01 X6.03210 Y0.18233
G01 X6.02868 Y0.18138
G01 X6.02766 Y0.18125
G01 X5.16610 Y0.18125
G01 X5.16361 Y0.18160
G01 X5.16255 Y0.18193
G01 X5.15954 Y0.18388
G01 X5.15900 Y0.18430
G01 X5.15819 Y0.18540
G01 X5.15658 Y0.18876
G01 X5.15642 Y0.19011
G01 X5.15661 Y0.19315
G01 X5.15692 Y0.19447
G01 X5.15725 Y0.19508
G01 X5.15892 Y0.19761
G01 X5.16127 Y0.20025
G01 X5.37856 Y0.41754
G01 X5.38037 Y0.41917
G01 X5.38297 Y0.42271
G01 X5.38357 Y0.42376
G01 X5.38532 Y0.42799
G01 X5.38564 Y0.42915
G01 X5.38631 Y0.43350
G01 X5.38617 Y0.43593
G01 X5.38620 Y0.45880
G01 X5.38733 Y0.46288
G01 X5.38811 Y0.46400
G01 X5.39026 Y0.46615
G01 X5.39138 Y0.46693
G01 X5.39495 Y0.46796
G01 X5.39597 Y0.46809
G01 X5.40453 Y0.46809
G01 X5.40794 Y0.46844
G01 X5.41365 Y0.47033
G01 X5.41875 Y0.47347
G01 X5.42298 Y0.47771
G01 X5.42613 Y0.48280
G01 X5.42802 Y0.48851
G01 X5.42837 Y0.49193
G01 X5.42837 Y0.57421
G01 X5.42802 Y0.57763
G01 X5.42613 Y0.58334
G01 X5.42298 Y0.58843
G01 X5.41875 Y0.59267
G01 X5.41365 Y0.59581
G01 X5.40794 Y0.59770
G01 X5.40453 Y0.59805
G01 X5.32028 Y0.59805
G01 X5.31686 Y0.59770
G01 X5.31115 Y0.59581
G01 X5.30606 Y0.59267
G01 X5.30183 Y0.58844
G01 X5.29830 Y0.58265
G01 X5.29650 Y0.58017
G01 X5.29544 Y0.57935
G01 X5.29276 Y0.57793
G01 X5.29145 Y0.57751
G01 X5.29077 Y0.57747
G01 X5.28705 Y0.57768
G01 X5.28579 Y0.57819
G01 X5.28280 Y0.58011
G01 X5.27993 Y0.58315
G01 X5.27195 Y0.58951
G01 X5.26311 Y0.59462
G01 X5.25360 Y0.59835
G01 X5.24365 Y0.60062
G01 X5.23601 Y0.60119
G01 X5.23092 Y0.60119
G01 X5.22329 Y0.60062
G01 X5.21333 Y0.59835
G01 X5.20383 Y0.59462
G01 X5.19498 Y0.58951
G01 X5.18700 Y0.58315
G01 X5.18006 Y0.57566
G01 X5.17431 Y0.56723
G01 X5.16988 Y0.55803
G01 X5.16687 Y0.54827
G01 X5.16534 Y0.53817
G01 X5.16534 Y0.52797
G01 X5.16687 Y0.51787
G01 X5.16988 Y0.50811
G01 X5.17431 Y0.49891
G01 X5.18006 Y0.49048
G01 X5.18700 Y0.48299
G01 X5.19498 Y0.47663
G01 X5.20383 Y0.47152
G01 X5.21333 Y0.46779
G01 X5.22329 Y0.46552
G01 X5.23092 Y0.46495
G01 X5.23589 Y0.46495
G01 X5.23874 Y0.46448
G01 X5.24034 Y0.46379
G01 X5.24330 Y0.46155
G01 X5.24406 Y0.46041
G01 X5.24529 Y0.45764
G01 X5.24562 Y0.45631
G01 X5.24560 Y0.45562
G01 X5.24519 Y0.45209
G01 X5.24238 Y0.44476
G01 X5.24093 Y0.43701
G01 X5.24093 Y0.42913
G01 X5.24238 Y0.42138
G01 X5.24523 Y0.41403
G01 X5.24938 Y0.40733
G01 X5.25469 Y0.40150
G01 X5.26098 Y0.39675
G01 X5.26852 Y0.39300
G01 X5.27059 Y0.39157
G01 X5.27139 Y0.39080
G01 X5.27322 Y0.38771
G01 X5.27369 Y0.38643
G01 X5.27369 Y0.38202
G01 X5.27322 Y0.38074
G01 X5.27171 Y0.37811
G01 X5.27108 Y0.37729
G01 X5.13696 Y0.24317
G01 X5.13470 Y0.24149
G01 X5.13105 Y0.24044
G01 X5.13003 Y0.24030
G01 X3.69776 Y0.24030
G01 X3.69498 Y0.24071
G01 X3.69165 Y0.24255
G01 X3.69083 Y0.24317
G01 X3.35190 Y0.58224
G01 X3.35029 Y0.58561
G01 X3.34994 Y0.58693
G01 X3.35024 Y0.59064
G01 X3.35103 Y0.59314
G01 X3.35120 Y0.59478
G01 X3.35120 Y0.66506
G01 X3.35103 Y0.66670
G01 X3.34942 Y0.67102
G01 X3.34670 Y0.67465
G01 X3.34307 Y0.67737
G01 X3.33875 Y0.67898
G01 X3.33711 Y0.67915
G01 X3.26683 Y0.67915
G01 X3.26519 Y0.67898
G01 X3.26087 Y0.67737
G01 X3.25724 Y0.67465
G01 X3.25452 Y0.67102
G01 X3.25316 Y0.66742
G01 X3.25160 Y0.66496
G01 X3.25077 Y0.66403
G01 X3.24701 Y0.66187
G01 X3.24566 Y0.66163
G01 X3.24262 Y0.66163
G01 X3.24128 Y0.66187
G01 X3.23760 Y0.66397
G01 X3.23374 Y0.66778
G01 X3.22668 Y0.67272
G01 X3.21887 Y0.67636
G01 X3.21055 Y0.67859
G01 X3.20197 Y0.67934
G01 X3.19339 Y0.67859
G01 X3.18507 Y0.67636
G01 X3.17726 Y0.67272
G01 X3.17020 Y0.66778
G01 X3.16411 Y0.66169
G01 X3.16000 Y0.65582
G01 X3.15769 Y0.65348
G01 X3.15668 Y0.65293
G01 X3.15383 Y0.65190
G01 X3.15248 Y0.65166
G01 X3.14881 Y0.65224
G01 X3.14752 Y0.65271
G01 X3.14696 Y0.65311
G01 X3.14426 Y0.65541
G01 X3.13983 Y0.66169
G01 X3.13374 Y0.66778
G01 X3.12668 Y0.67272
G01 X3.11887 Y0.67636
G01 X3.11055 Y0.67859
G01 X3.10197 Y0.67934
G01 X3.09339 Y0.67859
G01 X3.08507 Y0.67636
G01 X3.07726 Y0.67272
G01 X3.07020 Y0.66778
G01 X3.06411 Y0.66169
G01 X3.06000 Y0.65582
G01 X3.05812 Y0.65385
G01 X3.05668 Y0.65293
G01 X3.05383 Y0.65190
G01 X3.05248 Y0.65166
G01 X3.04881 Y0.65224
G01 X3.04752 Y0.65271
G01 X3.04696 Y0.65311
G01 X3.04426 Y0.65541
G01 X3.03983 Y0.66169
G01 X3.03374 Y0.66778
G01 X3.02668 Y0.67272
G01 X3.01887 Y0.67636
G01 X3.01055 Y0.67859
G01 X3.00197 Y0.67934
G01 X2.99339 Y0.67859
G01 X2.98507 Y0.67636
G01 X2.97726 Y0.67272
G01 X2.97020 Y0.66778
G01 X2.96411 Y0.66169
G01 X2.95999 Y0.65580
G01 X2.95811 Y0.65383
G01 X2.95667 Y0.65292
G01 X2.95381 Y0.65188
G01 X2.95247 Y0.65164
G01 X2.94880 Y0.65223
G01 X2.94751 Y0.65270
G01 X2.94695 Y0.65309
G01 X2.94425 Y0.65540
G01 X2.93981 Y0.66167
G01 X2.93372 Y0.66776
G01 X2.92667 Y0.67270
G01 X2.91887 Y0.67634
G01 X2.91575 Y0.67718
G01 X2.91575 Y0.66445
G01 X2.92065 Y0.66233
G01 X2.92668 Y0.65797
G01 X2.93197 Y0.65223
G01 X2.93614 Y0.64513
G01 X2.93862 Y0.63729
G01 X2.93937 Y0.62992
G01 X2.93845 Y0.62175
G01 X2.93614 Y0.61471
G01 X2.93245 Y0.60828
G01 X2.92729 Y0.60242
G01 X2.92067 Y0.59753
G01 X2.91353 Y0.59435
G01 X2.90588 Y0.59272
G01 X2.89765 Y0.59279
G01 X2.89003 Y0.59450
G01 X2.88327 Y0.59753
G01 X2.87726 Y0.60187
G01 X2.87171 Y0.60794
G01 X2.86799 Y0.61434
G01 X2.86731 Y0.61614
G01 X2.85471 Y0.61614
G01 X2.85555 Y0.61302
G01 X2.85919 Y0.60522
G01 X2.86413 Y0.59817
G01 X2.87022 Y0.59208
G01 X2.87727 Y0.58714
G01 X2.88507 Y0.58350
G01 X2.89343 Y0.58126
G01 X2.89827 Y0.58070
G01 X2.89928 Y0.58030
G01 X2.90191 Y0.57878
G01 X2.90296 Y0.57790
G01 X2.90487 Y0.57471
G01 X2.90534 Y0.57342
G01 X2.90540 Y0.57274
G01 X2.90540 Y0.56970
G01 X2.90516 Y0.56836
G01 X2.90306 Y0.56468
G01 X2.51271 Y0.17428
G01 X2.51046 Y0.17260
G01 X2.50680 Y0.17154
G01 X2.50578 Y0.17140
G01 X1.71942 Y0.17140
G01 X1.71688 Y0.17174
G01 X1.71593 Y0.17213
G01 X1.71330 Y0.17365
G01 X1.71249 Y0.17428
G01 X1.43463 Y0.45224
G01 X1.43396 Y0.45312
G01 X1.43265 Y0.45646
G01 X1.43239 Y0.45781
G01 X1.43244 Y0.45849
G01 X1.43310 Y0.46215
G01 X1.43376 Y0.46335
G01 X1.43568 Y0.46570
G01 X1.43671 Y0.46660
G01 X1.44017 Y0.46798
G01 X1.44338 Y0.46844
G01 X1.44909 Y0.47033
G01 X1.45418 Y0.47347
G01 X1.45842 Y0.47771
G01 X1.46156 Y0.48280
G01 X1.46345 Y0.48851
G01 X1.46380 Y0.49193
G01 X1.46380 Y0.57421
G01 X1.46345 Y0.57763
G01 X1.46156 Y0.58334
G01 X1.45842 Y0.58843
G01 X1.45418 Y0.59267
G01 X1.44909 Y0.59581
G01 X1.44338 Y0.59770
G01 X1.43996 Y0.59805
G01 X1.35571 Y0.59805
G01 X1.35230 Y0.59770
G01 X1.34659 Y0.59581
G01 X1.34149 Y0.59267
G01 X1.33726 Y0.58844
G01 X1.33374 Y0.58265
G01 X1.33193 Y0.58017
G01 X1.33144 Y0.57971
G01 X1.32756 Y0.57766
G01 X1.32620 Y0.57747
G01 X1.32317 Y0.57759
G01 X1.32183 Y0.57788
G01 X1.31823 Y0.58011
G01 X1.31536 Y0.58315
G01 X1.30738 Y0.58951
G01 X1.29854 Y0.59462
G01 X1.28903 Y0.59835
G01 X1.27908 Y0.60062
G01 X1.27145 Y0.60119
G01 X1.26635 Y0.60119
G01 X1.25872 Y0.60062
G01 X1.24876 Y0.59835
G01 X1.23926 Y0.59462
G01 X1.23042 Y0.58951
G01 X1.22243 Y0.58315
G01 X1.21549 Y0.57566
G01 X1.20974 Y0.56723
G01 X1.20531 Y0.55803
G01 X1.20230 Y0.54827
G01 X1.20078 Y0.53817
G01 X1.20078 Y0.52797
G01 X1.20230 Y0.51787
G01 X1.20531 Y0.50811
G01 X1.20974 Y0.49891
G01 X1.21549 Y0.49048
G01 X1.22243 Y0.48299
G01 X1.23042 Y0.47663
G01 X1.23926 Y0.47152
G01 X1.24876 Y0.46779
G01 X1.25872 Y0.46552
G01 X1.26635 Y0.46495
G01 X1.27133 Y0.46495
G01 X1.27417 Y0.46448
G01 X1.27577 Y0.46379
G01 X1.27822 Y0.46200
G01 X1.27917 Y0.46101
G01 X1.28072 Y0.45764
G01 X1.28105 Y0.45631
G01 X1.28104 Y0.45562
G01 X1.28062 Y0.45209
G01 X1.27782 Y0.44476
G01 X1.27637 Y0.43701
G01 X1.27637 Y0.42913
G01 X1.27782 Y0.42138
G01 X1.28066 Y0.41403
G01 X1.28481 Y0.40733
G01 X1.29012 Y0.40150
G01 X1.29641 Y0.39675
G01 X1.30347 Y0.39324
G01 X1.31105 Y0.39108
G01 X1.31693 Y0.39054
G01 X1.32087 Y0.39054
G01 X1.32675 Y0.39108
G01 X1.33433 Y0.39324
G01 X1.34139 Y0.39675
G01 X1.34768 Y0.40150
G01 X1.35299 Y0.40733
G01 X1.35713 Y0.41403
G01 X1.35998 Y0.42138
G01 X1.36143 Y0.42913
G01 X1.36146 Y0.43519
G01 X1.36228 Y0.43874
G01 X1.36294 Y0.43982
G01 X1.36539 Y0.44262
G01 X1.36658 Y0.44329
G01 X1.36944 Y0.44431
G01 X1.37010 Y0.44449
G01 X1.37147 Y0.44448
G01 X1.37446 Y0.44393
G01 X1.37574 Y0.44345
G01 X1.37898 Y0.44073
G01 X1.37992 Y0.43943
G01 X1.38168 Y0.43785
G01 X1.68805 Y0.13148
G01 X1.68967 Y0.12967
G01 X1.69322 Y0.12707
G01 X1.69427 Y0.12647
G01 X1.69850 Y0.12472
G01 X1.69966 Y0.12440
G01 X1.70401 Y0.12373
G01 X1.70644 Y0.12387
G01 X2.51876 Y0.12387
G01 X2.52119 Y0.12373
G01 X2.52554 Y0.12440
G01 X2.52670 Y0.12472
G01 X2.53093 Y0.12647
G01 X2.53198 Y0.12707
G01 X2.53553 Y0.12967
G01 X2.53715 Y0.13148
G01 X2.98428 Y0.57862
G01 X2.98510 Y0.57924
G01 X2.98773 Y0.58076
G01 X2.98896 Y0.58122
G01 X2.99280 Y0.58132
G01 X3.00197 Y0.58050
G01 X3.01055 Y0.58125
G01 X3.01887 Y0.58348
G01 X3.02668 Y0.58712
G01 X3.03374 Y0.59206
G01 X3.03983 Y0.59815
G01 X3.04394 Y0.60403
G01 X3.04625 Y0.60637
G01 X3.04726 Y0.60691
G01 X3.05078 Y0.60812
G01 X3.05214 Y0.60812
G01 X3.05513 Y0.60760
G01 X3.05642 Y0.60713
G01 X3.05968 Y0.60443
G01 X3.06411 Y0.59815
G01 X3.07020 Y0.59206
G01 X3.07436 Y0.58912
G01 X3.07638 Y0.58695
G01 X3.07707 Y0.58590
G01 X3.07807 Y0.58238
G01 X3.07820 Y0.58136
G01 X3.07820 Y0.56313
G01 X3.07807 Y0.56070
G01 X3.07873 Y0.55635
G01 X3.07905 Y0.55519
G01 X3.08080 Y0.55096
G01 X3.08140 Y0.54991
G01 X3.08401 Y0.54636
G01 X3.08582 Y0.54474
G01 X3.54829 Y0.08227
G01 X3.54991 Y0.08046
G01 X3.55345 Y0.07785
G01 X3.55451 Y0.07726
G01 X3.55873 Y0.07551
G01 X3.55990 Y0.07518
G01 X3.56425 Y0.07452
G01 X3.56667 Y0.07466
G01 X6.93828 Y0.07466
G01 X6.94071 Y0.07452
G01 X6.94506 Y0.07518
G01 X6.94623 Y0.07551
G01 X6.95045 Y0.07726
G01 X6.95150 Y0.07785
G01 X6.95505 Y0.08046
G01 X6.95667 Y0.08227
G01 X7.29194 Y0.41754
G01 X7.29375 Y0.41917
G01 X7.29636 Y0.42271
G01 X7.29695 Y0.42376
G01 X7.29870 Y0.42799
G01 X7.29903 Y0.42915
G01 X7.29969 Y0.43350
G01 X7.29956 Y0.43593
G01 X7.29956 Y0.45829
G01 X7.30048 Y0.46224
G01 X7.30106 Y0.46348
G01 X7.30364 Y0.46615
G01 X7.30476 Y0.46693
G01 X7.30541 Y0.46717
G01 X7.30885 Y0.46806
G01 X7.31791 Y0.46809
G01 X7.32133 Y0.46844
G01 X7.32704 Y0.47033
G01 X7.33214 Y0.47347
G01 X7.33637 Y0.47771
G01 X7.33951 Y0.48280
G01 X7.34140 Y0.48851
G01 X7.34175 Y0.49193
G01 X7.32992 Y0.49370
G01 X7.32990 Y0.57285
G01 X7.32962 Y0.57530
G01 X7.32873 Y0.57805
G01 X7.32729 Y0.58054
G01 X7.32504 Y0.58294
G01 X7.32303 Y0.58437
G01 X7.32040 Y0.58555
G01 X7.31799 Y0.58608
G01 X7.31635 Y0.58622
G01 X7.23543 Y0.58622
G01 X7.23359 Y0.58608
G01 X7.23118 Y0.58555
G01 X7.22854 Y0.58437
G01 X7.22621 Y0.58268
G01 X7.22429 Y0.58054
G01 X7.22285 Y0.57805
G01 X7.22196 Y0.57530
G01 X7.22165 Y0.57244
G01 X7.22165 Y0.49370
G01 X7.22196 Y0.49084
G01 X7.22303 Y0.48773
G01 X7.22429 Y0.48560
G01 X7.22592 Y0.48375
G01 X7.22854 Y0.48177
G01 X7.23157 Y0.48049
G01 X7.23440 Y0.47997
G01 X7.26385 Y0.47993
G01 X7.26385 Y0.43995
G01 X6.93426 Y0.11036
G01 X3.57069 Y0.11036
G01 X3.11391 Y0.56715
G01 X3.11391 Y0.59450
G01 X3.12102 Y0.59775
G01 X3.12700 Y0.60213
G01 X3.13197 Y0.60762
G01 X3.13614 Y0.61471
G01 X3.13862 Y0.62255
G01 X3.13937 Y0.62992
G01 X3.13862 Y0.63729
G01 X3.13629 Y0.64475
G01 X3.13223 Y0.65190
G01 X3.12729 Y0.65742
G01 X3.12030 Y0.66250
G01 X3.11353 Y0.66549
G01 X3.10547 Y0.66714
G01 X3.09806 Y0.66712
G01 X3.09041 Y0.66549
G01 X3.08327 Y0.66231
G01 X3.07694 Y0.65772
G01 X3.07171 Y0.65190
G01 X3.06765 Y0.64475
G01 X3.06532 Y0.63729
G01 X3.06457 Y0.62992
G01 X3.06532 Y0.62255
G01 X3.06780 Y0.61471
G01 X3.07197 Y0.60762
G01 X3.07694 Y0.60213
G01 X3.08292 Y0.59775
G01 X3.09003 Y0.59449
G01 X3.09005 Y0.56182
G01 X3.09026 Y0.55988
G01 X3.09111 Y0.55729
G01 X3.09227 Y0.55526
G01 X3.09327 Y0.55405
G01 X3.55731 Y0.08998
G01 X3.55980 Y0.08811
G01 X3.56090 Y0.08755
G01 X3.56373 Y0.08666
G01 X3.56575 Y0.08649
G01 X6.93921 Y0.08649
G01 X6.94115 Y0.08666
G01 X6.94413 Y0.08756
G01 X6.94615 Y0.08873
G01 X6.94765 Y0.08998
G01 X7.28463 Y0.42703
G01 X7.28635 Y0.42945
G01 X7.28703 Y0.43103
G01 X7.28773 Y0.43500
G01 X7.28773 Y0.47992
G01 X7.31614 Y0.47992
G01 X7.31799 Y0.48006
G01 X7.32040 Y0.48059
G01 X7.32338 Y0.48199
G01 X7.32536 Y0.48346
G01 X7.32729 Y0.48560
G01 X7.32873 Y0.48810
G01 X7.32951 Y0.49044
G01 X7.32992 Y0.49370
G01 X7.33386 Y0.49370
G01 X7.33386 Y0.57244
G01 X7.33360 Y0.57531
G01 X7.33326 Y0.57692
G01 X7.33195 Y0.58038
G01 X7.33048 Y0.58285
G01 X7.32795 Y0.58564
G01 X7.32530 Y0.58759
G01 X7.32239 Y0.58900
G01 X7.32082 Y0.58950
G01 X7.31758 Y0.59009
G01 X7.23399 Y0.59009
G01 X7.23027 Y0.58937
G01 X7.22676 Y0.58788
G01 X7.22363 Y0.58565
G01 X7.22162 Y0.58349
G01 X7.21962 Y0.58038
G01 X7.21895 Y0.57888
G01 X7.21810 Y0.57612
G01 X7.21772 Y0.57244
G01 X7.21772 Y0.49370
G01 X7.21798 Y0.49083
G01 X7.21832 Y0.48922
G01 X7.21962 Y0.48576
G01 X7.22110 Y0.48329
G01 X7.22300 Y0.48112
G01 X7.22422 Y0.48002
G01 X7.22658 Y0.47836
G01 X7.22996 Y0.47685
G01 X7.23277 Y0.47621
G01 X7.23439 Y0.47604
G01 X7.25991 Y0.47600
G01 X7.26107 Y0.47714
G01 X7.25991 Y0.47600
G01 X7.25991 Y0.44158
G01 X7.26021 Y0.44146
G01 X7.25991 Y0.44158
G01 X6.93263 Y0.11430
G01 X6.93276 Y0.11400
G01 X6.93263 Y0.11430
G01 X3.57232 Y0.11430
G01 X3.57220 Y0.11400
G01 X3.57232 Y0.11430
G01 X3.11784 Y0.56878
G01 X3.11754 Y0.56866
G01 X3.11784 Y0.56878
G01 X3.11784 Y0.59194
G01 X3.11722 Y0.59234
G01 X3.11784 Y0.59194
G01 X3.12190 Y0.59375
G01 X3.12333 Y0.59457
G01 X3.12963 Y0.59920
G01 X3.13489 Y0.60498
G01 X3.13586 Y0.60631
G01 X3.13973 Y0.61311
G01 X3.14219 Y0.62053
G01 X3.14253 Y0.62214
G01 X3.14331 Y0.62992
G01 X3.14253 Y0.63770
G01 X3.14219 Y0.63931
G01 X3.13973 Y0.64673
G01 X3.13586 Y0.65353
G01 X3.13489 Y0.65486
G01 X3.13021 Y0.66006
G01 X3.12899 Y0.66116
G01 X3.12264 Y0.66572
G01 X3.11551 Y0.66894
G01 X3.11395 Y0.66945
G01 X3.10710 Y0.67090
G01 X3.10547 Y0.67108
G01 X3.09741 Y0.67100
G01 X3.08920 Y0.66924
G01 X3.08130 Y0.66572
G01 X3.07431 Y0.66064
G01 X3.06834 Y0.65394
G01 X3.06458 Y0.64747
G01 X3.06391 Y0.64597
G01 X3.06153 Y0.63852
G01 X3.06067 Y0.63074
G01 X3.06067 Y0.62910
G01 X3.06141 Y0.62214
G01 X3.06175 Y0.62053
G01 X3.06420 Y0.61311
G01 X3.06808 Y0.60631
G01 X3.06904 Y0.60498
G01 X3.07431 Y0.59920
G01 X3.08061 Y0.59457
G01 X3.08203 Y0.59375
G01 X3.08610 Y0.59194
G01 X3.08671 Y0.59234
G01 X3.08610 Y0.59194
G01 X3.08613 Y0.56143
G01 X3.08640 Y0.55911
G01 X3.08704 Y0.55686
G01 X3.08763 Y0.55543
G01 X3.08837 Y0.55405
G01 X3.09023 Y0.55155
G01 X3.55452 Y0.08720
G01 X3.55749 Y0.08493
G01 X3.55968 Y0.08381
G01 X3.56296 Y0.08280
G01 X3.56575 Y0.08255
G01 X6.93921 Y0.08255
G01 X6.94154 Y0.08274
G01 X6.94456 Y0.08350
G01 X6.94598 Y0.08409
G01 X6.94865 Y0.08569
G01 X6.95043 Y0.08720
G01 X7.28701 Y0.42378
G01 X7.28979 Y0.42752
G01 X7.29067 Y0.42952
G01 X7.29117 Y0.43130
G01 X7.29166 Y0.43500
G01 X7.29166 Y0.47598
G01 X7.29052 Y0.47713
G01 X7.29166 Y0.47598
G01 X7.31655 Y0.47600
G01 X7.31881 Y0.47621
G01 X7.32192 Y0.47697
G01 X7.32483 Y0.47827
G01 X7.32736 Y0.48002
G01 X7.32858 Y0.48112
G01 X7.33048 Y0.48329
G01 X7.33233 Y0.48649
G01 X7.33326 Y0.48922
G01 X7.33360 Y0.49083
G01 X7.33386 Y0.49370
G04 P0 ( dwell for no time -- G64 should not smooth over this point )
G00 Z0.07874 ( retract )

G00 X7.08386 Y0.43307 ( rapid move to begin. )
G01 F17.71654
( Mill infeed pass 1/1 )
G01 Z-0.00500
G04 P0 ( dwell for no time -- G64 should not smooth over this point )
G01 F35.43307
G01 X7.08386 Y0.43307
G01 X7.08312 Y0.44443
G01 X7.08090 Y0.45559
G01 X7.07724 Y0.46637
G01 X7.07220 Y0.47658
G01 X7.06588 Y0.48604
G01 X7.05838 Y0.49460
G01 X7.04982 Y0.50210
G01 X7.04036 Y0.50842
G01 X7.03015 Y0.51345
G01 X7.01937 Y0.51711
G01 X7.00821 Y0.51933
G01 X6.99969 Y0.51989
G01 X6.99401 Y0.51989
G01 X6.98549 Y0.51933
G01 X6.97433 Y0.51711
G01 X6.96355 Y0.51345
G01 X6.95335 Y0.50842
G01 X6.94388 Y0.50210
G01 X6.93533 Y0.49460
G01 X6.92782 Y0.48604
G01 X6.92150 Y0.47658
G01 X6.91647 Y0.46637
G01 X6.91281 Y0.45559
G01 X6.91059 Y0.44443
G01 X6.90984 Y0.43307
G01 X6.91059 Y0.42171
G01 X6.91281 Y0.41055
G01 X6.91647 Y0.39977
G01 X6.92150 Y0.38956
G01 X6.92782 Y0.38010
G01 X6.93533 Y0.37155
G01 X6.94388 Y0.36404
G01 X6.95335 Y0.35772
G01 X6.96355 Y0.35268
G01 X6.97433 Y0.34903
G01 X6.98549 Y0.34680
G01 X6.99401 Y0.34625
G01 X6.99969 Y0.34625
G01 X7.00821 Y0.34680
G01 X7.01937 Y0.34903
G01 X7.03015 Y0.35268
G01 X7.04036 Y0.35772
G01 X7.04982 Y0.36404
G01 X7.05838 Y0.37155
G01 X7.06588 Y0.38010
G01 X7.07220 Y0.38956
G01 X7.07724 Y0.39977
G01 X7.08090 Y0.41055
G01 X7.08312 Y0.42171
G01 X7.08386 Y0.43307
G01 X7.07992 Y0.43307
G01 X7.07921 Y0.42223
G01 X7.07709 Y0.41157
G01 X7.07360 Y0.40128
G01 X7.06879 Y0.39153
G01 X7.06276 Y0.38250
G01 X7.05559 Y0.37433
G01 X7.04742 Y0.36716
G01 X7.03839 Y0.36113
G01 X7.02864 Y0.35632
G01 X7.01835 Y0.35283
G01 X7.00770 Y0.35071
G01 X6.99957 Y0.35018
G01 X6.99414 Y0.35019
G01 X6.98601 Y0.35070
G01 X6.97535 Y0.35284
G01 X6.96506 Y0.35633
G01 X6.95532 Y0.36113
G01 X6.94629 Y0.36717
G01 X6.93812 Y0.37433
G01 X6.93095 Y0.38250
G01 X6.92492 Y0.39154
G01 X6.92011 Y0.40128
G01 X6.91662 Y0.41157
G01 X6.91450 Y0.42223
G01 X6.91379 Y0.43307
G01 X6.91450 Y0.44391
G01 X6.91662 Y0.45457
G01 X6.92011 Y0.46486
G01 X6.92492 Y0.47460
G01 X6.93095 Y0.48364
G01 X6.93812 Y0.49180
G01 X6.94629 Y0.49897
G01 X6.95532 Y0.50501
G01 X6.96506 Y0.50981
G01 X6.97535 Y0.51330
G01 X6.98601 Y0.51542
G01 X6.99414 Y0.51596
G01 X6.99957 Y0.51596
G01 X7.00770 Y0.51543
G01 X7.01835 Y0.51331
G01 X7.02864 Y0.50982
G01 X7.03839 Y0.50501
G01 X7.04742 Y0.49898
G01 X7.05559 Y0.49181
G01 X7.06276 Y0.48364
G01 X7.06879 Y0.47461
G01 X7.07360 Y0.46486
G01 X7.07709 Y0.45457
G01 X7.07921 Y0.44391
G01 X7.07992 Y0.43307
G04 P0 ( dwell for no time -- G64 should not smooth over this point )
G00 Z0.07874 ( retract )

G00 X6.96104 Y0.62826 ( rapid move to begin. )
G01 F17.71654
( Mill infeed pass 1/1 )
G01 Z-0.00500
G04 P0 ( dwell for no time -- G64 should not smooth over this point )
G01 F35.43307
G01 X6.96104 Y0.62826
G01 X6.96105 Y0.63788
G01 X6.95961 Y0.64740
G01 X6.95678 Y0.65659
G01 X6.95260 Y0.66526
G01 X6.94718 Y0.67321
G01 X6.94064 Y0.68026
G01 X6.93312 Y0.68626
G01 X6.92478 Y0.69107
G01 X6.91583 Y0.69459
G01 X6.90645 Y0.69673
G01 X6.89925 Y0.69725
G01 X6.89445 Y0.69725
G01 X6.88726 Y0.69673
G01 X6.87788 Y0.69459
G01 X6.86892 Y0.69107
G01 X6.86059 Y0.68626
G01 X6.85307 Y0.68025
G01 X6.84927 Y0.67624
G01 X6.84601 Y0.67408
G01 X6.84482 Y0.67345
G01 X6.84354 Y0.67303
G01 X6.83918 Y0.67266
G01 X6.83781 Y0.67270
G01 X6.83647 Y0.67298
G01 X6.83248 Y0.67485
G01 X6.83131 Y0.67557
G01 X6.83028 Y0.67648
G01 X6.82943 Y0.67756
G01 X6.82776 Y0.68010
G01 X6.82433 Y0.68598
G01 X6.82074 Y0.68956
G01 X6.81644 Y0.69224
G01 X6.81156 Y0.69381
G01 X6.80878 Y0.69412
G01 X6.78457 Y0.69409
G01 X6.78341 Y0.69525
G01 X6.78457 Y0.69409
G01 X6.78457 Y0.69014
G01 X6.78342 Y0.68900
G01 X6.78457 Y0.69014
G01 X6.80825 Y0.69010
G01 X6.80987 Y0.68993
G01 X6.81268 Y0.68929
G01 X6.81606 Y0.68778
G01 X6.81842 Y0.68612
G01 X6.81964 Y0.68502
G01 X6.82154 Y0.68285
G01 X6.82302 Y0.68038
G01 X6.82369 Y0.67888
G01 X6.82454 Y0.67612
G01 X6.82492 Y0.67244
G01 X6.82492 Y0.59370
G01 X6.82454 Y0.59002
G01 X6.82339 Y0.58649
G01 X6.82154 Y0.58329
G01 X6.81906 Y0.58053
G01 X6.81606 Y0.57836
G01 X6.81345 Y0.57715
G01 X6.81188 Y0.57664
G01 X6.80987 Y0.57621
G01 X6.80721 Y0.57598
G01 X6.78457 Y0.57598
G01 X6.78342 Y0.57713
G01 X6.78457 Y0.57598
G01 X6.78457 Y0.57205
G01 X6.78341 Y0.57089
G01 X6.78457 Y0.57205
G01 X6.80878 Y0.57202
G01 X6.81156 Y0.57233
G01 X6.81644 Y0.57390
G01 X6.82074 Y0.57658
G01 X6.82430 Y0.58014
G01 X6.82918 Y0.58825
G01 X6.83002 Y0.58939
G01 X6.83105 Y0.59036
G01 X6.83224 Y0.59113
G01 X6.83619 Y0.59308
G01 X6.83753 Y0.59339
G01 X6.83890 Y0.59346
G01 X6.84329 Y0.59318
G01 X6.84461 Y0.59277
G01 X6.84583 Y0.59214
G01 X6.84923 Y0.58993
G01 X6.85307 Y0.58589
G01 X6.86059 Y0.57988
G01 X6.86892 Y0.57507
G01 X6.87788 Y0.57155
G01 X6.88726 Y0.56941
G01 X6.89445 Y0.56888
G01 X6.89925 Y0.56888
G01 X6.90645 Y0.56941
G01 X6.91583 Y0.57155
G01 X6.92478 Y0.57507
G01 X6.93312 Y0.57988
G01 X6.94064 Y0.58588
G01 X6.94718 Y0.59293
G01 X6.95260 Y0.60088
G01 X6.95678 Y0.60955
G01 X6.95961 Y0.61874
G01 X6.96104 Y0.62826
G01 X6.96497 Y0.62796
G01 X6.96497 Y0.63818
G01 X6.96345 Y0.64827
G01 X6.96044 Y0.65803
G01 X6.95601 Y0.66723
G01 X6.95026 Y0.67566
G01 X6.94332 Y0.68315
G01 X6.93533 Y0.68951
G01 X6.92649 Y0.69462
G01 X6.91699 Y0.69835
G01 X6.90703 Y0.70062
G01 X6.89940 Y0.70119
G01 X6.89430 Y0.70119
G01 X6.88667 Y0.70062
G01 X6.87672 Y0.69835
G01 X6.86721 Y0.69462
G01 X6.85837 Y0.68951
G01 X6.85039 Y0.68315
G01 X6.84674 Y0.67926
G01 X6.84388 Y0.67739
G01 X6.84265 Y0.67687
G01 X6.83895 Y0.67659
G01 X6.83827 Y0.67661
G01 X6.83696 Y0.67700
G01 X6.83424 Y0.67837
G01 X6.83315 Y0.67919
G01 X6.83105 Y0.68226
G01 X6.83056 Y0.68333
G01 X6.82742 Y0.68842
G01 X6.82319 Y0.69265
G01 X6.81809 Y0.69579
G01 X6.81239 Y0.69768
G01 X6.80897 Y0.69803
G01 X6.78063 Y0.69803
G01 X6.78063 Y0.68621
G01 X6.80824 Y0.68617
G01 X6.81146 Y0.68555
G01 X6.81444 Y0.68415
G01 X6.81643 Y0.68268
G01 X6.81835 Y0.68054
G01 X6.81979 Y0.67805
G01 X6.82058 Y0.67570
G01 X6.82099 Y0.67244
G01 X6.82099 Y0.59370
G01 X6.82068 Y0.59083
G01 X6.81979 Y0.58810
G01 X6.81835 Y0.58560
G01 X6.81611 Y0.58320
G01 X6.81373 Y0.58158
G01 X6.81146 Y0.58059
G01 X6.80905 Y0.58006
G01 X6.80721 Y0.57992
G01 X6.78063 Y0.57992
G01 X6.78063 Y0.56811
G01 X6.80897 Y0.56811
G01 X6.81239 Y0.56846
G01 X6.81809 Y0.57035
G01 X6.82319 Y0.57349
G01 X6.82740 Y0.57771
G01 X6.83255 Y0.58621
G01 X6.83349 Y0.58727
G01 X6.83677 Y0.58907
G01 X6.83740 Y0.58934
G01 X6.83875 Y0.58952
G01 X6.84247 Y0.58933
G01 X6.84373 Y0.58881
G01 X6.84672 Y0.58689
G01 X6.85039 Y0.58299
G01 X6.85837 Y0.57663
G01 X6.86721 Y0.57152
G01 X6.87672 Y0.56779
G01 X6.88667 Y0.56552
G01 X6.89430 Y0.56495
G01 X6.89940 Y0.56495
G01 X6.90703 Y0.56552
G01 X6.91699 Y0.56779
G01 X6.92649 Y0.57152
G01 X6.93533 Y0.57663
G01 X6.94332 Y0.58299
G01 X6.95026 Y0.59048
G01 X6.95601 Y0.59891
G01 X6.96044 Y0.60811
G01 X6.96345 Y0.61787
G01 X6.96497 Y0.62796
G04 P0 ( dwell for no time -- G64 should not smooth over this point )
G00 Z0.07874 ( retract )

G00 X6.83545 Y0.42949 ( rapid move to begin. )
G01 F17.71654
( Mill infeed pass 1/1 )
G01 Z-0.00500
G04 P0 ( dwell for no time -- G64 should not smooth over this point )
G01 F35.43307
G01 X6.83545 Y0.42949
G01 X6.83546 Y0.43665
G01 X6.83415 Y0.44368
G01 X6.83156 Y0.45035
G01 X6.82780 Y0.45644
G01 X6.82298 Y0.46173
G01 X6.81726 Y0.46604
G01 X6.81086 Y0.46923
G01 X6.80398 Y0.47119
G01 X6.79864 Y0.47168
G01 X6.79507 Y0.47166
G01 X6.78973 Y0.47119
G01 X6.78284 Y0.46923
G01 X6.77644 Y0.46604
G01 X6.77073 Y0.46173
G01 X6.76591 Y0.45644
G01 X6.76214 Y0.45035
G01 X6.75956 Y0.44368
G01 X6.75824 Y0.43665
G01 X6.75824 Y0.42949
G01 X6.75956 Y0.42246
G01 X6.76214 Y0.41579
G01 X6.76591 Y0.40970
G01 X6.77073 Y0.40441
G01 X6.77644 Y0.40010
G01 X6.78284 Y0.39691
G01 X6.78973 Y0.39495
G01 X6.79507 Y0.39448
G01 X6.79864 Y0.39447
G01 X6.80398 Y0.39495
G01 X6.81086 Y0.39691
G01 X6.81726 Y0.40010
G01 X6.82298 Y0.40441
G01 X6.82780 Y0.40970
G01 X6.83156 Y0.41579
G01 X6.83415 Y0.42246
G01 X6.83545 Y0.42949
G01 X6.83938 Y0.42913
G01 X6.83938 Y0.43701
G01 X6.83794 Y0.44476
G01 X6.83509 Y0.45211
G01 X6.83094 Y0.45881
G01 X6.82563 Y0.46464
G01 X6.81934 Y0.46939
G01 X6.81228 Y0.47290
G01 X6.80470 Y0.47506
G01 X6.79882 Y0.47560
G01 X6.79489 Y0.47560
G01 X6.78900 Y0.47506
G01 X6.78142 Y0.47290
G01 X6.77437 Y0.46939
G01 X6.76808 Y0.46464
G01 X6.76277 Y0.45881
G01 X6.75862 Y0.45211
G01 X6.75577 Y0.44476
G01 X6.75432 Y0.43701
G01 X6.75432 Y0.42913
G01 X6.75577 Y0.42138
G01 X6.75862 Y0.41403
G01 X6.76277 Y0.40733
G01 X6.76808 Y0.40151
G01 X6.77437 Y0.39675
G01 X6.78142 Y0.39324
G01 X6.78900 Y0.39108
G01 X6.79488 Y0.39054
G01 X6.79882 Y0.39054
G01 X6.80470 Y0.39108
G01 X6.81228 Y0.39324
G01 X6.81934 Y0.39675
G01 X6.82563 Y0.40150
G01 X6.83094 Y0.40733
G01 X6.83509 Y0.41403
G01 X6.83794 Y0.42138
G01 X6.83938 Y0.42913
G04 P0 ( dwell for no time -- G64 should not smooth over this point )
G00 Z0.07874 ( retract )

G00 X6.75307 Y0.56811 ( rapid move to begin. )
G01 F17.71654
( Mill infeed pass 1/1 )
G01 Z-0.00500
G04 P0 ( dwell for no time -- G64 should not smooth over this point )
G01 F35.43307
G01 X6.75307 Y0.56811
G01 X6.72473 Y0.56811
G01 X6.72131 Y0.56846
G01 X6.71561 Y0.57035
G01 X6.71052 Y0.57349
G01 X6.70629 Y0.57772
G01 X6.70315 Y0.58281
G01 X6.70126 Y0.58852
G01 X6.70091 Y0.59193
G01 X6.70091 Y0.61929
G01 X6.71272 Y0.61929
G01 X6.71272 Y0.59370
G01 X6.71295 Y0.59124
G01 X6.71410 Y0.58773
G01 X6.71535 Y0.58560
G01 X6.71728 Y0.58346
G01 X6.71961 Y0.58177
G01 X6.72185 Y0.58074
G01 X6.72526 Y0.57998
G01 X6.75307 Y0.57992
G01 X6.75307 Y0.56811
G01 X6.74913 Y0.57205
G01 X6.72493 Y0.57205
G01 X6.72214 Y0.57228
G01 X6.71727 Y0.57392
G01 X6.71296 Y0.57658
G01 X6.70938 Y0.58016
G01 X6.70671 Y0.58447
G01 X6.70508 Y0.58934
G01 X6.70484 Y0.59213
G01 X6.70484 Y0.61535
G01 X6.70366 Y0.61652
G01 X6.70484 Y0.61535
G01 X6.70878 Y0.61535
G01 X6.70990 Y0.61648
G01 X6.70878 Y0.61535
G01 X6.70878 Y0.59370
G01 X6.70904 Y0.59083
G01 X6.70938 Y0.58922
G01 X6.71069 Y0.58576
G01 X6.71216 Y0.58329
G01 X6.71464 Y0.58053
G01 X6.71764 Y0.57836
G01 X6.72025 Y0.57715
G01 X6.72182 Y0.57664
G01 X6.72506 Y0.57605
G01 X6.74913 Y0.57598
G01 X6.75028 Y0.57711
G01 X6.74913 Y0.57598
G01 X6.74913 Y0.57205
G04 P0 ( dwell for no time -- G64 should not smooth over this point )
G00 Z0.07874 ( retract )

G00 X6.75307 Y0.68622 ( rapid move to begin. )
G01 F17.71654
( Mill infeed pass 1/1 )
G01 Z-0.00500
G04 P0 ( dwell for no time -- G64 should not smooth over this point )
G01 F35.43307
G01 X6.75307 Y0.68622
G01 X6.72526 Y0.68616
G01 X6.72185 Y0.68540
G01 X6.71961 Y0.68437
G01 X6.71760 Y0.68294
G01 X6.71535 Y0.68054
G01 X6.71410 Y0.67841
G01 X6.71295 Y0.67490
G01 X6.71272 Y0.67244
G01 X6.71272 Y0.64685
G01 X6.70091 Y0.64685
G01 X6.70091 Y0.67421
G01 X6.70126 Y0.67762
G01 X6.70315 Y0.68333
G01 X6.70629 Y0.68842
G01 X6.71052 Y0.69265
G01 X6.71561 Y0.69579
G01 X6.72132 Y0.69768
G01 X6.72473 Y0.69803
G01 X6.75307 Y0.69803
G01 X6.75307 Y0.68622
G01 X6.74913 Y0.69016
G01 X6.74913 Y0.69409
G01 X6.75029 Y0.69525
G01 X6.74913 Y0.69409
G01 X6.72493 Y0.69412
G01 X6.72214 Y0.69381
G01 X6.71727 Y0.69224
G01 X6.71296 Y0.68956
G01 X6.70938 Y0.68598
G01 X6.70671 Y0.68166
G01 X6.70508 Y0.67680
G01 X6.70484 Y0.67401
G01 X6.70484 Y0.65079
G01 X6.70366 Y0.64962
G01 X6.70484 Y0.65079
G01 X6.70878 Y0.65079
G01 X6.70991 Y0.64965
G01 X6.70878 Y0.65079
G01 X6.70878 Y0.67244
G01 X6.70904 Y0.67531
G01 X6.70938 Y0.67692
G01 X6.71069 Y0.68038
G01 X6.71216 Y0.68285
G01 X6.71464 Y0.68561
G01 X6.71695 Y0.68734
G01 X6.71837 Y0.68816
G01 X6.72102 Y0.68929
G01 X6.72383 Y0.68993
G01 X6.72650 Y0.69016
G01 X6.74913 Y0.69016
G04 P0 ( dwell for no time -- G64 should not smooth over this point )
G00 Z0.07874 ( retract )

G00 X6.37717 Y0.49370 ( rapid move to begin. )
G01 F17.71654
( Mill infeed pass 1/1 )
G01 Z-0.00500
G04 P0 ( dwell for no time -- G64 should not smooth over this point )
G01 F35.43307
G01 X6.37717 Y0.49370
G01 X6.37691 Y0.49083
G01 X6.37657 Y0.48922
G01 X6.37563 Y0.48649
G01 X6.37378 Y0.48329
G01 X6.37189 Y0.48112
G01 X6.37066 Y0.48002
G01 X6.36814 Y0.47827
G01 X6.36523 Y0.47697
G01 X6.36212 Y0.47621
G01 X6.35986 Y0.47600
G01 X6.33497 Y0.47598
G01 X6.33382 Y0.47713
G01 X6.33497 Y0.47598
G01 X6.33493 Y0.43423
G01 X6.33467 Y0.43191
G01 X6.33402 Y0.42966
G01 X6.33343 Y0.42823
G01 X6.33229 Y0.42618
G01 X6.33084 Y0.42435
G01 X6.05280 Y0.14625
G01 X6.05039 Y0.14428
G01 X6.04834 Y0.14314
G01 X6.04542 Y0.14210
G01 X6.04390 Y0.14180
G01 X6.04157 Y0.14161
G01 X3.62480 Y0.14161
G01 X3.62247 Y0.14180
G01 X3.61946 Y0.14255
G01 X3.61665 Y0.14388
G01 X3.61537 Y0.14474
G01 X3.61358 Y0.14625
G01 X3.19075 Y0.56909
G01 X3.18783 Y0.57311
G01 X3.18629 Y0.57781
G01 X3.18613 Y0.59193
G01 X3.18674 Y0.59232
G01 X3.18613 Y0.59193
G01 X3.18130 Y0.59412
G01 X3.17495 Y0.59868
G01 X3.17373 Y0.59978
G01 X3.16853 Y0.60562
G01 X3.16458 Y0.61237
G01 X3.16391 Y0.61388
G01 X3.16153 Y0.62133
G01 X3.16063 Y0.62992
G01 X3.16153 Y0.63852
G01 X3.16391 Y0.64597
G01 X3.16458 Y0.64747
G01 X3.16868 Y0.65441
G01 X3.17373 Y0.66006
G01 X3.17495 Y0.66116
G01 X3.18130 Y0.66572
G01 X3.18843 Y0.66894
G01 X3.18999 Y0.66945
G01 X3.19741 Y0.67100
G01 X3.20547 Y0.67108
G01 X3.20710 Y0.67090
G01 X3.21474 Y0.66924
G01 X3.22190 Y0.66609
G01 X3.22333 Y0.66527
G01 X3.22963 Y0.66064
G01 X3.23489 Y0.65486
G01 X3.23586 Y0.65353
G01 X3.23973 Y0.64673
G01 X3.24219 Y0.63931
G01 X3.24253 Y0.63770
G01 X3.24331 Y0.62992
G01 X3.24240 Y0.62133
G01 X3.23973 Y0.61311
G01 X3.23586 Y0.60631
G01 X3.23489 Y0.60498
G01 X3.22963 Y0.59920
G01 X3.22333 Y0.59457
G01 X3.22190 Y0.59375
G01 X3.21784 Y0.59194
G01 X3.21722 Y0.59234
G01 X3.21784 Y0.59194
G01 X3.21784 Y0.58689
G01 X3.21754 Y0.58676
G01 X3.21784 Y0.58689
G01 X3.63138 Y0.17335
G01 X3.63126 Y0.17305
G01 X3.63138 Y0.17335
G01 X6.03500 Y0.17335
G01 X6.03512 Y0.17305
G01 X6.03500 Y0.17335
G01 X6.30322 Y0.44158
G01 X6.30352 Y0.44146
G01 X6.30322 Y0.44158
G01 X6.30322 Y0.47600
G01 X6.30437 Y0.47714
G01 X6.30322 Y0.47600
G01 X6.27770 Y0.47604
G01 X6.27608 Y0.47621
G01 X6.27327 Y0.47685
G01 X6.26988 Y0.47836
G01 X6.26753 Y0.48002
G01 X6.26630 Y0.48112
G01 X6.26441 Y0.48329
G01 X6.26293 Y0.48576
G01 X6.26163 Y0.48922
G01 X6.26128 Y0.49083
G01 X6.26102 Y0.49370
G01 X6.26102 Y0.57244
G01 X6.26141 Y0.57612
G01 X6.26226 Y0.57888
G01 X6.26293 Y0.58038
G01 X6.26493 Y0.58349
G01 X6.26694 Y0.58565
G01 X6.27007 Y0.58788
G01 X6.27358 Y0.58937
G01 X6.27730 Y0.59009
G01 X6.36089 Y0.59009
G01 X6.36413 Y0.58950
G01 X6.36569 Y0.58900
G01 X6.36860 Y0.58759
G01 X6.37126 Y0.58564
G01 X6.37378 Y0.58285
G01 X6.37526 Y0.58038
G01 X6.37657 Y0.57692
G01 X6.37691 Y0.57531
G01 X6.37717 Y0.57244
G01 X6.37717 Y0.49370
G01 X6.37323 Y0.49370
G01 X6.37323 Y0.57244
G01 X6.37293 Y0.57530
G01 X6.37204 Y0.57805
G01 X6.37060 Y0.58054
G01 X6.36867 Y0.58268
G01 X6.36634 Y0.58437
G01 X6.36409 Y0.58540
G01 X6.36130 Y0.58608
G01 X6.35966 Y0.58622
G01 X6.27874 Y0.58622
G01 X6.27689 Y0.58608
G01 X6.27488 Y0.58565
G01 X6.27222 Y0.58456
G01 X6.26952 Y0.58268
G01 X6.26785 Y0.58086
G01 X6.26601 Y0.57766
G01 X6.26526 Y0.57530
G01 X6.26496 Y0.57244
G01 X6.26496 Y0.49370
G01 X6.26537 Y0.49044
G01 X6.26634 Y0.48773
G01 X6.26759 Y0.48560
G01 X6.26923 Y0.48375
G01 X6.27185 Y0.48177
G01 X6.27488 Y0.48049
G01 X6.27771 Y0.47997
G01 X6.30716 Y0.47993
G01 X6.30716 Y0.43995
G01 X6.03663 Y0.16942
G01 X3.62975 Y0.16942
G01 X3.21391 Y0.58526
G01 X3.21391 Y0.59450
G01 X3.22102 Y0.59775
G01 X3.22700 Y0.60213
G01 X3.23197 Y0.60762
G01 X3.23614 Y0.61471
G01 X3.23855 Y0.62214
G01 X3.23937 Y0.62992
G01 X3.23845 Y0.63809
G01 X3.23595 Y0.64550
G01 X3.23223 Y0.65190
G01 X3.22729 Y0.65742
G01 X3.22030 Y0.66250
G01 X3.21353 Y0.66549
G01 X3.20547 Y0.66714
G01 X3.19806 Y0.66712
G01 X3.19041 Y0.66549
G01 X3.18327 Y0.66231
G01 X3.17694 Y0.65772
G01 X3.17149 Y0.65156
G01 X3.16780 Y0.64513
G01 X3.16549 Y0.63809
G01 X3.16457 Y0.62992
G01 X3.16539 Y0.62214
G01 X3.16780 Y0.61471
G01 X3.17197 Y0.60762
G01 X3.17694 Y0.60213
G01 X3.18292 Y0.59775
G01 X3.19005 Y0.59449
G01 X3.19018 Y0.57844
G01 X3.19133 Y0.57489
G01 X3.19353 Y0.57187
G01 X3.61636 Y0.14904
G01 X3.61786 Y0.14778
G01 X3.61989 Y0.14662
G01 X3.62210 Y0.14587
G01 X3.62480 Y0.14554
G01 X6.04157 Y0.14554
G01 X6.04352 Y0.14572
G01 X6.04649 Y0.14662
G01 X6.04820 Y0.14755
G01 X6.05001 Y0.14904
G01 X6.32780 Y0.42685
G01 X6.32902 Y0.42837
G01 X6.32996 Y0.43009
G01 X6.33080 Y0.43268
G01 X6.33101 Y0.43462
G01 X6.33103 Y0.47992
G01 X6.35945 Y0.47992
G01 X6.36130 Y0.48006
G01 X6.36371 Y0.48059
G01 X6.36669 Y0.48199
G01 X6.36867 Y0.48346
G01 X6.37060 Y0.48560
G01 X6.37204 Y0.48810
G01 X6.37282 Y0.49044
G01 X6.37323 Y0.49370
G04 P0 ( dwell for no time -- G64 should not smooth over this point )
G00 Z0.07874 ( retract )

G00 X6.12717 Y0.43307 ( rapid move to begin. )
G01 F17.71654
( Mill infeed pass 1/1 )
G01 Z-0.00500
G04 P0 ( dwell for no time -- G64 should not smooth over this point )
G01 F35.43307
G01 X6.12717 Y0.43307
G01 X6.12642 Y0.44443
G01 X6.12420 Y0.45559
G01 X6.12054 Y0.46637
G01 X6.11551 Y0.47658
G01 X6.10919 Y0.48604
G01 X6.10168 Y0.49460
G01 X6.09313 Y0.50210
G01 X6.08366 Y0.50842
G01 X6.07346 Y0.51345
G01 X6.06268 Y0.51711
G01 X6.05152 Y0.51933
G01 X6.04300 Y0.51989
G01 X6.03732 Y0.51989
G01 X6.02880 Y0.51933
G01 X6.01764 Y0.51711
G01 X6.00686 Y0.51345
G01 X5.99666 Y0.50842
G01 X5.98719 Y0.50210
G01 X5.97863 Y0.49460
G01 X5.97113 Y0.48604
G01 X5.96481 Y0.47658
G01 X5.95977 Y0.46637
G01 X5.95612 Y0.45559
G01 X5.95389 Y0.44443
G01 X5.95315 Y0.43307
G01 X5.95389 Y0.42171
G01 X5.95612 Y0.41055
G01 X5.95977 Y0.39977
G01 X5.96481 Y0.38956
G01 X5.97113 Y0.38010
G01 X5.97863 Y0.37155
G01 X5.98719 Y0.36404
G01 X5.99666 Y0.35772
G01 X6.00686 Y0.35268
G01 X6.01764 Y0.34903
G01 X6.02880 Y0.34680
G01 X6.03732 Y0.34625
G01 X6.04300 Y0.34625
G01 X6.05152 Y0.34680
G01 X6.06268 Y0.34903
G01 X6.07346 Y0.35268
G01 X6.08366 Y0.35772
G01 X6.09313 Y0.36404
G01 X6.10168 Y0.37155
G01 X6.10919 Y0.38010
G01 X6.11551 Y0.38956
G01 X6.12054 Y0.39977
G01 X6.12420 Y0.41055
G01 X6.12642 Y0.42171
G01 X6.12717 Y0.43307
G01 X6.12323 Y0.43307
G01 X6.12252 Y0.42223
G01 X6.12040 Y0.41157
G01 X6.11691 Y0.40128
G01 X6.11210 Y0.39153
G01 X6.10606 Y0.38250
G01 X6.09890 Y0.37433
G01 X6.09073 Y0.36716
G01 X6.08169 Y0.36113
G01 X6.07195 Y0.35632
G01 X6.06166 Y0.35283
G01 X6.05100 Y0.35071
G01 X6.04287 Y0.35018
G01 X6.03745 Y0.35019
G01 X6.02932 Y0.35070
G01 X6.01866 Y0.35284
G01 X6.00837 Y0.35633
G01 X5.99863 Y0.36113
G01 X5.98959 Y0.36717
G01 X5.98142 Y0.37433
G01 X5.97426 Y0.38250
G01 X5.96822 Y0.39154
G01 X5.96342 Y0.40128
G01 X5.95993 Y0.41157
G01 X5.95781 Y0.42223
G01 X5.95709 Y0.43307
G01 X5.95781 Y0.44391
G01 X5.95993 Y0.45457
G01 X5.96342 Y0.46486
G01 X5.96822 Y0.47460
G01 X5.97426 Y0.48364
G01 X5.98142 Y0.49180
G01 X5.98959 Y0.49897
G01 X5.99863 Y0.50501
G01 X6.00837 Y0.50981
G01 X6.01866 Y0.51330
G01 X6.02932 Y0.51542
G01 X6.03745 Y0.51596
G01 X6.04287 Y0.51596
G01 X6.05100 Y0.51543
G01 X6.06166 Y0.51331
G01 X6.07195 Y0.50982
G01 X6.08169 Y0.50501
G01 X6.09073 Y0.49898
G01 X6.09890 Y0.49181
G01 X6.10606 Y0.48364
G01 X6.11210 Y0.47461
G01 X6.11691 Y0.46486
G01 X6.12040 Y0.45457
G01 X6.12252 Y0.44391
G01 X6.12323 Y0.43307
G04 P0 ( dwell for no time -- G64 should not smooth over this point )
G00 Z0.07874 ( retract )

G00 X6.00434 Y0.62826 ( rapid move to begin. )
G01 F17.71654
( Mill infeed pass 1/1 )
G01 Z-0.00500
G04 P0 ( dwell for no time -- G64 should not smooth over this point )
G01 F35.43307
G01 X6.00434 Y0.62826
G01 X6.00435 Y0.63788
G01 X6.00292 Y0.64740
G01 X6.00008 Y0.65659
G01 X5.99591 Y0.66526
G01 X5.99049 Y0.67321
G01 X5.98395 Y0.68026
G01 X5.97642 Y0.68626
G01 X5.96809 Y0.69107
G01 X5.95913 Y0.69459
G01 X5.94975 Y0.69673
G01 X5.94256 Y0.69725
G01 X5.93776 Y0.69725
G01 X5.93056 Y0.69673
G01 X5.92118 Y0.69459
G01 X5.91223 Y0.69107
G01 X5.90389 Y0.68626
G01 X5.89638 Y0.68025
G01 X5.89257 Y0.67624
G01 X5.88932 Y0.67408
G01 X5.88813 Y0.67345
G01 X5.88685 Y0.67303
G01 X5.88249 Y0.67266
G01 X5.88112 Y0.67270
G01 X5.87977 Y0.67298
G01 X5.87850 Y0.67349
G01 X5.87462 Y0.67557
G01 X5.87359 Y0.67648
G01 X5.87274 Y0.67756
G01 X5.87107 Y0.68009
G01 X5.86764 Y0.68598
G01 X5.86405 Y0.68956
G01 X5.85975 Y0.69224
G01 X5.85487 Y0.69381
G01 X5.85208 Y0.69412
G01 X5.82788 Y0.69409
G01 X5.82672 Y0.69525
G01 X5.82788 Y0.69409
G01 X5.82788 Y0.69014
G01 X5.82672 Y0.68900
G01 X5.82788 Y0.69014
G01 X5.85156 Y0.69010
G01 X5.85318 Y0.68993
G01 X5.85599 Y0.68929
G01 X5.85937 Y0.68778
G01 X5.86173 Y0.68612
G01 X5.86295 Y0.68502
G01 X5.86485 Y0.68285
G01 X5.86632 Y0.68038
G01 X5.86699 Y0.67888
G01 X5.86784 Y0.67612
G01 X5.86823 Y0.67244
G01 X5.86823 Y0.59370
G01 X5.86784 Y0.59002
G01 X5.86670 Y0.58649
G01 X5.86485 Y0.58329
G01 X5.86237 Y0.58053
G01 X5.85937 Y0.57836
G01 X5.85676 Y0.57715
G01 X5.85519 Y0.57664
G01 X5.85318 Y0.57621
G01 X5.85051 Y0.57598
G01 X5.82788 Y0.57598
G01 X5.82673 Y0.57713
G01 X5.82788 Y0.57598
G01 X5.82788 Y0.57205
G01 X5.82672 Y0.57089
G01 X5.82788 Y0.57205
G01 X5.85208 Y0.57202
G01 X5.85487 Y0.57233
G01 X5.85975 Y0.57390
G01 X5.86405 Y0.57658
G01 X5.86761 Y0.58014
G01 X5.87249 Y0.58825
G01 X5.87333 Y0.58939
G01 X5.87436 Y0.59036
G01 X5.87555 Y0.59113
G01 X5.87950 Y0.59308
G01 X5.88083 Y0.59339
G01 X5.88221 Y0.59346
G01 X5.88660 Y0.59318
G01 X5.88791 Y0.59277
G01 X5.88914 Y0.59214
G01 X5.89254 Y0.58993
G01 X5.89638 Y0.58589
G01 X5.90389 Y0.57988
G01 X5.91223 Y0.57507
G01 X5.92118 Y0.57155
G01 X5.93056 Y0.56941
G01 X5.93776 Y0.56888
G01 X5.94256 Y0.56888
G01 X5.94975 Y0.56941
G01 X5.95913 Y0.57155
G01 X5.96809 Y0.57507
G01 X5.97642 Y0.57988
G01 X5.98395 Y0.58588
G01 X5.99049 Y0.59293
G01 X5.99591 Y0.60088
G01 X6.00008 Y0.60955
G01 X6.00292 Y0.61874
G01 X6.00434 Y0.62826
G01 X6.00828 Y0.62796
G01 X6.00828 Y0.63818
G01 X6.00676 Y0.64827
G01 X6.00375 Y0.65803
G01 X5.99932 Y0.66723
G01 X5.99357 Y0.67566
G01 X5.98662 Y0.68315
G01 X5.97864 Y0.68951
G01 X5.96980 Y0.69462
G01 X5.96029 Y0.69835
G01 X5.95034 Y0.70062
G01 X5.94271 Y0.70119
G01 X5.93761 Y0.70119
G01 X5.92998 Y0.70062
G01 X5.92002 Y0.69835
G01 X5.91052 Y0.69462
G01 X5.90168 Y0.68951
G01 X5.89369 Y0.68315
G01 X5.89004 Y0.67926
G01 X5.88719 Y0.67739
G01 X5.88596 Y0.67687
G01 X5.88226 Y0.67659
G01 X5.88090 Y0.67675
G01 X5.88026 Y0.67701
G01 X5.87755 Y0.67837
G01 X5.87645 Y0.67918
G01 X5.87436 Y0.68226
G01 X5.87386 Y0.68333
G01 X5.87072 Y0.68842
G01 X5.86649 Y0.69265
G01 X5.86140 Y0.69579
G01 X5.85570 Y0.69768
G01 X5.85228 Y0.69803
G01 X5.82394 Y0.69803
G01 X5.82394 Y0.68621
G01 X5.85155 Y0.68617
G01 X5.85477 Y0.68555
G01 X5.85775 Y0.68415
G01 X5.85973 Y0.68268
G01 X5.86166 Y0.68054
G01 X5.86310 Y0.67805
G01 X5.86388 Y0.67570
G01 X5.86429 Y0.67244
G01 X5.86429 Y0.59370
G01 X5.86399 Y0.59083
G01 X5.86310 Y0.58810
G01 X5.86166 Y0.58560
G01 X5.85941 Y0.58320
G01 X5.85704 Y0.58158
G01 X5.85477 Y0.58059
G01 X5.85236 Y0.58006
G01 X5.85051 Y0.57992
G01 X5.82394 Y0.57992
G01 X5.82394 Y0.56811
G01 X5.85228 Y0.56811
G01 X5.85570 Y0.56846
G01 X5.86140 Y0.57035
G01 X5.86649 Y0.57349
G01 X5.87071 Y0.57771
G01 X5.87586 Y0.58621
G01 X5.87679 Y0.58727
G01 X5.88007 Y0.58907
G01 X5.88070 Y0.58934
G01 X5.88206 Y0.58952
G01 X5.88577 Y0.58933
G01 X5.88704 Y0.58881
G01 X5.89003 Y0.58689
G01 X5.89369 Y0.58299
G01 X5.90168 Y0.57663
G01 X5.91052 Y0.57152
G01 X5.92002 Y0.56779
G01 X5.92998 Y0.56552
G01 X5.93761 Y0.56495
G01 X5.94271 Y0.56495
G01 X5.95034 Y0.56552
G01 X5.96029 Y0.56779
G01 X5.96980 Y0.57152
G01 X5.97864 Y0.57663
G01 X5.98662 Y0.58299
G01 X5.99357 Y0.59048
G01 X5.99932 Y0.59891
G01 X6.00375 Y0.60811
G01 X6.00676 Y0.61787
G01 X6.00828 Y0.62796
G04 P0 ( dwell for no time -- G64 should not smooth over this point )
G00 Z0.07874 ( retract )

G00 X5.87875 Y0.42949 ( rapid move to begin. )
G01 F17.71654
( Mill infeed pass 1/1 )
G01 Z-0.00500
G04 P0 ( dwell for no time -- G64 should not smooth over this point )
G01 F35.43307
G01 X5.87875 Y0.42949
G01 X5.87877 Y0.43665
G01 X5.87746 Y0.44368
G01 X5.87487 Y0.45035
G01 X5.87110 Y0.45644
G01 X5.86628 Y0.46173
G01 X5.86057 Y0.46604
G01 X5.85417 Y0.46923
G01 X5.84728 Y0.47119
G01 X5.84194 Y0.47168
G01 X5.83837 Y0.47166
G01 X5.83303 Y0.47119
G01 X5.82615 Y0.46923
G01 X5.81975 Y0.46604
G01 X5.81404 Y0.46173
G01 X5.80922 Y0.45644
G01 X5.80545 Y0.45035
G01 X5.80286 Y0.44368
G01 X5.80155 Y0.43665
G01 X5.80155 Y0.42949
G01 X5.80286 Y0.42246
G01 X5.80545 Y0.41579
G01 X5.80922 Y0.40970
G01 X5.81404 Y0.40441
G01 X5.81975 Y0.40010
G01 X5.82615 Y0.39691
G01 X5.83303 Y0.39495
G01 X5.83837 Y0.39448
G01 X5.84194 Y0.39447
G01 X5.84728 Y0.39495
G01 X5.85417 Y0.39691
G01 X5.86057 Y0.40010
G01 X5.86628 Y0.40441
G01 X5.87110 Y0.40970
G01 X5.87487 Y0.41579
G01 X5.87746 Y0.42246
G01 X5.87875 Y0.42949
G01 X5.88269 Y0.42913
G01 X5.88269 Y0.43701
G01 X5.88124 Y0.44476
G01 X5.87839 Y0.45211
G01 X5.87424 Y0.45881
G01 X5.86894 Y0.46464
G01 X5.86264 Y0.46939
G01 X5.85559 Y0.47290
G01 X5.84801 Y0.47506
G01 X5.84213 Y0.47560
G01 X5.83819 Y0.47560
G01 X5.83231 Y0.47506
G01 X5.82473 Y0.47290
G01 X5.81767 Y0.46939
G01 X5.81138 Y0.46464
G01 X5.80607 Y0.45881
G01 X5.80192 Y0.45211
G01 X5.79908 Y0.44476
G01 X5.79763 Y0.43701
G01 X5.79763 Y0.42913
G01 X5.79908 Y0.42138
G01 X5.80192 Y0.41403
G01 X5.80607 Y0.40733
G01 X5.81138 Y0.40150
G01 X5.81767 Y0.39675
G01 X5.82473 Y0.39324
G01 X5.83231 Y0.39108
G01 X5.83819 Y0.39054
G01 X5.84213 Y0.39054
G01 X5.84801 Y0.39108
G01 X5.85559 Y0.39324
G01 X5.86264 Y0.39675
G01 X5.86894 Y0.40150
G01 X5.87424 Y0.40733
G01 X5.87839 Y0.41403
G01 X5.88124 Y0.42138
G01 X5.88269 Y0.42913
G04 P0 ( dwell for no time -- G64 should not smooth over this point )
G00 Z0.07874 ( retract )

G00 X5.79638 Y0.56811 ( rapid move to begin. )
G01 F17.71654
( Mill infeed pass 1/1 )
G01 Z-0.00500
G04 P0 ( dwell for no time -- G64 should not smooth over this point )
G01 F35.43307
G01 X5.79638 Y0.56811
G01 X5.76804 Y0.56811
G01 X5.76462 Y0.56846
G01 X5.75892 Y0.57035
G01 X5.75382 Y0.57349
G01 X5.74959 Y0.57772
G01 X5.74645 Y0.58281
G01 X5.74456 Y0.58852
G01 X5.74421 Y0.59193
G01 X5.74421 Y0.61929
G01 X5.75602 Y0.61929
G01 X5.75602 Y0.59370
G01 X5.75626 Y0.59124
G01 X5.75740 Y0.58773
G01 X5.75866 Y0.58560
G01 X5.76058 Y0.58346
G01 X5.76291 Y0.58177
G01 X5.76516 Y0.58074
G01 X5.76857 Y0.57998
G01 X5.79638 Y0.57992
G01 X5.79638 Y0.56811
G01 X5.79244 Y0.57205
G01 X5.76824 Y0.57205
G01 X5.76544 Y0.57228
G01 X5.76058 Y0.57392
G01 X5.75627 Y0.57658
G01 X5.75268 Y0.58016
G01 X5.75002 Y0.58447
G01 X5.74839 Y0.58934
G01 X5.74815 Y0.59213
G01 X5.74815 Y0.61535
G01 X5.74697 Y0.61652
G01 X5.74815 Y0.61535
G01 X5.75209 Y0.61535
G01 X5.75320 Y0.61648
G01 X5.75209 Y0.61535
G01 X5.75209 Y0.59370
G01 X5.75235 Y0.59083
G01 X5.75332 Y0.58726
G01 X5.75399 Y0.58576
G01 X5.75547 Y0.58329
G01 X5.75795 Y0.58053
G01 X5.76095 Y0.57836
G01 X5.76356 Y0.57715
G01 X5.76513 Y0.57664
G01 X5.76836 Y0.57605
G01 X5.79244 Y0.57598
G01 X5.79358 Y0.57711
G01 X5.79244 Y0.57598
G01 X5.79244 Y0.57205
G04 P0 ( dwell for no time -- G64 should not smooth over this point )
G00 Z0.07874 ( retract )

G00 X5.79638 Y0.68622 ( rapid move to begin. )
G01 F17.71654
( Mill infeed pass 1/1 )
G01 Z-0.00500
G04 P0 ( dwell for no time -- G64 should not smooth over this point )
G01 F35.43307
G01 X5.79638 Y0.68622
G01 X5.76857 Y0.68616
G01 X5.76516 Y0.68540
G01 X5.76291 Y0.68437
G01 X5.76090 Y0.68294
G01 X5.75866 Y0.68054
G01 X5.75740 Y0.67841
G01 X5.75626 Y0.67490
G01 X5.75602 Y0.67244
G01 X5.75602 Y0.64685
G01 X5.74421 Y0.64685
G01 X5.74421 Y0.67421
G01 X5.74456 Y0.67762
G01 X5.74645 Y0.68333
G01 X5.74959 Y0.68842
G01 X5.75382 Y0.69265
G01 X5.75892 Y0.69579
G01 X5.76462 Y0.69768
G01 X5.76804 Y0.69803
G01 X5.79638 Y0.69803
G01 X5.79638 Y0.68622
G01 X5.79244 Y0.69016
G01 X5.79244 Y0.69409
G01 X5.79360 Y0.69525
G01 X5.79244 Y0.69409
G01 X5.76823 Y0.69412
G01 X5.76545 Y0.69381
G01 X5.76057 Y0.69224
G01 X5.75627 Y0.68956
G01 X5.75268 Y0.68598
G01 X5.75002 Y0.68166
G01 X5.74839 Y0.67680
G01 X5.74815 Y0.67401
G01 X5.74815 Y0.65079
G01 X5.74697 Y0.64962
G01 X5.74815 Y0.65079
G01 X5.75209 Y0.65079
G01 X5.75321 Y0.64965
G01 X5.75209 Y0.65079
G01 X5.75209 Y0.67244
G01 X5.75235 Y0.67531
G01 X5.75332 Y0.67888
G01 X5.75399 Y0.68038
G01 X5.75547 Y0.68285
G01 X5.75795 Y0.68561
G01 X5.76025 Y0.68734
G01 X5.76168 Y0.68816
G01 X5.76433 Y0.68929
G01 X5.76714 Y0.68993
G01 X5.76980 Y0.69016
G01 X5.79244 Y0.69016
G04 P0 ( dwell for no time -- G64 should not smooth over this point )
G00 Z0.07874 ( retract )

G00 X5.17048 Y0.43307 ( rapid move to begin. )
G01 F17.71654
( Mill infeed pass 1/1 )
G01 Z-0.00500
G04 P0 ( dwell for no time -- G64 should not smooth over this point )
G01 F35.43307
G01 X5.17048 Y0.43307
G01 X5.16973 Y0.44443
G01 X5.16751 Y0.45559
G01 X5.16385 Y0.46637
G01 X5.15882 Y0.47658
G01 X5.15249 Y0.48604
G01 X5.14499 Y0.49460
G01 X5.13643 Y0.50210
G01 X5.12697 Y0.50842
G01 X5.11676 Y0.51345
G01 X5.10599 Y0.51711
G01 X5.09482 Y0.51933
G01 X5.08631 Y0.51989
G01 X5.08062 Y0.51989
G01 X5.07211 Y0.51933
G01 X5.06095 Y0.51711
G01 X5.05017 Y0.51345
G01 X5.03996 Y0.50842
G01 X5.03050 Y0.50210
G01 X5.02194 Y0.49460
G01 X5.01444 Y0.48604
G01 X5.00811 Y0.47658
G01 X5.00308 Y0.46637
G01 X4.99942 Y0.45559
G01 X4.99720 Y0.44443
G01 X4.99646 Y0.43307
G01 X4.99720 Y0.42171
G01 X4.99942 Y0.41055
G01 X5.00308 Y0.39977
G01 X5.00811 Y0.38956
G01 X5.01444 Y0.38010
G01 X5.02194 Y0.37155
G01 X5.03050 Y0.36404
G01 X5.03996 Y0.35772
G01 X5.05017 Y0.35268
G01 X5.06095 Y0.34903
G01 X5.07211 Y0.34680
G01 X5.08062 Y0.34625
G01 X5.08631 Y0.34625
G01 X5.09482 Y0.34680
G01 X5.10599 Y0.34903
G01 X5.11676 Y0.35268
G01 X5.12697 Y0.35772
G01 X5.13643 Y0.36404
G01 X5.14499 Y0.37155
G01 X5.15249 Y0.38010
G01 X5.15882 Y0.38956
G01 X5.16385 Y0.39977
G01 X5.16751 Y0.41055
G01 X5.16973 Y0.42171
G01 X5.17048 Y0.43307
G01 X5.16654 Y0.43307
G01 X5.16583 Y0.42223
G01 X5.16371 Y0.41157
G01 X5.16021 Y0.40128
G01 X5.15541 Y0.39153
G01 X5.14937 Y0.38250
G01 X5.14221 Y0.37433
G01 X5.13404 Y0.36716
G01 X5.12500 Y0.36113
G01 X5.11526 Y0.35632
G01 X5.10497 Y0.35283
G01 X5.09431 Y0.35071
G01 X5.08618 Y0.35018
G01 X5.08075 Y0.35019
G01 X5.07262 Y0.35070
G01 X5.06197 Y0.35284
G01 X5.05168 Y0.35633
G01 X5.04193 Y0.36113
G01 X5.03290 Y0.36717
G01 X5.02473 Y0.37433
G01 X5.01757 Y0.38250
G01 X5.01153 Y0.39154
G01 X5.00673 Y0.40128
G01 X5.00323 Y0.41157
G01 X5.00111 Y0.42223
G01 X5.00040 Y0.43307
G01 X5.00111 Y0.44391
G01 X5.00323 Y0.45457
G01 X5.00673 Y0.46486
G01 X5.01153 Y0.47460
G01 X5.01757 Y0.48364
G01 X5.02473 Y0.49180
G01 X5.03290 Y0.49897
G01 X5.04193 Y0.50501
G01 X5.05168 Y0.50981
G01 X5.06197 Y0.51330
G01 X5.07262 Y0.51542
G01 X5.08075 Y0.51596
G01 X5.08618 Y0.51596
G01 X5.09431 Y0.51543
G01 X5.10497 Y0.51331
G01 X5.11526 Y0.50982
G01 X5.12500 Y0.50501
G01 X5.13404 Y0.49898
G01 X5.14221 Y0.49181
G01 X5.14937 Y0.48364
G01 X5.15541 Y0.47461
G01 X5.16021 Y0.46486
G01 X5.16371 Y0.45457
G01 X5.16583 Y0.44391
G01 X5.16654 Y0.43307
G04 P0 ( dwell for no time -- G64 should not smooth over this point )
G00 Z0.07874 ( retract )

G00 X5.04765 Y0.62826 ( rapid move to begin. )
G01 F17.71654
( Mill infeed pass 1/1 )
G01 Z-0.00500
G04 P0 ( dwell for no time -- G64 should not smooth over this point )
G01 F35.43307
G01 X5.04765 Y0.62826
G01 X5.04766 Y0.63788
G01 X5.04623 Y0.64740
G01 X5.04339 Y0.65659
G01 X5.03922 Y0.66526
G01 X5.03380 Y0.67321
G01 X5.02725 Y0.68026
G01 X5.01973 Y0.68626
G01 X5.01140 Y0.69107
G01 X5.00244 Y0.69459
G01 X4.99306 Y0.69673
G01 X4.98587 Y0.69725
G01 X4.98106 Y0.69725
G01 X4.97387 Y0.69673
G01 X4.96449 Y0.69459
G01 X4.95553 Y0.69107
G01 X4.94720 Y0.68626
G01 X4.93969 Y0.68025
G01 X4.93588 Y0.67624
G01 X4.93263 Y0.67408
G01 X4.93144 Y0.67345
G01 X4.93016 Y0.67303
G01 X4.92579 Y0.67266
G01 X4.92442 Y0.67270
G01 X4.92308 Y0.67298
G01 X4.92180 Y0.67349
G01 X4.91792 Y0.67557
G01 X4.91690 Y0.67648
G01 X4.91605 Y0.67756
G01 X4.91438 Y0.68009
G01 X4.91094 Y0.68598
G01 X4.90736 Y0.68956
G01 X4.90305 Y0.69224
G01 X4.89817 Y0.69381
G01 X4.89539 Y0.69412
G01 X4.87118 Y0.69409
G01 X4.87003 Y0.69525
G01 X4.87118 Y0.69409
G01 X4.87118 Y0.69014
G01 X4.87003 Y0.68900
G01 X4.87118 Y0.69014
G01 X4.89486 Y0.69010
G01 X4.89649 Y0.68993
G01 X4.89929 Y0.68929
G01 X4.90268 Y0.68778
G01 X4.90503 Y0.68612
G01 X4.90626 Y0.68502
G01 X4.90815 Y0.68285
G01 X4.90963 Y0.68038
G01 X4.91030 Y0.67888
G01 X4.91115 Y0.67612
G01 X4.91154 Y0.67244
G01 X4.91154 Y0.59370
G01 X4.91115 Y0.59002
G01 X4.91000 Y0.58649
G01 X4.90815 Y0.58329
G01 X4.90567 Y0.58053
G01 X4.90268 Y0.57836
G01 X4.90006 Y0.57715
G01 X4.89850 Y0.57664
G01 X4.89649 Y0.57621
G01 X4.89382 Y0.57598
G01 X4.87118 Y0.57598
G01 X4.87003 Y0.57713
G01 X4.87118 Y0.57598
G01 X4.87118 Y0.57205
G01 X4.87003 Y0.57089
G01 X4.87118 Y0.57205
G01 X4.89539 Y0.57202
G01 X4.89817 Y0.57233
G01 X4.90305 Y0.57390
G01 X4.90736 Y0.57658
G01 X4.91091 Y0.58014
G01 X4.91580 Y0.58825
G01 X4.91664 Y0.58939
G01 X4.91767 Y0.59036
G01 X4.91885 Y0.59113
G01 X4.92280 Y0.59308
G01 X4.92414 Y0.59339
G01 X4.92551 Y0.59346
G01 X4.92991 Y0.59318
G01 X4.93122 Y0.59277
G01 X4.93244 Y0.59215
G01 X4.93585 Y0.58993
G01 X4.93969 Y0.58589
G01 X4.94720 Y0.57988
G01 X4.95553 Y0.57507
G01 X4.96449 Y0.57155
G01 X4.97387 Y0.56941
G01 X4.98106 Y0.56888
G01 X4.98587 Y0.56888
G01 X4.99306 Y0.56941
G01 X5.00244 Y0.57155
G01 X5.01140 Y0.57507
G01 X5.01973 Y0.57988
G01 X5.02725 Y0.58588
G01 X5.03380 Y0.59293
G01 X5.03922 Y0.60088
G01 X5.04339 Y0.60955
G01 X5.04623 Y0.61874
G01 X5.04765 Y0.62826
G01 X5.05159 Y0.62796
G01 X5.05159 Y0.63818
G01 X5.05007 Y0.64827
G01 X5.04706 Y0.65803
G01 X5.04263 Y0.66723
G01 X5.03688 Y0.67566
G01 X5.02993 Y0.68315
G01 X5.02195 Y0.68951
G01 X5.01311 Y0.69462
G01 X5.00360 Y0.69835
G01 X4.99365 Y0.70062
G01 X4.98601 Y0.70119
G01 X4.98092 Y0.70119
G01 X4.97329 Y0.70062
G01 X4.96333 Y0.69835
G01 X4.95383 Y0.69462
G01 X4.94498 Y0.68951
G01 X4.93700 Y0.68315
G01 X4.93335 Y0.67926
G01 X4.93050 Y0.67739
G01 X4.92926 Y0.67687
G01 X4.92557 Y0.67659
G01 X4.92421 Y0.67675
G01 X4.92357 Y0.67701
G01 X4.92086 Y0.67837
G01 X4.91976 Y0.67918
G01 X4.91767 Y0.68226
G01 X4.91717 Y0.68333
G01 X4.91403 Y0.68842
G01 X4.90980 Y0.69265
G01 X4.90471 Y0.69579
G01 X4.89900 Y0.69768
G01 X4.89559 Y0.69803
G01 X4.86725 Y0.69803
G01 X4.86725 Y0.68621
G01 X4.89486 Y0.68617
G01 X4.89808 Y0.68555
G01 X4.90106 Y0.68415
G01 X4.90304 Y0.68268
G01 X4.90497 Y0.68054
G01 X4.90641 Y0.67805
G01 X4.90719 Y0.67570
G01 X4.90760 Y0.67244
G01 X4.90760 Y0.59370
G01 X4.90730 Y0.59083
G01 X4.90641 Y0.58810
G01 X4.90497 Y0.58560
G01 X4.90272 Y0.58320
G01 X4.90034 Y0.58158
G01 X4.89808 Y0.58059
G01 X4.89567 Y0.58006
G01 X4.89382 Y0.57992
G01 X4.86725 Y0.57992
G01 X4.86725 Y0.56811
G01 X4.89559 Y0.56811
G01 X4.89900 Y0.56846
G01 X4.90471 Y0.57035
G01 X4.90980 Y0.57349
G01 X4.91402 Y0.57771
G01 X4.91917 Y0.58621
G01 X4.92010 Y0.58727
G01 X4.92338 Y0.58907
G01 X4.92401 Y0.58934
G01 X4.92537 Y0.58952
G01 X4.92908 Y0.58933
G01 X4.93035 Y0.58881
G01 X4.93334 Y0.58689
G01 X4.93700 Y0.58299
G01 X4.94498 Y0.57663
G01 X4.95383 Y0.57152
G01 X4.96333 Y0.56779
G01 X4.97329 Y0.56552
G01 X4.98092 Y0.56495
G01 X4.98601 Y0.56495
G01 X4.99365 Y0.56552
G01 X5.00360 Y0.56779
G01 X5.01311 Y0.57152
G01 X5.02195 Y0.57663
G01 X5.02993 Y0.58299
G01 X5.03688 Y0.59048
G01 X5.04263 Y0.59891
G01 X5.04706 Y0.60811
G01 X5.05007 Y0.61787
G01 X5.05159 Y0.62796
G04 P0 ( dwell for no time -- G64 should not smooth over this point )
G00 Z0.07874 ( retract )

G00 X4.92206 Y0.42949 ( rapid move to begin. )
G01 F17.71654
( Mill infeed pass 1/1 )
G01 Z-0.00500
G04 P0 ( dwell for no time -- G64 should not smooth over this point )
G01 F35.43307
G01 X4.92206 Y0.42949
G01 X4.92076 Y0.42246
G01 X4.91818 Y0.41579
G01 X4.91441 Y0.40970
G01 X4.90959 Y0.40441
G01 X4.90388 Y0.40010
G01 X4.89747 Y0.39691
G01 X4.89059 Y0.39495
G01 X4.88525 Y0.39447
G01 X4.88168 Y0.39448
G01 X4.87634 Y0.39495
G01 X4.86946 Y0.39691
G01 X4.86305 Y0.40010
G01 X4.85734 Y0.40441
G01 X4.85252 Y0.40970
G01 X4.84875 Y0.41579
G01 X4.84617 Y0.42246
G01 X4.84485 Y0.42949
G01 X4.84485 Y0.43665
G01 X4.84617 Y0.44368
G01 X4.84875 Y0.45035
G01 X4.85252 Y0.45644
G01 X4.85734 Y0.46173
G01 X4.86305 Y0.46604
G01 X4.86946 Y0.46923
G01 X4.87634 Y0.47119
G01 X4.88168 Y0.47166
G01 X4.88525 Y0.47168
G01 X4.89059 Y0.47119
G01 X4.89747 Y0.46923
G01 X4.90388 Y0.46604
G01 X4.90959 Y0.46173
G01 X4.91441 Y0.45644
G01 X4.91818 Y0.45035
G01 X4.92076 Y0.44368
G01 X4.92208 Y0.43665
G01 X4.92206 Y0.42949
G01 X4.92600 Y0.42913
G01 X4.92600 Y0.43701
G01 X4.92455 Y0.44476
G01 X4.92170 Y0.45211
G01 X4.91755 Y0.45881
G01 X4.91224 Y0.46464
G01 X4.90595 Y0.46939
G01 X4.89890 Y0.47290
G01 X4.89131 Y0.47506
G01 X4.88543 Y0.47560
G01 X4.88150 Y0.47560
G01 X4.87562 Y0.47506
G01 X4.86804 Y0.47290
G01 X4.86098 Y0.46939
G01 X4.85469 Y0.46464
G01 X4.84938 Y0.45881
G01 X4.84523 Y0.45211
G01 X4.84238 Y0.44476
G01 X4.84093 Y0.43701
G01 X4.84093 Y0.42913
G01 X4.84238 Y0.42138
G01 X4.84523 Y0.41403
G01 X4.84938 Y0.40733
G01 X4.85469 Y0.40150
G01 X4.86098 Y0.39675
G01 X4.86804 Y0.39324
G01 X4.87562 Y0.39108
G01 X4.88150 Y0.39054
G01 X4.88543 Y0.39054
G01 X4.89131 Y0.39108
G01 X4.89890 Y0.39324
G01 X4.90595 Y0.39675
G01 X4.91224 Y0.40151
G01 X4.91755 Y0.40733
G01 X4.92170 Y0.41403
G01 X4.92455 Y0.42138
G01 X4.92600 Y0.42913
G04 P0 ( dwell for no time -- G64 should not smooth over this point )
G00 Z0.07874 ( retract )

G00 X4.83969 Y0.56811 ( rapid move to begin. )
G01 F17.71654
( Mill infeed pass 1/1 )
G01 Z-0.00500
G04 P0 ( dwell for no time -- G64 should not smooth over this point )
G01 F35.43307
G01 X4.83969 Y0.56811
G01 X4.81134 Y0.56811
G01 X4.80793 Y0.56846
G01 X4.80222 Y0.57035
G01 X4.79713 Y0.57349
G01 X4.79290 Y0.57772
G01 X4.78976 Y0.58281
G01 X4.78787 Y0.58852
G01 X4.78752 Y0.59193
G01 X4.78752 Y0.61929
G01 X4.79933 Y0.61929
G01 X4.79933 Y0.59370
G01 X4.79957 Y0.59124
G01 X4.80071 Y0.58773
G01 X4.80196 Y0.58560
G01 X4.80389 Y0.58346
G01 X4.80622 Y0.58177
G01 X4.80847 Y0.58074
G01 X4.81188 Y0.57998
G01 X4.83969 Y0.57992
G01 X4.83969 Y0.56811
G01 X4.83575 Y0.57205
G01 X4.81155 Y0.57205
G01 X4.80875 Y0.57228
G01 X4.80389 Y0.57392
G01 X4.79957 Y0.57658
G01 X4.79599 Y0.58016
G01 X4.79333 Y0.58447
G01 X4.79170 Y0.58934
G01 X4.79146 Y0.59213
G01 X4.79146 Y0.61535
G01 X4.79028 Y0.61652
G01 X4.79146 Y0.61535
G01 X4.79539 Y0.61535
G01 X4.79651 Y0.61648
G01 X4.79539 Y0.61535
G01 X4.79539 Y0.59370
G01 X4.79565 Y0.59083
G01 X4.79663 Y0.58726
G01 X4.79730 Y0.58576
G01 X4.79878 Y0.58329
G01 X4.80126 Y0.58053
G01 X4.80425 Y0.57836
G01 X4.80687 Y0.57715
G01 X4.80843 Y0.57664
G01 X4.81167 Y0.57605
G01 X4.83575 Y0.57598
G01 X4.83689 Y0.57711
G01 X4.83575 Y0.57598
G01 X4.83575 Y0.57205
G04 P0 ( dwell for no time -- G64 should not smooth over this point )
G00 Z0.07874 ( retract )

G00 X4.83969 Y0.68622 ( rapid move to begin. )
G01 F17.71654
( Mill infeed pass 1/1 )
G01 Z-0.00500
G04 P0 ( dwell for no time -- G64 should not smooth over this point )
G01 F35.43307
G01 X4.83969 Y0.68622
G01 X4.81188 Y0.68616
G01 X4.80847 Y0.68540
G01 X4.80622 Y0.68437
G01 X4.80421 Y0.68294
G01 X4.80174 Y0.68019
G01 X4.80052 Y0.67805
G01 X4.79957 Y0.67490
G01 X4.79933 Y0.67244
G01 X4.79933 Y0.64685
G01 X4.78752 Y0.64685
G01 X4.78752 Y0.67421
G01 X4.78787 Y0.67762
G01 X4.78976 Y0.68333
G01 X4.79290 Y0.68842
G01 X4.79713 Y0.69265
G01 X4.80222 Y0.69579
G01 X4.80793 Y0.69768
G01 X4.81134 Y0.69803
G01 X4.83969 Y0.69803
G01 X4.83969 Y0.68622
G01 X4.83575 Y0.69016
G01 X4.83575 Y0.69409
G01 X4.83690 Y0.69525
G01 X4.83575 Y0.69409
G01 X4.81154 Y0.69412
G01 X4.80876 Y0.69381
G01 X4.80388 Y0.69224
G01 X4.79957 Y0.68956
G01 X4.79599 Y0.68598
G01 X4.79333 Y0.68166
G01 X4.79170 Y0.67680
G01 X4.79146 Y0.67401
G01 X4.79146 Y0.65079
G01 X4.79028 Y0.64962
G01 X4.79146 Y0.65079
G01 X4.79539 Y0.65079
G01 X4.79652 Y0.64965
G01 X4.79539 Y0.65079
G01 X4.79539 Y0.67244
G01 X4.79565 Y0.67531
G01 X4.79663 Y0.67888
G01 X4.79730 Y0.68038
G01 X4.79878 Y0.68285
G01 X4.80126 Y0.68561
G01 X4.80356 Y0.68734
G01 X4.80499 Y0.68816
G01 X4.80764 Y0.68929
G01 X4.81045 Y0.68993
G01 X4.81311 Y0.69016
G01 X4.83575 Y0.69016
G04 P0 ( dwell for no time -- G64 should not smooth over this point )
G00 Z0.07874 ( retract )

G00 X3.33426 Y0.58858 ( rapid move to begin. )
G01 F17.71654
( Mill infeed pass 1/1 )
G01 Z-0.00500
G04 P0 ( dwell for no time -- G64 should not smooth over this point )
G01 F35.43307
G01 X3.33426 Y0.58858
G01 X3.69044 Y0.23241
G01 X3.69031 Y0.23211
G01 X3.69044 Y0.23241
G01 X5.13736 Y0.23241
G01 X5.13748 Y0.23211
G01 X5.13736 Y0.23241
G01 X5.34653 Y0.44158
G01 X5.34683 Y0.44146
G01 X5.34653 Y0.44158
G01 X5.34653 Y0.47600
G01 X5.34768 Y0.47714
G01 X5.34653 Y0.47600
G01 X5.32101 Y0.47604
G01 X5.31938 Y0.47621
G01 X5.31657 Y0.47685
G01 X5.31392 Y0.47798
G01 X5.31250 Y0.47881
G01 X5.31019 Y0.48053
G01 X5.30823 Y0.48265
G01 X5.30727 Y0.48398
G01 X5.30586 Y0.48649
G01 X5.30472 Y0.49002
G01 X5.30433 Y0.49370
G01 X5.30437 Y0.57326
G01 X5.30472 Y0.57612
G01 X5.30586 Y0.57965
G01 X5.30772 Y0.58285
G01 X5.31025 Y0.58565
G01 X5.31288 Y0.58759
G01 X5.31580 Y0.58900
G01 X5.31938 Y0.58993
G01 X5.32164 Y0.59015
G01 X5.40276 Y0.59016
G01 X5.40542 Y0.58993
G01 X5.40856 Y0.58916
G01 X5.41144 Y0.58787
G01 X5.41457 Y0.58564
G01 X5.41709 Y0.58285
G01 X5.41894 Y0.57965
G01 X5.42009 Y0.57612
G01 X5.42043 Y0.57326
G01 X5.42047 Y0.49370
G01 X5.41654 Y0.49370
G01 X5.41654 Y0.57244
G01 X5.41624 Y0.57530
G01 X5.41535 Y0.57805
G01 X5.41390 Y0.58054
G01 X5.41198 Y0.58268
G01 X5.40965 Y0.58437
G01 X5.40701 Y0.58555
G01 X5.40460 Y0.58608
G01 X5.40276 Y0.58622
G01 X5.32184 Y0.58622
G01 X5.32020 Y0.58608
G01 X5.31741 Y0.58540
G01 X5.31516 Y0.58437
G01 X5.31283 Y0.58268
G01 X5.31090 Y0.58054
G01 X5.30946 Y0.57805
G01 X5.30857 Y0.57530
G01 X5.30827 Y0.57244
G01 X5.30827 Y0.49370
G01 X5.30857 Y0.49084
G01 X5.30965 Y0.48773
G01 X5.31090 Y0.48560
G01 X5.31254 Y0.48375
G01 X5.31516 Y0.48177
G01 X5.31819 Y0.48049
G01 X5.32101 Y0.47997
G01 X5.35047 Y0.47993
G01 X5.35047 Y0.43995
G01 X5.13899 Y0.22847
G01 X3.68880 Y0.22847
G01 X3.32476 Y0.59252
G01 X3.33620 Y0.59259
G01 X3.33694 Y0.59282
G01 X3.33822 Y0.59367
G01 X3.33871 Y0.59427
G01 X3.33930 Y0.59569
G01 X3.33937 Y0.66339
G01 X3.33907 Y0.66489
G01 X3.33822 Y0.66617
G01 X3.33694 Y0.66702
G01 X3.33543 Y0.66732
G01 X3.26850 Y0.66732
G01 X3.26700 Y0.66702
G01 X3.26572 Y0.66617
G01 X3.26487 Y0.66489
G01 X3.26457 Y0.66339
G01 X3.26457 Y0.59646
G01 X3.26487 Y0.59495
G01 X3.26572 Y0.59367
G01 X3.26700 Y0.59282
G01 X3.26850 Y0.59252
G01 X3.29163 Y0.59252
G01 X3.29227 Y0.59148
G01 X3.29353 Y0.58998
G01 X3.67542 Y0.20809
G01 X3.67844 Y0.20590
G01 X3.68199 Y0.20474
G01 X5.14580 Y0.20474
G01 X5.14935 Y0.20590
G01 X5.15237 Y0.20809
G01 X5.37110 Y0.42685
G01 X5.37233 Y0.42837
G01 X5.37327 Y0.43009
G01 X5.37411 Y0.43268
G01 X5.37432 Y0.43462
G01 X5.37434 Y0.47992
G01 X5.40276 Y0.47992
G01 X5.40460 Y0.48006
G01 X5.40701 Y0.48059
G01 X5.40999 Y0.48199
G01 X5.41198 Y0.48346
G01 X5.41390 Y0.48560
G01 X5.41535 Y0.48810
G01 X5.41613 Y0.49044
G01 X5.41654 Y0.49370
G01 X5.42047 Y0.49370
G01 X5.42009 Y0.49002
G01 X5.41924 Y0.48726
G01 X5.41857 Y0.48576
G01 X5.41709 Y0.48329
G01 X5.41519 Y0.48112
G01 X5.41397 Y0.48002
G01 X5.41145 Y0.47827
G01 X5.40854 Y0.47697
G01 X5.40542 Y0.47621
G01 X5.40317 Y0.47600
G01 X5.37828 Y0.47598
G01 X5.37713 Y0.47713
G01 X5.37828 Y0.47598
G01 X5.37824 Y0.43423
G01 X5.37797 Y0.43191
G01 X5.37733 Y0.42966
G01 X5.37674 Y0.42823
G01 X5.37560 Y0.42618
G01 X5.37415 Y0.42435
G01 X5.15516 Y0.20531
G01 X5.15114 Y0.20239
G01 X5.14642 Y0.20086
G01 X3.68261 Y0.20076
G01 X3.68018 Y0.20114
G01 X3.67665 Y0.20239
G01 X3.67264 Y0.20531
G01 X3.29075 Y0.58720
G01 X3.28956 Y0.58858
G01 X3.28969 Y0.58888
G01 X3.28956 Y0.58858
G01 X3.26850 Y0.58858
G01 X3.26697 Y0.58873
G01 X3.26549 Y0.58918
G01 X3.26413 Y0.58991
G01 X3.26294 Y0.59089
G01 X3.26196 Y0.59208
G01 X3.26123 Y0.59344
G01 X3.26078 Y0.59492
G01 X3.26063 Y0.59646
G01 X3.26063 Y0.66339
G01 X3.26078 Y0.66492
G01 X3.26134 Y0.66660
G01 X3.26186 Y0.66759
G01 X3.26294 Y0.66895
G01 X3.26431 Y0.67003
G01 X3.26523 Y0.67052
G01 X3.26697 Y0.67111
G01 X3.26850 Y0.67126
G01 X3.33543 Y0.67126
G01 X3.33697 Y0.67111
G01 X3.33871 Y0.67052
G01 X3.33964 Y0.67002
G01 X3.34100 Y0.66895
G01 X3.34207 Y0.66759
G01 X3.34257 Y0.66665
G01 X3.34316 Y0.66492
G01 X3.34331 Y0.66339
G01 X3.34331 Y0.59646
G01 X3.34316 Y0.59492
G01 X3.34271 Y0.59344
G01 X3.34198 Y0.59208
G01 X3.34100 Y0.59089
G01 X3.33981 Y0.58991
G01 X3.33845 Y0.58918
G01 X3.33697 Y0.58873
G01 X3.33426 Y0.58858
G01 X3.32965 Y0.59012
G04 P0 ( dwell for no time -- G64 should not smooth over this point )
G00 Z0.07874 ( retract )

G00 X3.15822 Y0.38989 ( rapid move to begin. )
G01 F17.71654
( Mill infeed pass 1/1 )
G01 Z-0.00500
G04 P0 ( dwell for no time -- G64 should not smooth over this point )
G01 F35.43307
G01 X3.15822 Y0.38989
G01 X3.15782 Y0.39119
G01 X3.15686 Y0.39215
G01 X3.15557 Y0.39255
G01 X3.15423 Y0.39231
G01 X3.15278 Y0.39117
G01 X3.14044 Y0.37548
G01 X3.13996 Y0.37496
G01 X3.13874 Y0.37423
G01 X3.13735 Y0.37397
G01 X3.13595 Y0.37423
G01 X3.13474 Y0.37496
G01 X3.13425 Y0.37548
G01 X3.12128 Y0.39186
G01 X3.11981 Y0.39251
G01 X3.11846 Y0.39243
G01 X3.11730 Y0.39173
G01 X3.11660 Y0.39056
G01 X3.11652 Y0.38921
G01 X3.11728 Y0.38753
G01 X3.13168 Y0.36919
G01 X3.13236 Y0.36787
G01 X3.13251 Y0.36713
G01 X3.13236 Y0.36565
G01 X3.13168 Y0.36433
G01 X3.11676 Y0.34520
G01 X3.11647 Y0.34363
G01 X3.11687 Y0.34233
G01 X3.11783 Y0.34137
G01 X3.11913 Y0.34096
G01 X3.12046 Y0.34121
G01 X3.12192 Y0.34235
G01 X3.13425 Y0.35804
G01 X3.13474 Y0.35856
G01 X3.13595 Y0.35929
G01 X3.13735 Y0.35955
G01 X3.13874 Y0.35929
G01 X3.13996 Y0.35856
G01 X3.14044 Y0.35804
G01 X3.15342 Y0.34166
G01 X3.15489 Y0.34100
G01 X3.15624 Y0.34109
G01 X3.15740 Y0.34179
G01 X3.15810 Y0.34295
G01 X3.15818 Y0.34431
G01 X3.15742 Y0.34599
G01 X3.14301 Y0.36433
G01 X3.14233 Y0.36565
G01 X3.14219 Y0.36713
G01 X3.14233 Y0.36787
G01 X3.14301 Y0.36919
G01 X3.15757 Y0.38771
G01 X3.15793 Y0.38831
G01 X3.15822 Y0.38989
G01 X3.14115 Y0.37182
G01 X3.13906 Y0.37025
G01 X3.13855 Y0.36897
G01 X3.13827 Y0.36751
G01 X3.13827 Y0.36601
G01 X3.13855 Y0.36454
G01 X3.13906 Y0.36327
G01 X3.14078 Y0.36185
G01 X3.13906 Y0.36327
G01 X3.13735 Y0.36348
G01 X3.13563 Y0.36327
G01 X3.13392 Y0.36185
G01 X3.13563 Y0.36327
G01 X3.13614 Y0.36454
G01 X3.13642 Y0.36601
G01 X3.13642 Y0.36751
G01 X3.13614 Y0.36897
G01 X3.13563 Y0.37025
G01 X3.13354 Y0.37182
G01 X3.13563 Y0.37025
G01 X3.13735 Y0.37004
G01 X3.13906 Y0.37025
G04 P0 ( dwell for no time -- G64 should not smooth over this point )
G00 Z0.07874 ( retract )

G00 X3.09813 Y0.37946 ( rapid move to begin. )
G01 F17.71654
( Mill infeed pass 1/1 )
G01 Z-0.00500
G04 P0 ( dwell for no time -- G64 should not smooth over this point )
G01 F35.43307
G01 X3.09813 Y0.37946
G01 X3.09929 Y0.37967
G01 X3.09921 Y0.38034
G01 X3.09877 Y0.38161
G01 X3.09539 Y0.38819
G01 X3.09402 Y0.38926
G01 X3.08737 Y0.39249
G01 X3.08602 Y0.39268
G01 X3.07291 Y0.39259
G01 X3.07162 Y0.39215
G01 X3.06505 Y0.38876
G01 X3.06399 Y0.38741
G01 X3.06099 Y0.38142
G01 X3.06058 Y0.37940
G01 X3.06058 Y0.35387
G01 X3.06110 Y0.35191
G01 X3.06447 Y0.34533
G01 X3.06584 Y0.34425
G01 X3.07184 Y0.34126
G01 X3.07385 Y0.34084
G01 X3.08695 Y0.34092
G01 X3.08824 Y0.34137
G01 X3.09475 Y0.34471
G01 X3.09569 Y0.34602
G01 X3.09588 Y0.34736
G01 X3.09542 Y0.34864
G01 X3.09442 Y0.34956
G01 X3.09311 Y0.34991
G01 X3.09131 Y0.34950
G01 X3.08663 Y0.34716
G01 X3.08487 Y0.34675
G01 X3.07439 Y0.34679
G01 X3.07324 Y0.34716
G01 X3.06964 Y0.34902
G01 X3.06916 Y0.34943
G01 X3.06842 Y0.35045
G01 X3.06667 Y0.35406
G01 X3.06648 Y0.35526
G01 X3.06656 Y0.36188
G01 X3.06714 Y0.36330
G01 X3.06763 Y0.36389
G01 X3.06891 Y0.36475
G01 X3.09668 Y0.37038
G01 X3.09788 Y0.37083
G01 X3.09876 Y0.37167
G01 X3.09920 Y0.37285
G01 X3.09929 Y0.37967
G01 X3.09812 Y0.37969
G01 X3.09735 Y0.37375
G01 X3.09685 Y0.37286
G01 X3.09635 Y0.37241
G01 X3.09647 Y0.37227
G01 X3.09635 Y0.37241
G01 X3.09086 Y0.37020
G01 X3.07216 Y0.36646
G01 X3.06901 Y0.36617
G01 X3.06532 Y0.36617
G01 X3.06456 Y0.36633
G01 X3.06447 Y0.36607
G01 X3.06456 Y0.36633
G01 X3.06407 Y0.36662
G01 X3.06363 Y0.36713
G01 X3.06353 Y0.36706
G01 X3.06363 Y0.36713
G01 X3.06202 Y0.37116
G01 X3.06156 Y0.37516
G01 X3.06152 Y0.37911
G01 X3.06188 Y0.38081
G01 X3.06246 Y0.38223
G01 X3.06487 Y0.38675
G01 X3.06604 Y0.38807
G01 X3.06592 Y0.38820
G01 X3.06604 Y0.38807
G01 X3.06787 Y0.38917
G01 X3.07109 Y0.39078
G01 X3.07345 Y0.39171
G01 X3.08572 Y0.39171
G01 X3.08742 Y0.39137
G01 X3.09198 Y0.38918
G01 X3.09366 Y0.38817
G01 X3.09465 Y0.38720
G01 X3.09478 Y0.38732
G01 X3.09465 Y0.38720
G01 X3.09582 Y0.38527
G01 X3.09770 Y0.38135
G01 X3.09813 Y0.37946
G01 X3.09304 Y0.37856
G01 X3.09266 Y0.37717
G01 X3.09180 Y0.37602
G01 X3.09059 Y0.37525
G01 X3.08989 Y0.37504
G01 X3.07119 Y0.37130
G01 X3.06981 Y0.37127
G01 X3.06913 Y0.37144
G01 X3.06792 Y0.37212
G01 X3.06743 Y0.37261
G01 X3.06673 Y0.37380
G01 X3.06648 Y0.37516
G01 X3.06648 Y0.37826
G01 X3.06667 Y0.37945
G01 X3.06842 Y0.38307
G01 X3.06916 Y0.38409
G01 X3.07018 Y0.38483
G01 X3.07380 Y0.38659
G01 X3.07500 Y0.38677
G01 X3.08487 Y0.38677
G01 X3.08607 Y0.38659
G01 X3.08968 Y0.38483
G01 X3.09070 Y0.38409
G01 X3.09144 Y0.38307
G01 X3.09264 Y0.38066
G01 X3.09304 Y0.37928
G01 X3.09304 Y0.37856
G01 X3.09415 Y0.37939
G01 X3.09349 Y0.38114
G01 X3.09145 Y0.38489
G01 X3.09007 Y0.38574
G01 X3.08625 Y0.38760
G01 X3.08484 Y0.38776
G01 X3.07410 Y0.38771
G01 X3.07277 Y0.38722
G01 X3.06847 Y0.38496
G01 X3.06752 Y0.38346
G01 X3.06565 Y0.37964
G01 X3.06552 Y0.37885
G01 X3.06550 Y0.37529
G01 X3.06590 Y0.37213
G01 X3.06668 Y0.37011
G01 X3.06892 Y0.37011
G01 X3.07148 Y0.37036
G01 X3.08991 Y0.37404
G01 X3.09354 Y0.37550
G01 X3.09415 Y0.37939
G04 P0 ( dwell for no time -- G64 should not smooth over this point )
G00 Z0.07874 ( retract )

G00 X3.03531 Y0.39138 ( rapid move to begin. )
G01 F17.71654
( Mill infeed pass 1/1 )
G01 Z-0.00500
G04 P0 ( dwell for no time -- G64 should not smooth over this point )
G01 F35.43307
G01 X3.03531 Y0.39138
G01 X3.03516 Y0.38997
G01 X3.03256 Y0.38471
G01 X3.03209 Y0.38405
G01 X3.02957 Y0.38157
G01 X3.02479 Y0.37913
G01 X3.02166 Y0.37793
G01 X3.01876 Y0.37650
G01 X3.01481 Y0.37807
G01 X3.01098 Y0.37856
G01 X3.00100 Y0.37857
G01 X3.00027 Y0.38052
G01 X2.99988 Y0.38361
G01 X2.99988 Y0.40560
G01 X3.00075 Y0.40981
G01 X3.00501 Y0.41070
G01 X3.02251 Y0.41072
G01 X3.02391 Y0.41057
G01 X3.02949 Y0.40779
G01 X3.03180 Y0.40554
G01 X3.03275 Y0.40423
G01 X3.03478 Y0.40017
G01 X3.03527 Y0.39884
G01 X3.03531 Y0.39138
G01 X3.03433 Y0.39135
G01 X3.03433 Y0.39794
G01 X3.03414 Y0.39914
G01 X3.03153 Y0.40435
G01 X3.02942 Y0.40653
G01 X3.02840 Y0.40727
G01 X3.02429 Y0.40932
G01 X3.02253 Y0.40974
G01 X3.00480 Y0.40974
G01 X3.00330 Y0.40944
G01 X3.00261 Y0.40907
G01 X3.00153 Y0.40799
G01 X3.00116 Y0.40731
G01 X3.00086 Y0.40580
G01 X3.00086 Y0.38349
G01 X3.00094 Y0.38272
G01 X3.00153 Y0.38130
G01 X3.00261 Y0.38022
G01 X3.00330 Y0.37985
G01 X3.00480 Y0.37955
G01 X3.02253 Y0.37955
G01 X3.02373 Y0.37974
G01 X3.02894 Y0.38235
G01 X3.03112 Y0.38446
G01 X3.03186 Y0.38548
G01 X3.03391 Y0.38959
G01 X3.03433 Y0.39135
G04 P0 ( dwell for no time -- G64 should not smooth over this point )
G00 Z0.07874 ( retract )

G00 X3.01927 Y0.37125 ( rapid move to begin. )
G01 F17.71654
( Mill infeed pass 1/1 )
G01 Z-0.00500
G04 P0 ( dwell for no time -- G64 should not smooth over this point )
G01 F35.43307
G01 X3.01927 Y0.37125
G01 X3.01849 Y0.37235
G01 X3.01382 Y0.37421
G01 X3.01060 Y0.37463
G01 X2.99930 Y0.37466
G01 X2.99924 Y0.37450
G01 X2.99930 Y0.37466
G01 X2.99838 Y0.37509
G01 X2.99794 Y0.37560
G01 X2.99779 Y0.37549
G01 X2.99794 Y0.37560
G01 X2.99640 Y0.37957
G01 X2.99596 Y0.38325
G01 X2.99592 Y0.40580
G01 X2.99726 Y0.41224
G01 X2.99711 Y0.41232
G01 X2.99726 Y0.41224
G01 X2.99769 Y0.41286
G01 X2.99831 Y0.41329
G01 X2.99823 Y0.41344
G01 X2.99831 Y0.41329
G01 X3.00480 Y0.41466
G01 X3.02259 Y0.41466
G01 X3.02484 Y0.41450
G01 X3.03180 Y0.41106
G01 X3.03502 Y0.40788
G01 X3.03629 Y0.40607
G01 X3.03867 Y0.40114
G01 X3.03926 Y0.39946
G01 X3.03923 Y0.39050
G01 X3.04023 Y0.39020
G01 X3.03982 Y0.38819
G01 X3.03678 Y0.38213
G01 X3.03587 Y0.38086
G01 X3.03269 Y0.37771
G01 X3.03184 Y0.37714
G01 X3.02469 Y0.37354
G01 X3.02369 Y0.37242
G01 X3.02336 Y0.37174
G01 X3.02313 Y0.37026
G01 X3.02347 Y0.36880
G01 X3.02384 Y0.36814
G01 X3.03943 Y0.34588
G01 X3.04009 Y0.34415
G01 X3.03994 Y0.34281
G01 X3.03918 Y0.34168
G01 X3.03798 Y0.34104
G01 X3.03662 Y0.34104
G01 X3.03520 Y0.34177
G01 X3.01346 Y0.37254
G01 X3.01220 Y0.37336
G01 X3.01148 Y0.37358
G01 X3.00480 Y0.37365
G01 X3.00330 Y0.37335
G01 X3.00261 Y0.37299
G01 X3.00153 Y0.37190
G01 X3.00094 Y0.37048
G01 X3.00086 Y0.34427
G01 X3.00042 Y0.34248
G01 X2.99952 Y0.34146
G01 X2.99825 Y0.34098
G01 X2.99691 Y0.34114
G01 X2.99579 Y0.34191
G01 X2.99504 Y0.34334
G01 X2.99496 Y0.34403
G01 X2.99496 Y0.41233
G01 X2.99524 Y0.41389
G01 X2.99611 Y0.41499
G01 X2.99744 Y0.41559
G01 X3.02368 Y0.41564
G01 X3.02503 Y0.41546
G01 X3.03216 Y0.41197
G01 X3.03298 Y0.41133
G01 X3.03587 Y0.40844
G01 X3.03678 Y0.40716
G01 X3.03971 Y0.40132
G01 X3.04023 Y0.39933
G01 X3.04023 Y0.39020
G01 X3.03923 Y0.39050
G01 X3.03884 Y0.38857
G01 X3.03587 Y0.38249
G01 X3.03503 Y0.38143
G01 X3.03195 Y0.37834
G01 X3.02648 Y0.37558
G01 X3.02329 Y0.37434
G01 X3.01951 Y0.37250
G01 X3.01927 Y0.37125
G01 X3.02052 Y0.36528
G04 P0 ( dwell for no time -- G64 should not smooth over this point )
G00 Z0.07874 ( retract )

G00 X2.87764 Y0.25422 ( rapid move to begin. )
G01 F17.71654
( Mill infeed pass 1/1 )
G01 Z-0.00500
G04 P0 ( dwell for no time -- G64 should not smooth over this point )
G01 F35.43307
G01 X2.87764 Y0.25422
G01 X2.87701 Y0.25020
G01 X2.87337 Y0.24875
G01 X2.85494 Y0.24506
G01 X2.85238 Y0.24481
G01 X2.85014 Y0.24481
G01 X2.84936 Y0.24684
G01 X2.84896 Y0.24999
G01 X2.84898 Y0.25355
G01 X2.84912 Y0.25434
G01 X2.85098 Y0.25816
G01 X2.85194 Y0.25966
G01 X2.85624 Y0.26193
G01 X2.85757 Y0.26242
G01 X2.86830 Y0.26246
G01 X2.86971 Y0.26231
G01 X2.87354 Y0.26044
G01 X2.87491 Y0.25959
G01 X2.87580 Y0.25812
G01 X2.87764 Y0.25422
G01 X2.87651 Y0.25326
G01 X2.87651 Y0.25399
G01 X2.87611 Y0.25537
G01 X2.87491 Y0.25777
G01 X2.87417 Y0.25880
G01 X2.87315 Y0.25954
G01 X2.86953 Y0.26129
G01 X2.86833 Y0.26148
G01 X2.85846 Y0.26148
G01 X2.85726 Y0.26129
G01 X2.85365 Y0.25954
G01 X2.85263 Y0.25880
G01 X2.85189 Y0.25777
G01 X2.85013 Y0.25416
G01 X2.84995 Y0.25296
G01 X2.84995 Y0.24987
G01 X2.85019 Y0.24850
G01 X2.85089 Y0.24731
G01 X2.85139 Y0.24682
G01 X2.85260 Y0.24615
G01 X2.85327 Y0.24598
G01 X2.85466 Y0.24601
G01 X2.87336 Y0.24975
G01 X2.87470 Y0.25028
G01 X2.87575 Y0.25126
G01 X2.87638 Y0.25255
G01 X2.87651 Y0.25326
G01 X2.88275 Y0.25437
G01 X2.88264 Y0.25531
G01 X2.88235 Y0.25609
G01 X2.87886 Y0.26289
G01 X2.87749 Y0.26397
G01 X2.87083 Y0.26720
G01 X2.86948 Y0.26738
G01 X2.85638 Y0.26730
G01 X2.85509 Y0.26686
G01 X2.84851 Y0.26346
G01 X2.84746 Y0.26211
G01 X2.84446 Y0.25612
G01 X2.84404 Y0.25411
G01 X2.84404 Y0.22858
G01 X2.84456 Y0.22661
G01 X2.84794 Y0.22004
G01 X2.84931 Y0.21896
G01 X2.85530 Y0.21596
G01 X2.85732 Y0.21554
G01 X2.86972 Y0.21554
G01 X2.87068 Y0.21566
G01 X2.87821 Y0.21942
G01 X2.87915 Y0.22072
G01 X2.87934 Y0.22207
G01 X2.87889 Y0.22334
G01 X2.87789 Y0.22426
G01 X2.87658 Y0.22461
G01 X2.87477 Y0.22420
G01 X2.87009 Y0.22187
G01 X2.86833 Y0.22145
G01 X2.85786 Y0.22150
G01 X2.85670 Y0.22187
G01 X2.85311 Y0.22372
G01 X2.85263 Y0.22413
G01 X2.85189 Y0.22515
G01 X2.85013 Y0.22877
G01 X2.84995 Y0.22997
G01 X2.85002 Y0.23658
G01 X2.85061 Y0.23800
G01 X2.85110 Y0.23860
G01 X2.85237 Y0.23945
G01 X2.88015 Y0.24508
G01 X2.88134 Y0.24553
G01 X2.88223 Y0.24638
G01 X2.88267 Y0.24756
G01 X2.88275 Y0.25437
G01 X2.88158 Y0.25443
G01 X2.88082 Y0.24845
G01 X2.88032 Y0.24757
G01 X2.87981 Y0.24712
G01 X2.87993 Y0.24697
G01 X2.87981 Y0.24712
G01 X2.87433 Y0.24491
G01 X2.85562 Y0.24116
G01 X2.85248 Y0.24087
G01 X2.84878 Y0.24087
G01 X2.84798 Y0.24105
G01 X2.84788 Y0.24079
G01 X2.84798 Y0.24105
G01 X2.84709 Y0.24183
G01 X2.84700 Y0.24177
G01 X2.84709 Y0.24183
G01 X2.84549 Y0.24587
G01 X2.84502 Y0.24987
G01 X2.84499 Y0.25381
G01 X2.84535 Y0.25552
G01 X2.84593 Y0.25694
