( pcb2gcode 2.5.0 )
( Software-independent Gcode )

G94 ( Inches per minute feed rate. )
G21 ( Units == MM. )

G90 ( Absolute coordinates. )
G00 S200 ( RPM spindle speed. )
G64 P0.00040 ( set maximum deviation from commanded toolpath )
G01 F900.0000 ( Feedrate. )


G00 Z10.0000 (Retract to tool change height)
T0
M5      (Spindle stop.)
(MSG, Change tool bit to mill diameter 0.00787in)
M6      (Tool change.)
M0      (Temporary machine stop.)
M3 ( Spindle on clockwise. )
G00 Z2.0000 ( retract )

G00 X202.9600 Y10.7927 ( rapid move to begin. )
G01 F450.0001
( Mill infeed pass 1/1 )
G01 Z-0.1270
G01 F900.0000
G01 X202.9600 Y10.7927
G01 X202.9209 Y10.3485
G01 X202.8388 Y9.8986
G01 X202.7210 Y9.4757
G01 X202.5754 Y9.0876
G01 X202.4276 Y8.7782
G01 X202.3742 Y8.6698
G01 X202.1614 Y8.3139
G01 X201.9043 Y7.9581
G01 X201.5990 Y7.6086
G01 X201.2808 Y7.3061
G01 X200.9369 Y7.0333
G01 X200.5757 Y6.7955
G01 X200.2048 Y6.5956
G01 X199.7845 Y6.4158
G01 X199.3600 Y6.2786
G01 X198.9318 Y6.1821
G01 X198.4964 Y6.1242
G01 X198.0684 Y6.1051
G01 X195.9074 Y6.1051
G01 X195.5836 Y6.0714
G01 X195.2653 Y6.0035
G01 X194.9557 Y5.9030
G01 X194.6582 Y5.7706
G01 X194.3765 Y5.6078
G01 X194.1131 Y5.4165
G01 X193.8713 Y5.1989
G01 X193.6534 Y4.9568
G01 X193.4621 Y4.6937
G01 X193.2993 Y4.4117
G01 X193.1670 Y4.1143
G01 X193.0664 Y3.8049
G01 X192.9989 Y3.4864
G01 X192.9648 Y3.1626
G01 X192.9641 Y2.9830
G01 X192.9478 Y2.7551
G01 X192.8939 Y2.4917
G01 X192.7939 Y2.2167
G01 X192.6486 Y1.9543
G01 X192.4848 Y1.7412
G01 X192.3082 Y1.5674
G01 X192.0918 Y1.4056
G01 X191.8802 Y1.2885
G01 X191.5785 Y1.1760
G01 X191.3418 Y1.1260
G01 X191.0870 Y1.1059
G01 X15.0726 Y1.1052
G01 X14.8255 Y1.1222
G01 X14.5618 Y1.1760
G01 X14.2598 Y1.2885
G01 X14.0482 Y1.4056
G01 X13.8318 Y1.5674
G01 X13.6553 Y1.7412
G01 X13.4915 Y1.9543
G01 X13.3462 Y2.2167
G01 X13.2461 Y2.4917
G01 X13.1923 Y2.7551
G01 X13.1760 Y2.9830
G01 X13.1755 Y3.1626
G01 X13.1415 Y3.4864
G01 X13.0739 Y3.8049
G01 X12.9733 Y4.1143
G01 X12.8407 Y4.4117
G01 X12.6782 Y4.6937
G01 X12.4866 Y4.9571
G01 X12.2690 Y5.1989
G01 X12.0272 Y5.4165
G01 X11.7638 Y5.6081
G01 X11.4818 Y5.7706
G01 X11.1844 Y5.9032
G01 X10.8750 Y6.0038
G01 X10.5565 Y6.0714
G01 X10.2329 Y6.1054
G01 X8.0716 Y6.1051
G01 X7.6436 Y6.1242
G01 X7.2083 Y6.1821
G01 X6.7800 Y6.2786
G01 X6.3556 Y6.4158
G01 X5.9352 Y6.5956
G01 X5.5491 Y6.8049
G01 X5.1976 Y7.0371
G01 X4.8590 Y7.3061
G01 X4.5364 Y7.6136
G01 X4.2357 Y7.9581
G01 X3.9921 Y8.2934
G01 X3.7661 Y8.6698
G01 X3.5745 Y9.0650
G01 X3.4115 Y9.4993
G01 X3.2956 Y9.9230
G01 X3.2184 Y10.3553
G01 X3.1801 Y10.7927
G01 X3.1801 Y11.2072
G01 X3.2184 Y11.6446
G01 X3.2972 Y12.0835
G01 X3.4191 Y12.5242
G01 X3.5745 Y12.9349
G01 X3.7661 Y13.3302
G01 X3.9921 Y13.7066
G01 X4.2357 Y14.0419
G01 X4.5410 Y14.3914
G01 X4.8593 Y14.6939
G01 X5.2032 Y14.9670
G01 X5.5550 Y15.1986
G01 X5.9355 Y15.4043
G01 X6.3556 Y15.5842
G01 X6.7800 Y15.7213
G01 X7.2083 Y15.8178
G01 X7.6436 Y15.8758
G01 X8.0716 Y15.8946
G01 X10.2329 Y15.8946
G01 X10.5565 Y15.9286
G01 X10.8748 Y15.9962
G01 X11.1844 Y16.0967
G01 X11.4818 Y16.2291
G01 X11.7638 Y16.3919
G01 X12.0272 Y16.5834
G01 X12.2690 Y16.8011
G01 X12.4866 Y17.0429
G01 X12.6782 Y17.3063
G01 X12.8407 Y17.5882
G01 X12.9733 Y17.8857
G01 X13.0739 Y18.1950
G01 X13.1415 Y18.5136
G01 X13.1755 Y18.8374
G01 X13.1760 Y19.0170
G01 X13.1923 Y19.2448
G01 X13.2461 Y19.5082
G01 X13.3462 Y19.7833
G01 X13.4907 Y20.0447
G01 X13.6406 Y20.2418
G01 X13.8318 Y20.4325
G01 X14.0482 Y20.5943
G01 X14.2598 Y20.7114
G01 X14.5618 Y20.8239
G01 X14.7983 Y20.8740
G01 X15.0531 Y20.8940
G01 X191.0674 Y20.8948
G01 X191.3146 Y20.8778
G01 X191.5785 Y20.8239
G01 X191.8802 Y20.7114
G01 X192.0918 Y20.5943
G01 X192.3082 Y20.4325
G01 X192.4995 Y20.2418
G01 X192.6493 Y20.0447
G01 X192.7939 Y19.7833
G01 X192.8939 Y19.5082
G01 X192.9478 Y19.2448
G01 X192.9641 Y19.0170
G01 X192.9648 Y18.8374
G01 X192.9989 Y18.5136
G01 X193.0664 Y18.1953
G01 X193.1670 Y17.8857
G01 X193.2993 Y17.5882
G01 X193.4621 Y17.3063
G01 X193.6534 Y17.0431
G01 X193.8713 Y16.8011
G01 X194.1131 Y16.5834
G01 X194.3765 Y16.3921
G01 X194.6582 Y16.2293
G01 X194.9557 Y16.0970
G01 X195.2653 Y15.9964
G01 X195.5836 Y15.9286
G01 X195.9074 Y15.8946
G01 X198.0684 Y15.8946
G01 X198.4964 Y15.8758
G01 X198.9384 Y15.8166
G01 X199.3603 Y15.7213
G01 X199.7781 Y15.5867
G01 X200.2048 Y15.4043
G01 X200.5909 Y15.1950
G01 X200.9424 Y14.9629
G01 X201.2810 Y14.6939
G01 X201.6039 Y14.3863
G01 X201.9043 Y14.0419
G01 X202.1517 Y13.7008
G01 X202.3742 Y13.3302
G01 X202.5655 Y12.9349
G01 X202.7286 Y12.5006
G01 X202.8444 Y12.0769
G01 X202.9219 Y11.6446
G01 X202.9600 Y11.2072
G01 X202.9600 Y10.7927
G01 X202.8601 Y10.7927
G01 X202.8601 Y11.2072
G01 X202.8220 Y11.6357
G01 X202.7461 Y12.0592
G01 X202.6295 Y12.4826
G01 X202.4756 Y12.8915
G01 X202.2884 Y13.2789
G01 X202.0755 Y13.6347
G01 X201.8233 Y13.9830
G01 X201.5409 Y14.3076
G01 X201.2185 Y14.6157
G01 X200.8873 Y14.8793
G01 X200.5358 Y15.1117
G01 X200.1573 Y15.3162
G01 X199.7474 Y15.4915
G01 X199.3379 Y15.6238
G01 X198.9249 Y15.7175
G01 X198.4921 Y15.7759
G01 X198.0684 Y15.7947
G01 X195.9021 Y15.7947
G01 X195.5678 Y15.8298
G01 X195.2394 Y15.8996
G01 X194.9199 Y16.0035
G01 X194.6128 Y16.1402
G01 X194.3219 Y16.3081
G01 X194.0502 Y16.5054
G01 X193.8005 Y16.7305
G01 X193.5757 Y16.9802
G01 X193.3781 Y17.2519
G01 X193.2102 Y17.5428
G01 X193.0735 Y17.8496
G01 X192.9696 Y18.1691
G01 X192.8998 Y18.4978
G01 X192.8647 Y18.8321
G01 X192.8642 Y19.0099
G01 X192.8480 Y19.2377
G01 X192.7962 Y19.4876
G01 X192.7001 Y19.7482
G01 X192.5693 Y19.9847
G01 X192.4284 Y20.1714
G01 X192.2478 Y20.3528
G01 X192.0433 Y20.5067
G01 X191.8320 Y20.6238
G01 X191.5577 Y20.7261
G01 X191.3212 Y20.7759
G01 X191.0745 Y20.7945
G01 X15.0673 Y20.7945
G01 X14.8189 Y20.7759
G01 X14.5824 Y20.7261
G01 X14.3083 Y20.6238
G01 X14.0967 Y20.5067
G01 X13.8923 Y20.3528
G01 X13.7117 Y20.1714
G01 X13.5707 Y19.9847
G01 X13.4399 Y19.7482
G01 X13.3439 Y19.4876
G01 X13.2921 Y19.2377
G01 X13.2758 Y19.0099
G01 X13.2753 Y18.8321
G01 X13.2403 Y18.4978
G01 X13.1704 Y18.1691
G01 X13.0665 Y17.8496
G01 X12.9299 Y17.5428
G01 X12.7620 Y17.2519
G01 X12.5644 Y16.9802
G01 X12.3396 Y16.7305
G01 X12.0899 Y16.5054
G01 X11.8181 Y16.3081
G01 X11.5273 Y16.1402
G01 X11.2202 Y16.0035
G01 X10.9007 Y15.8996
G01 X10.5722 Y15.8298
G01 X10.2380 Y15.7947
G01 X8.0716 Y15.7947
G01 X7.6482 Y15.7759
G01 X7.2217 Y15.7188
G01 X6.8021 Y15.6238
G01 X6.3866 Y15.4892
G01 X5.9827 Y15.3162
G01 X5.6101 Y15.1153
G01 X5.2583 Y14.8834
G01 X4.9215 Y14.6157
G01 X4.6037 Y14.3124
G01 X4.3167 Y13.9832
G01 X4.0731 Y13.6477
G01 X3.8519 Y13.2789
G01 X3.6609 Y12.8834
G01 X3.5126 Y12.4889
G01 X3.3975 Y12.0747
G01 X3.3190 Y11.6446
G01 X3.2802 Y11.2072
G01 X3.2804 Y10.7838
G01 X3.3190 Y10.3553
G01 X3.3939 Y9.9408
G01 X3.5077 Y9.5260
G01 X3.6609 Y9.1166
G01 X3.8476 Y8.7290
G01 X4.0731 Y8.3523
G01 X4.3167 Y8.0167
G01 X4.5992 Y7.6924
G01 X4.9215 Y7.3843
G01 X5.2527 Y7.1206
G01 X5.6043 Y6.8882
G01 X5.9827 Y6.6838
G01 X6.3866 Y6.5108
G01 X6.8021 Y6.3762
G01 X7.2217 Y6.2812
G01 X7.6482 Y6.2240
G01 X8.0716 Y6.2052
G01 X10.2380 Y6.2052
G01 X10.5722 Y6.1702
G01 X10.9007 Y6.1003
G01 X11.2202 Y5.9964
G01 X11.5273 Y5.8598
G01 X11.8181 Y5.6919
G01 X12.0899 Y5.4943
G01 X12.3396 Y5.2695
G01 X12.5644 Y5.0198
G01 X12.7620 Y4.7480
G01 X12.9299 Y4.4572
G01 X13.0665 Y4.1504
G01 X13.1704 Y3.8308
G01 X13.2403 Y3.5022
G01 X13.2753 Y3.1679
G01 X13.2758 Y2.9901
G01 X13.2921 Y2.7622
G01 X13.3439 Y2.5123
G01 X13.4399 Y2.2517
G01 X13.5710 Y2.0147
G01 X13.7262 Y1.8120
G01 X13.8923 Y1.6469
G01 X14.0967 Y1.4933
G01 X14.3083 Y1.3762
G01 X14.5824 Y1.2738
G01 X14.8189 Y1.2238
G01 X15.0658 Y1.2055
G01 X191.0728 Y1.2055
G01 X191.3212 Y1.2238
G01 X191.5577 Y1.2738
G01 X191.8320 Y1.3762
G01 X192.0433 Y1.4933
G01 X192.2478 Y1.6469
G01 X192.4139 Y1.8120
G01 X192.5691 Y2.0147
G01 X192.7001 Y2.2517
G01 X192.7962 Y2.5123
G01 X192.8480 Y2.7622
G01 X192.8642 Y2.9901
G01 X192.8647 Y3.1679
G01 X192.8998 Y3.5022
G01 X192.9696 Y3.8308
G01 X193.0735 Y4.1504
G01 X193.2102 Y4.4572
G01 X193.3781 Y4.7480
G01 X193.5757 Y5.0198
G01 X193.8005 Y5.2695
G01 X194.0502 Y5.4943
G01 X194.3219 Y5.6919
G01 X194.6128 Y5.8598
G01 X194.9199 Y5.9964
G01 X195.2394 Y6.1003
G01 X195.5678 Y6.1702
G01 X195.9021 Y6.2052
G01 X198.0684 Y6.2052
G01 X198.4921 Y6.2240
G01 X198.9183 Y6.2812
G01 X199.3379 Y6.3762
G01 X199.7537 Y6.5108
G01 X200.1573 Y6.6838
G01 X200.5282 Y6.8837
G01 X200.8817 Y7.1166
G01 X201.2185 Y7.3843
G01 X201.5363 Y7.6876
G01 X201.8233 Y8.0167
G01 X202.0755 Y8.3652
G01 X202.2884 Y8.7211
G01 X202.3377 Y8.8219
G01 X202.4817 Y9.1229
G01 X202.6275 Y9.5110
G01 X202.7425 Y9.9253
G01 X202.8213 Y10.3576
G01 X202.8601 Y10.7927
G00 Z2.0000 ( retract )

G00 X186.3806 Y12.5001 ( rapid move to begin. )
G01 F450.0001
( Mill infeed pass 1/1 )
G01 Z-0.1270
G01 F900.0000
G01 X186.3806 Y12.5001
G01 X186.3745 Y12.4290
G01 X186.3329 Y12.3055
G01 X186.2653 Y12.1958
G01 X186.1741 Y12.1046
G01 X186.0647 Y12.0371
G01 X185.9410 Y11.9957
G01 X185.8698 Y11.9896
G01 X185.6316 Y11.9878
G01 X185.5315 Y11.9626
G01 X185.4987 Y11.9507
G01 X185.4685 Y11.9334
G01 X185.4418 Y11.9108
G01 X185.3649 Y11.8298
G01 X185.3474 Y11.7996
G01 X185.3354 Y11.7668
G01 X185.3105 Y11.6665
G01 X185.3087 Y11.0726
G01 X185.3120 Y11.0157
G01 X185.2981 Y10.9212
G01 X185.2531 Y10.8069
G01 X185.1873 Y10.7142
G01 X185.1447 Y10.6764
G01 X176.6288 Y2.1605
G01 X176.5907 Y2.1179
G01 X176.4980 Y2.0518
G01 X176.4017 Y2.0119
G01 X176.2895 Y1.9929
G01 X176.2323 Y1.9962
G01 X90.5934 Y1.9962
G01 X90.5365 Y1.9929
G01 X90.4243 Y2.0119
G01 X90.3280 Y2.0518
G01 X90.2353 Y2.1179
G01 X90.1972 Y2.1605
G01 X78.4504 Y13.9073
G01 X78.4078 Y13.9451
G01 X78.3417 Y14.0381
G01 X78.2970 Y14.1521
G01 X78.2831 Y14.2464
G01 X78.2864 Y14.3035
G01 X78.2864 Y14.7665
G01 X78.2795 Y14.8184
G01 X78.2488 Y14.9228
G01 X78.2335 Y14.9509
G01 X78.2140 Y14.9761
G01 X78.1548 Y15.0388
G01 X78.0473 Y15.1150
G01 X77.9051 Y15.2575
G01 X77.7895 Y15.4201
G01 X77.7116 Y15.4877
G01 X77.6831 Y15.5077
G01 X77.6514 Y15.5224
G01 X77.6178 Y15.5313
G01 X77.5419 Y15.5448
G01 X77.5071 Y15.5478
G01 X77.4723 Y15.5448
G01 X77.4388 Y15.5357
G01 X77.3397 Y15.4976
G01 X77.3151 Y15.4818
G01 X77.2566 Y15.4262
G01 X77.2340 Y15.3995
G01 X77.1350 Y15.2573
G01 X76.9927 Y15.1150
G01 X76.8276 Y14.9995
G01 X76.6453 Y14.9144
G01 X76.4507 Y14.8623
G01 X76.2503 Y14.8448
G01 X76.0260 Y14.8654
G01 X75.9010 Y14.8613
G01 X75.8688 Y14.8521
G01 X75.8383 Y14.8379
G01 X75.7715 Y14.7993
G01 X75.7301 Y14.7676
G01 X64.3727 Y3.4105
G01 X64.3349 Y3.3678
G01 X64.2422 Y3.3020
G01 X64.1457 Y3.2621
G01 X64.0337 Y3.2428
G01 X63.9765 Y3.2464
G01 X43.3436 Y3.2464
G01 X43.2864 Y3.2428
G01 X43.1744 Y3.2621
G01 X43.0779 Y3.3020
G01 X42.9852 Y3.3678
G01 X42.9473 Y3.4105
G01 X35.1655 Y11.1923
G01 X35.1254 Y11.2283
G01 X35.1003 Y11.2616
G01 X35.0228 Y11.3297
G01 X34.9943 Y11.3500
G01 X34.9628 Y11.3650
G01 X34.9293 Y11.3741
G01 X34.8534 Y11.3881
G01 X34.8186 Y11.3914
G01 X34.7840 Y11.3886
G01 X34.6776 Y11.3538
G01 X34.6459 Y11.3393
G01 X34.6172 Y11.3195
G01 X34.5923 Y11.2951
G01 X34.5425 Y11.2365
G01 X34.5237 Y11.2103
G01 X34.5092 Y11.1813
G01 X34.4853 Y11.0868
G01 X34.4802 Y11.0429
G01 X34.4808 Y10.9090
G01 X34.4475 Y10.7305
G01 X34.3817 Y10.5611
G01 X34.2859 Y10.4064
G01 X34.1635 Y10.2720
G01 X34.0185 Y10.1625
G01 X33.8559 Y10.0815
G01 X33.6812 Y10.0317
G01 X33.5453 Y10.0198
G01 X33.4546 Y10.0195
G01 X33.3190 Y10.0317
G01 X33.1442 Y10.0815
G01 X32.9816 Y10.1625
G01 X32.8366 Y10.2720
G01 X32.7142 Y10.4064
G01 X32.6184 Y10.5611
G01 X32.5526 Y10.7305
G01 X32.5194 Y10.9090
G01 X32.5194 Y11.0909
G01 X32.5526 Y11.2695
G01 X32.6250 Y11.4595
G01 X32.6377 Y11.5621
G01 X32.6385 Y11.5969
G01 X32.6332 Y11.6314
G01 X32.6220 Y11.6644
G01 X32.5740 Y11.7655
G01 X32.5521 Y11.7925
G01 X32.5257 Y11.8156
G01 X32.4635 Y11.8610
G01 X32.4109 Y11.8885
G01 X32.3284 Y11.9062
G01 X32.2918 Y11.9096
G01 X32.1691 Y11.9096
G01 X31.9862 Y11.9230
G01 X31.7480 Y11.9774
G01 X31.5206 Y12.0668
G01 X31.3088 Y12.1890
G01 X31.1178 Y12.3414
G01 X30.9517 Y12.5204
G01 X30.8140 Y12.7224
G01 X30.7078 Y12.9426
G01 X30.6360 Y13.1762
G01 X30.5994 Y13.4178
G01 X30.5994 Y13.6622
G01 X30.6360 Y13.9037
G01 X30.7078 Y14.1374
G01 X30.8140 Y14.3576
G01 X30.9517 Y14.5595
G01 X31.1178 Y14.7386
G01 X31.3088 Y14.8910
G01 X31.5206 Y15.0132
G01 X31.7480 Y15.1026
G01 X31.9862 Y15.1569
G01 X32.1691 Y15.1701
G01 X32.2910 Y15.1704
G01 X32.4736 Y15.1569
G01 X32.7119 Y15.1026
G01 X32.9395 Y15.0132
G01 X33.1511 Y14.8910
G01 X33.3421 Y14.7386
G01 X33.4193 Y14.6578
G01 X33.5056 Y14.6014
G01 X33.5369 Y14.5854
G01 X33.5702 Y14.5753
G01 X33.6817 Y14.5679
G01 X33.7165 Y14.5697
G01 X33.7505 Y14.5773
G01 X33.7828 Y14.5910
G01 X33.8795 Y14.6454
G01 X33.9047 Y14.6688
G01 X33.9623 Y14.7475
G01 X34.0454 Y14.8844
G01 X34.1358 Y14.9753
G01 X34.2455 Y15.0429
G01 X34.3692 Y15.0846
G01 X34.4401 Y15.0904
G01 X36.5699 Y15.0912
G01 X36.6408 Y15.0833
G01 X36.7647 Y15.0434
G01 X36.8742 Y14.9753
G01 X36.9654 Y14.8841
G01 X37.0329 Y14.7744
G01 X37.0746 Y14.6510
G01 X37.0804 Y14.5799
G01 X37.0804 Y12.5001
G01 X37.0746 Y12.4292
G01 X37.0329 Y12.3055
G01 X36.9654 Y12.1958
G01 X36.8742 Y12.1046
G01 X36.7647 Y12.0371
G01 X36.6408 Y11.9967
G01 X36.5697 Y11.9878
G01 X36.5448 Y11.9802
G01 X36.4411 Y11.9375
G01 X36.4129 Y11.9169
G01 X36.3888 Y11.8920
G01 X36.3400 Y11.8321
G01 X36.3205 Y11.8034
G01 X36.3063 Y11.7716
G01 X36.2976 Y11.7378
G01 X36.2829 Y11.6268
G01 X36.2864 Y11.5921
G01 X36.2958 Y11.5585
G01 X36.3352 Y11.4610
G01 X36.3687 Y11.4163
G01 X43.4264 Y4.3558
G01 X43.4678 Y4.3241
G01 X43.5346 Y4.2855
G01 X43.5828 Y4.2657
G01 X43.6733 Y4.2537
G01 X63.6468 Y4.2537
G01 X63.6986 Y4.2606
G01 X63.7730 Y4.2804
G01 X63.8099 Y4.2941
G01 X63.8432 Y4.3150
G01 X63.8937 Y4.3558
G01 X73.8172 Y14.2819
G01 X73.8703 Y14.3703
G01 X73.8850 Y14.4021
G01 X73.8939 Y14.4358
G01 X73.8970 Y14.4704
G01 X73.8970 Y14.5476
G01 X73.8939 Y14.5821
G01 X73.8850 Y14.6159
G01 X73.8703 Y14.6474
G01 X73.8116 Y14.7429
G01 X73.7870 Y14.7676
G01 X73.7586 Y14.7876
G01 X73.6666 Y14.8382
G01 X73.6130 Y14.8516
G01 X73.5114 Y14.8626
G01 X73.3151 Y14.9146
G01 X73.1327 Y15.0000
G01 X72.9678 Y15.1153
G01 X72.8254 Y15.2578
G01 X72.7100 Y15.4226
G01 X72.6511 Y15.5499
G01 X72.5785 Y15.5964
G01 X72.6511 Y15.5499
G01 X72.7629 Y15.5499
G01 X72.7705 Y15.5631
G01 X72.7629 Y15.5499
G01 X72.8492 Y15.4003
G01 X72.8736 Y15.3665
G01 X73.0075 Y15.2197
G01 X73.1850 Y15.0906
G01 X73.3857 Y15.0015
G01 X73.5795 Y14.9591
G01 X73.6211 Y14.9545
G01 X73.8198 Y14.9558
G01 X74.0344 Y15.0015
G01 X74.2351 Y15.0906
G01 X74.3963 Y15.2065
G01 X74.4273 Y15.2344
G01 X74.5594 Y15.3827
G01 X74.6597 Y15.5542
G01 X74.6768 Y15.5926
G01 X74.7316 Y15.7615
G01 X74.7403 Y15.8024
G01 X74.7601 Y16.0000
G01 X74.7370 Y16.2184
G01 X74.6691 Y16.4269
G01 X74.5708 Y16.5997
G01 X74.5462 Y16.6334
G01 X74.4273 Y16.7655
G01 X74.3963 Y16.7935
G01 X74.2338 Y16.9100
G01 X74.1601 Y16.9431
G01 X74.1439 Y16.9324
G01 X74.1601 Y16.9431
G01 X74.1601 Y17.0589
G01 X74.1136 Y17.1318
G01 X74.1601 Y17.0589
G01 X74.2874 Y17.0000
G01 X74.4522 Y16.8846
G01 X74.5947 Y16.7422
G01 X74.7103 Y16.5796
G01 X74.7883 Y16.5118
G01 X74.8167 Y16.4920
G01 X74.8485 Y16.4770
G01 X74.8820 Y16.4681
G01 X74.9927 Y16.4516
G01 X75.0275 Y16.4546
G01 X75.0611 Y16.4638
G01 X75.1335 Y16.4902
G01 X75.1848 Y16.5176
G01 X75.2432 Y16.5732
G01 X75.2655 Y16.5999
G01 X75.3651 Y16.7427
G01 X75.5073 Y16.8849
G01 X75.6724 Y17.0005
G01 X75.8548 Y17.0856
G01 X76.0494 Y17.1376
G01 X76.2500 Y17.1552
G01 X76.4507 Y17.1376
G01 X76.6453 Y17.0856
G01 X76.8276 Y17.0005
G01 X76.9927 Y16.8849
G01 X77.1350 Y16.7427
G01 X77.2505 Y16.5799
G01 X77.3285 Y16.5123
G01 X77.3570 Y16.4922
G01 X77.3887 Y16.4775
G01 X77.4222 Y16.4686
G01 X77.5330 Y16.4521
G01 X77.5678 Y16.4551
G01 X77.6013 Y16.4640
G01 X77.6740 Y16.4904
G01 X77.7250 Y16.5181
G01 X77.7834 Y16.5738
G01 X77.8060 Y16.6004
G01 X77.9051 Y16.7427
G01 X78.0473 Y16.8849
G01 X78.2124 Y17.0005
G01 X78.3948 Y17.0856
G01 X78.5894 Y17.1376
G01 X78.7900 Y17.1552
G01 X78.9907 Y17.1376
G01 X79.1853 Y17.0856
G01 X79.3676 Y17.0005
G01 X79.5327 Y16.8849
G01 X79.6750 Y16.7427
G01 X79.7905 Y16.5799
G01 X79.8685 Y16.5123
G01 X79.8970 Y16.4922
G01 X79.9287 Y16.4775
G01 X79.9622 Y16.4686
G01 X80.0730 Y16.4521
G01 X80.1078 Y16.4551
G01 X80.1413 Y16.4640
G01 X80.2140 Y16.4904
G01 X80.2650 Y16.5181
G01 X80.3234 Y16.5738
G01 X80.3460 Y16.6004
G01 X80.4451 Y16.7427
G01 X80.5873 Y16.8849
G01 X80.7524 Y17.0005
G01 X80.9348 Y17.0856
G01 X81.1294 Y17.1376
G01 X81.3300 Y17.1552
G01 X81.5307 Y17.1376
G01 X81.7253 Y17.0856
G01 X81.9076 Y17.0005
G01 X82.0725 Y16.8849
G01 X82.1545 Y16.8026
G01 X82.1959 Y16.7709
G01 X82.2942 Y16.7175
G01 X82.3280 Y16.7086
G01 X82.3625 Y16.7056
G01 X82.4398 Y16.7056
G01 X82.4746 Y16.7086
G01 X82.5081 Y16.7175
G01 X82.5398 Y16.7322
G01 X82.6325 Y16.7889
G01 X82.6747 Y16.8359
G01 X82.7090 Y16.8892
G01 X82.7283 Y16.9276
G01 X82.7529 Y16.9959
G01 X82.8048 Y17.0655
G01 X82.8741 Y17.1173
G01 X82.9587 Y17.1496
G01 X84.7575 Y17.1516
G01 X84.7811 Y17.1478
G01 X84.8662 Y17.1178
G01 X84.9353 Y17.0655
G01 X84.9874 Y16.9959
G01 X85.0196 Y16.9113
G01 X85.0209 Y15.1127
G01 X85.0179 Y15.0889
G01 X85.0006 Y15.0376
G01 X84.9965 Y15.0119
G01 X84.9889 Y14.9001
G01 X84.9947 Y14.8659
G01 X85.0064 Y14.8328
G01 X85.0560 Y14.7317
G01 X85.0788 Y14.7043
G01 X93.6765 Y6.1059
G01 X93.7179 Y6.0742
G01 X93.7847 Y6.0355
G01 X93.8205 Y6.0193
G01 X93.8586 Y6.0104
G01 X93.9231 Y6.0035
G01 X130.3028 Y6.0035
G01 X130.3546 Y6.0104
G01 X130.4290 Y6.0305
G01 X130.4656 Y6.0442
G01 X130.4988 Y6.0650
G01 X130.5494 Y6.1059
G01 X133.9560 Y9.5126
G01 X133.9880 Y9.5540
G01 X134.0264 Y9.6208
G01 X134.0411 Y9.6523
G01 X134.0503 Y9.6860
G01 X134.0533 Y9.7208
G01 X134.0503 Y9.8326
G01 X134.0411 Y9.8664
G01 X134.0264 Y9.8979
G01 X133.9720 Y9.9880
G01 X133.9532 Y10.0089
G01 X133.8925 Y10.0551
G01 X133.6815 Y10.1625
G01 X133.5364 Y10.2720
G01 X133.4140 Y10.4064
G01 X133.3183 Y10.5611
G01 X133.2527 Y10.7305
G01 X133.2192 Y10.9090
G01 X133.2192 Y11.0909
G01 X133.2527 Y11.2695
G01 X133.3249 Y11.4595
G01 X133.3378 Y11.5621
G01 X133.3386 Y11.5969
G01 X133.3332 Y11.6314
G01 X133.3218 Y11.6644
G01 X133.2908 Y11.7348
G01 X133.2738 Y11.7655
G01 X133.2520 Y11.7925
G01 X133.2258 Y11.8156
G01 X133.1384 Y11.8768
G01 X133.0823 Y11.8963
G01 X132.9916 Y11.9096
G01 X132.8689 Y11.9096
G01 X132.6863 Y11.9230
G01 X132.4480 Y11.9774
G01 X132.2205 Y12.0668
G01 X132.0089 Y12.1890
G01 X131.8179 Y12.3414
G01 X131.6515 Y12.5204
G01 X131.5138 Y12.7224
G01 X131.4079 Y12.9426
G01 X131.3358 Y13.1762
G01 X131.2995 Y13.4178
G01 X131.2995 Y13.6622
G01 X131.3358 Y13.9037
G01 X131.4079 Y14.1374
G01 X131.5138 Y14.3576
G01 X131.6515 Y14.5595
G01 X131.8179 Y14.7386
G01 X132.0089 Y14.8910
G01 X132.2205 Y15.0132
G01 X132.4480 Y15.1026
G01 X132.6863 Y15.1569
G01 X132.8689 Y15.1701
G01 X132.9911 Y15.1704
G01 X133.1737 Y15.1569
G01 X133.4120 Y15.1026
G01 X133.6396 Y15.0132
G01 X133.8511 Y14.8910
G01 X134.0421 Y14.7386
G01 X134.1194 Y14.6578
G01 X134.2057 Y14.6014
G01 X134.2367 Y14.5854
G01 X134.2700 Y14.5753
G01 X134.3817 Y14.5679
G01 X134.4165 Y14.5697
G01 X134.4506 Y14.5773
G01 X134.4828 Y14.5910
G01 X134.5796 Y14.6454
G01 X134.6048 Y14.6688
G01 X134.6624 Y14.7475
G01 X134.7455 Y14.8844
G01 X134.8359 Y14.9753
G01 X134.9454 Y15.0429
G01 X135.0691 Y15.0846
G01 X135.1402 Y15.0904
G01 X137.2700 Y15.0912
G01 X137.3406 Y15.0833
G01 X137.4648 Y15.0434
G01 X137.5743 Y14.9753
G01 X137.6652 Y14.8841
G01 X137.7330 Y14.7744
G01 X137.7744 Y14.6510
G01 X137.7805 Y14.5799
G01 X137.7813 Y12.5001
G01 X137.7734 Y12.4292
G01 X137.7335 Y12.3053
G01 X137.6652 Y12.1958
G01 X137.5743 Y12.1046
G01 X137.4645 Y12.0371
G01 X137.3408 Y11.9957
G01 X137.2700 Y11.9896
G01 X137.0576 Y11.9896
G01 X137.0061 Y11.9827
G01 X136.8986 Y11.9507
G01 X136.8684 Y11.9334
G01 X136.8417 Y11.9108
G01 X136.7874 Y11.8565
G01 X136.7648 Y11.8298
G01 X136.7475 Y11.7996
G01 X136.7356 Y11.7668
G01 X136.7104 Y11.6665
G01 X136.7086 Y11.0726
G01 X136.7119 Y11.0157
G01 X136.6980 Y10.9212
G01 X136.6533 Y10.8069
G01 X136.5872 Y10.7142
G01 X136.5446 Y10.6764
G01 X131.0287 Y5.1605
G01 X130.9723 Y5.0991
G01 X130.9108 Y5.0102
G01 X130.8941 Y4.9794
G01 X130.8832 Y4.9464
G01 X130.8781 Y4.9119
G01 X130.8743 Y4.8001
G01 X130.8811 Y4.7658
G01 X130.8941 Y4.7335
G01 X130.9284 Y4.6645
G01 X130.9467 Y4.6347
G01 X130.9698 Y4.6086
G01 X130.9972 Y4.5870
G01 X131.0615 Y4.5446
G01 X131.1123 Y4.5204
G01 X131.2189 Y4.5037
G01 X153.1026 Y4.5037
G01 X153.1544 Y4.5105
G01 X153.2537 Y4.5387
G01 X153.2989 Y4.5649
G01 X153.3495 Y4.6058
G01 X158.2562 Y9.5126
G01 X158.2880 Y9.5540
G01 X158.3413 Y9.6523
G01 X158.3502 Y9.6860
G01 X158.3533 Y9.7208
G01 X158.3502 Y9.8326
G01 X158.3413 Y9.8664
G01 X158.3266 Y9.8979
G01 X158.2720 Y9.9880
G01 X158.2532 Y10.0089
G01 X158.1925 Y10.0551
G01 X157.9817 Y10.1625
G01 X157.8366 Y10.2720
G01 X157.7142 Y10.4064
G01 X157.6184 Y10.5611
G01 X157.5526 Y10.7305
G01 X157.5194 Y10.9090
G01 X157.5194 Y11.0909
G01 X157.5526 Y11.2695
G01 X157.6250 Y11.4595
G01 X157.6377 Y11.5621
G01 X157.6385 Y11.5969
G01 X157.6332 Y11.6314
G01 X157.6220 Y11.6644
G01 X157.5907 Y11.7348
G01 X157.5740 Y11.7655
G01 X157.5521 Y11.7925
G01 X157.5257 Y11.8156
G01 X157.4383 Y11.8768
G01 X157.3822 Y11.8963
G01 X157.2918 Y11.9096
G01 X157.1691 Y11.9096
G01 X156.9862 Y11.9230
G01 X156.7480 Y11.9774
G01 X156.5206 Y12.0668
G01 X156.3088 Y12.1890
G01 X156.1178 Y12.3414
G01 X155.9517 Y12.5204
G01 X155.8140 Y12.7224
G01 X155.7078 Y12.9426
G01 X155.6360 Y13.1762
G01 X155.5994 Y13.4178
G01 X155.5994 Y13.6622
G01 X155.6360 Y13.9037
G01 X155.7078 Y14.1374
G01 X155.8140 Y14.3576
G01 X155.9517 Y14.5595
G01 X156.1178 Y14.7386
G01 X156.3088 Y14.8910
G01 X156.5206 Y15.0132
G01 X156.7480 Y15.1026
G01 X156.9862 Y15.1569
G01 X157.1691 Y15.1701
G01 X157.2910 Y15.1704
G01 X157.4736 Y15.1569
G01 X157.7119 Y15.1026
G01 X157.9395 Y15.0132
G01 X158.1511 Y14.8910
G01 X158.3421 Y14.7386
G01 X158.4193 Y14.6578
G01 X158.5057 Y14.6014
G01 X158.5369 Y14.5854
G01 X158.5702 Y14.5753
G01 X158.6817 Y14.5679
G01 X158.7165 Y14.5697
G01 X158.7505 Y14.5773
G01 X158.7828 Y14.5910
G01 X158.8795 Y14.6454
G01 X158.9047 Y14.6688
G01 X158.9623 Y14.7475
G01 X159.0454 Y14.8844
G01 X159.1358 Y14.9753
G01 X159.2456 Y15.0429
G01 X159.3693 Y15.0846
G01 X159.4401 Y15.0904
G01 X161.5699 Y15.0912
G01 X161.6408 Y15.0833
G01 X161.7647 Y15.0434
G01 X161.8742 Y14.9753
G01 X161.9654 Y14.8841
G01 X162.0329 Y14.7744
G01 X162.0746 Y14.6510
G01 X162.0804 Y14.5799
G01 X162.0812 Y12.5001
G01 X162.0733 Y12.4292
G01 X162.0335 Y12.3053
G01 X161.9654 Y12.1958
G01 X161.8742 Y12.1046
G01 X161.7645 Y12.0371
G01 X161.6408 Y11.9957
G01 X161.5699 Y11.9896
G01 X161.3578 Y11.9896
G01 X161.3060 Y11.9827
G01 X161.1988 Y11.9507
G01 X161.1686 Y11.9334
G01 X161.1419 Y11.9108
G01 X161.0873 Y11.8565
G01 X161.0650 Y11.8298
G01 X161.0474 Y11.7996
G01 X161.0355 Y11.7668
G01 X161.0103 Y11.6665
G01 X161.0088 Y11.0726
G01 X161.0121 Y11.0157
G01 X160.9979 Y10.9212
G01 X160.9532 Y10.8069
G01 X160.8874 Y10.7142
G01 X160.8445 Y10.6764
G01 X153.8224 Y3.6538
G01 X153.7533 Y3.5745
G01 X153.7106 Y3.5100
G01 X153.6941 Y3.4795
G01 X153.6832 Y3.4465
G01 X153.6779 Y3.4120
G01 X153.6733 Y3.3350
G01 X153.6743 Y3.3002
G01 X153.6812 Y3.2659
G01 X153.7284 Y3.1646
G01 X153.7467 Y3.1349
G01 X153.7698 Y3.1087
G01 X153.7970 Y3.0871
G01 X153.8859 Y3.0307
G01 X153.9397 Y3.0140
G01 X154.0190 Y3.0035
G01 X175.9026 Y3.0035
G01 X175.9544 Y3.0104
G01 X176.0538 Y3.0389
G01 X176.0990 Y3.0650
G01 X176.1495 Y3.1059
G01 X182.5561 Y9.5126
G01 X182.5879 Y9.5540
G01 X182.6412 Y9.6523
G01 X182.6501 Y9.6860
G01 X182.6532 Y9.7208
G01 X182.6501 Y9.8326
G01 X182.6412 Y9.8664
G01 X182.6265 Y9.8979
G01 X182.5722 Y9.9880
G01 X182.5531 Y10.0089
G01 X182.4926 Y10.0551
G01 X182.2816 Y10.1625
G01 X182.1365 Y10.2720
G01 X182.0141 Y10.4064
G01 X181.9184 Y10.5611
G01 X181.8528 Y10.7305
G01 X181.8193 Y10.9090
G01 X181.8193 Y11.0909
G01 X181.8528 Y11.2695
G01 X181.9250 Y11.4595
G01 X181.9377 Y11.5621
G01 X181.9384 Y11.5969
G01 X181.9331 Y11.6314
G01 X181.9219 Y11.6644
G01 X181.8907 Y11.7348
G01 X181.8739 Y11.7655
G01 X181.8521 Y11.7925
G01 X181.8259 Y11.8156
G01 X181.7383 Y11.8768
G01 X181.6821 Y11.8963
G01 X181.5917 Y11.9096
G01 X181.4690 Y11.9096
G01 X181.2864 Y11.9230
G01 X181.0482 Y11.9774
G01 X180.8206 Y12.0668
G01 X180.6090 Y12.1890
G01 X180.4180 Y12.3414
G01 X180.2516 Y12.5204
G01 X180.1139 Y12.7224
G01 X180.0080 Y12.9426
G01 X179.9359 Y13.1762
G01 X179.8996 Y13.4178
G01 X179.8996 Y13.6622
G01 X179.9359 Y13.9037
G01 X180.0080 Y14.1374
G01 X180.1139 Y14.3576
G01 X180.2516 Y14.5595
G01 X180.4180 Y14.7386
G01 X180.6090 Y14.8910
G01 X180.8206 Y15.0132
G01 X181.0482 Y15.1026
G01 X181.2864 Y15.1569
G01 X181.4690 Y15.1701
G01 X181.5909 Y15.1701
G01 X181.7738 Y15.1569
G01 X182.0121 Y15.1026
G01 X182.2394 Y15.0132
G01 X182.4512 Y14.8910
G01 X182.6423 Y14.7386
G01 X182.7192 Y14.6578
G01 X182.8058 Y14.6014
G01 X182.8368 Y14.5854
G01 X182.8701 Y14.5753
G01 X182.9816 Y14.5679
G01 X183.0167 Y14.5697
G01 X183.0504 Y14.5773
G01 X183.0827 Y14.5910
G01 X183.1797 Y14.6454
G01 X183.2049 Y14.6688
G01 X183.2623 Y14.7475
G01 X183.3453 Y14.8844
G01 X183.4358 Y14.9753
G01 X183.5455 Y15.0429
G01 X183.6692 Y15.0846
G01 X183.7403 Y15.0904
G01 X185.8698 Y15.0904
G01 X185.9410 Y15.0846
G01 X186.0647 Y15.0429
G01 X186.1741 Y14.9753
G01 X186.2653 Y14.8841
G01 X186.3334 Y14.7747
G01 X186.3733 Y14.6507
G01 X186.3814 Y14.5799
G01 X186.3806 Y12.5001
G01 X186.4804 Y12.4950
G01 X186.4804 Y14.5849
G01 X186.4716 Y14.6718
G01 X186.4236 Y14.8168
G01 X186.3438 Y14.9461
G01 X186.2364 Y15.0538
G01 X186.1068 Y15.1336
G01 X185.9618 Y15.1816
G01 X185.8749 Y15.1905
G01 X183.7352 Y15.1905
G01 X183.6483 Y15.1816
G01 X183.5033 Y15.1336
G01 X183.3738 Y15.0538
G01 X183.2666 Y14.9464
G01 X183.1769 Y14.7993
G01 X183.1312 Y14.7363
G01 X183.1040 Y14.7155
G01 X183.0360 Y14.6794
G01 X183.0200 Y14.6726
G01 X182.9854 Y14.6677
G01 X182.8912 Y14.6731
G01 X182.8589 Y14.6860
G01 X182.7830 Y14.7348
G01 X182.7103 Y14.8120
G01 X182.5074 Y14.9736
G01 X182.2828 Y15.1033
G01 X182.0415 Y15.1981
G01 X181.7886 Y15.2557
G01 X181.5948 Y15.2702
G01 X181.4652 Y15.2702
G01 X181.2714 Y15.2557
G01 X181.0187 Y15.1981
G01 X180.7771 Y15.1033
G01 X180.5526 Y14.9736
G01 X180.3499 Y14.8120
G01 X180.1734 Y14.6218
G01 X180.0273 Y14.4076
G01 X179.9148 Y14.1740
G01 X179.8383 Y13.9261
G01 X179.7997 Y13.6695
G01 X179.7997 Y13.4102
G01 X179.8383 Y13.1539
G01 X179.9148 Y12.9060
G01 X180.0273 Y12.6723
G01 X180.1734 Y12.4582
G01 X180.3499 Y12.2679
G01 X180.5526 Y12.1064
G01 X180.7771 Y11.9766
G01 X181.0187 Y11.8819
G01 X181.2714 Y11.8242
G01 X181.4652 Y11.8097
G01 X181.5917 Y11.8097
G01 X181.6638 Y11.7978
G01 X181.7045 Y11.7803
G01 X181.7799 Y11.7234
G01 X181.7992 Y11.6944
G01 X181.8305 Y11.6241
G01 X181.8386 Y11.5903
G01 X181.8383 Y11.5727
G01 X181.8277 Y11.4831
G01 X181.7566 Y11.2969
G01 X181.7197 Y11.1001
G01 X181.7197 Y10.8999
G01 X181.7566 Y10.7031
G01 X181.8289 Y10.5164
G01 X181.9344 Y10.3462
G01 X182.0692 Y10.1984
G01 X182.2290 Y10.0774
G01 X182.4203 Y9.9822
G01 X182.4731 Y9.9459
G01 X182.4934 Y9.9263
G01 X182.5399 Y9.8478
G01 X182.5518 Y9.8153
G01 X182.5534 Y9.7208
G01 X182.5473 Y9.6865
G01 X182.5013 Y9.6040
G01 X182.4853 Y9.5832
G01 X176.0786 Y3.1765
G01 X176.0380 Y3.1443
G01 X176.0154 Y3.1313
G01 X175.9285 Y3.1072
G01 X175.9026 Y3.1036
G01 X154.0190 Y3.1036
G01 X153.9557 Y3.1125
G01 X153.9288 Y3.1209
G01 X153.8387 Y3.1813
G01 X153.8178 Y3.2093
G01 X153.7769 Y3.2944
G01 X153.7731 Y3.3289
G01 X153.7777 Y3.4059
G01 X153.7858 Y3.4397
G01 X153.7942 Y3.4549
G01 X153.8366 Y3.5194
G01 X153.8963 Y3.5865
G01 X160.9153 Y10.6055
G01 X160.9613 Y10.6469
G01 X161.0276 Y10.7368
G01 X161.0426 Y10.7635
G01 X161.0871 Y10.8709
G01 X161.0954 Y10.9004
G01 X161.1122 Y11.0109
G01 X161.1086 Y11.0726
G01 X161.1097 Y11.6535
G01 X161.1381 Y11.7572
G01 X161.1579 Y11.7856
G01 X161.2125 Y11.8402
G01 X161.2410 Y11.8600
G01 X161.3319 Y11.8862
G01 X161.3578 Y11.8895
G01 X161.5750 Y11.8895
G01 X161.6619 Y11.8984
G01 X161.8069 Y11.9464
G01 X161.9362 Y12.0261
G01 X162.0439 Y12.1338
G01 X162.1236 Y12.2631
G01 X162.1716 Y12.4082
G01 X162.1805 Y12.4950
G01 X162.1805 Y14.5849
G01 X162.1716 Y14.6718
G01 X162.1236 Y14.8168
G01 X162.0439 Y14.9461
G01 X161.9362 Y15.0538
G01 X161.8069 Y15.1336
G01 X161.6619 Y15.1816
G01 X161.5750 Y15.1905
G01 X159.4350 Y15.1905
G01 X159.3484 Y15.1816
G01 X159.2031 Y15.1336
G01 X159.0738 Y15.0538
G01 X158.9664 Y14.9464
G01 X158.8770 Y14.7993
G01 X158.8310 Y14.7363
G01 X158.8041 Y14.7155
G01 X158.7360 Y14.6794
G01 X158.7198 Y14.6726
G01 X158.6855 Y14.6677
G01 X158.5910 Y14.6731
G01 X158.5590 Y14.6860
G01 X158.4830 Y14.7348
G01 X158.4101 Y14.8120
G01 X158.2075 Y14.9736
G01 X157.9829 Y15.1033
G01 X157.7414 Y15.1981
G01 X157.4886 Y15.2557
G01 X157.2948 Y15.2702
G01 X157.1653 Y15.2702
G01 X156.9715 Y15.2557
G01 X156.7185 Y15.1981
G01 X156.4772 Y15.1033
G01 X156.2527 Y14.9736
G01 X156.0497 Y14.8120
G01 X155.8734 Y14.6218
G01 X155.7274 Y14.4076
G01 X155.6149 Y14.1740
G01 X155.5384 Y13.9261
G01 X155.4998 Y13.6695
G01 X155.4998 Y13.4104
G01 X155.5384 Y13.1539
G01 X155.6149 Y12.9060
G01 X155.7274 Y12.6723
G01 X155.8734 Y12.4582
G01 X156.0497 Y12.2679
G01 X156.2527 Y12.1064
G01 X156.4772 Y11.9766
G01 X156.7185 Y11.8819
G01 X156.9715 Y11.8242
G01 X157.1653 Y11.8097
G01 X157.2918 Y11.8097
G01 X157.3639 Y11.7978
G01 X157.4046 Y11.7803
G01 X157.4800 Y11.7234
G01 X157.4993 Y11.6944
G01 X157.5303 Y11.6241
G01 X157.5387 Y11.5903
G01 X157.5384 Y11.5727
G01 X157.5278 Y11.4831
G01 X157.4566 Y11.2969
G01 X157.4198 Y11.1001
G01 X157.4198 Y10.8999
G01 X157.4566 Y10.7031
G01 X157.5288 Y10.5164
G01 X157.6342 Y10.3462
G01 X157.7691 Y10.1981
G01 X157.9288 Y10.0774
G01 X158.1203 Y9.9822
G01 X158.1732 Y9.9459
G01 X158.1935 Y9.9263
G01 X158.2400 Y9.8478
G01 X158.2517 Y9.8153
G01 X158.2532 Y9.7208
G01 X158.2473 Y9.6865
G01 X158.2014 Y9.6040
G01 X158.1854 Y9.5832
G01 X153.2788 Y4.6766
G01 X153.2382 Y4.6444
G01 X153.2153 Y4.6312
G01 X153.1285 Y4.6071
G01 X153.1026 Y4.6037
G01 X131.2189 Y4.6037
G01 X131.1557 Y4.6126
G01 X131.1288 Y4.6210
G01 X131.0523 Y4.6706
G01 X131.0386 Y4.6812
G01 X131.0180 Y4.7092
G01 X130.9771 Y4.7945
G01 X130.9731 Y4.8288
G01 X130.9779 Y4.9060
G01 X130.9858 Y4.9395
G01 X130.9941 Y4.9550
G01 X131.0366 Y5.0193
G01 X131.0963 Y5.0864
G01 X136.6154 Y10.6055
G01 X136.6614 Y10.6469
G01 X136.7274 Y10.7368
G01 X136.7427 Y10.7635
G01 X136.7871 Y10.8709
G01 X136.7953 Y10.9004
G01 X136.8123 Y11.0109
G01 X136.8087 Y11.0726
G01 X136.8095 Y11.6535
G01 X136.8382 Y11.7572
G01 X136.8580 Y11.7856
G01 X136.9126 Y11.8402
G01 X136.9411 Y11.8600
G01 X137.0317 Y11.8862
G01 X137.0576 Y11.8895
G01 X137.2751 Y11.8895
G01 X137.3617 Y11.8984
G01 X137.5067 Y11.9464
G01 X137.6362 Y12.0261
G01 X137.7437 Y12.1338
G01 X137.8237 Y12.2631
G01 X137.8717 Y12.4082
G01 X137.8806 Y12.4950
G01 X137.8806 Y14.5849
G01 X137.8717 Y14.6718
G01 X137.8237 Y14.8168
G01 X137.7437 Y14.9461
G01 X137.6362 Y15.0538
G01 X137.5067 Y15.1336
G01 X137.3617 Y15.1816
G01 X137.2751 Y15.1905
G01 X135.1351 Y15.1905
G01 X135.0482 Y15.1816
G01 X134.9032 Y15.1336
G01 X134.7739 Y15.0538
G01 X134.6665 Y14.9464
G01 X134.5768 Y14.7993
G01 X134.5311 Y14.7363
G01 X134.5042 Y14.7155
G01 X134.4361 Y14.6794
G01 X134.4028 Y14.6688
G01 X134.3856 Y14.6677
G01 X134.2911 Y14.6731
G01 X134.2591 Y14.6860
G01 X134.1831 Y14.7348
G01 X134.1102 Y14.8120
G01 X133.9075 Y14.9736
G01 X133.6830 Y15.1033
G01 X133.4414 Y15.1981
G01 X133.1887 Y15.2557
G01 X132.9947 Y15.2702
G01 X132.8654 Y15.2702
G01 X132.6716 Y15.2557
G01 X132.4186 Y15.1981
G01 X132.1773 Y15.1033
G01 X131.9525 Y14.9736
G01 X131.7498 Y14.8120
G01 X131.5735 Y14.6218
G01 X131.4275 Y14.4076
G01 X131.3150 Y14.1740
G01 X131.2385 Y13.9261
G01 X131.1996 Y13.6695
G01 X131.1996 Y13.4104
G01 X131.2385 Y13.1539
G01 X131.3150 Y12.9060
G01 X131.4275 Y12.6723
G01 X131.5735 Y12.4582
G01 X131.7498 Y12.2679
G01 X131.9525 Y12.1064
G01 X132.1773 Y11.9766
G01 X132.4186 Y11.8819
G01 X132.6716 Y11.8242
G01 X132.8654 Y11.8097
G01 X132.9916 Y11.8097
G01 X133.0640 Y11.7978
G01 X133.1046 Y11.7803
G01 X133.1798 Y11.7234
G01 X133.1991 Y11.6944
G01 X133.2304 Y11.6241
G01 X133.2387 Y11.5903
G01 X133.2382 Y11.5727
G01 X133.2278 Y11.4831
G01 X133.1565 Y11.2969
G01 X133.1196 Y11.1001
G01 X133.1196 Y10.8999
G01 X133.1565 Y10.7031
G01 X133.2288 Y10.5164
G01 X133.3343 Y10.3462
G01 X133.4691 Y10.1981
G01 X133.6289 Y10.0774
G01 X133.8204 Y9.9822
G01 X133.8730 Y9.9459
G01 X133.8933 Y9.9263
G01 X133.9398 Y9.8478
G01 X133.9517 Y9.8153
G01 X133.9517 Y9.7033
G01 X133.9398 Y9.6708
G01 X133.9014 Y9.6040
G01 X133.8854 Y9.5832
G01 X130.4788 Y6.1765
G01 X130.4214 Y6.1338
G01 X130.3287 Y6.1072
G01 X130.3028 Y6.1036
G01 X93.9231 Y6.1036
G01 X93.8525 Y6.1140
G01 X93.7679 Y6.1608
G01 X93.7471 Y6.1765
G01 X85.1383 Y14.7889
G01 X85.0974 Y14.8745
G01 X85.0885 Y14.9080
G01 X85.0961 Y15.0023
G01 X85.1162 Y15.0658
G01 X85.1205 Y15.1074
G01 X85.1205 Y16.8925
G01 X85.1162 Y16.9342
G01 X85.0753 Y17.0439
G01 X85.0062 Y17.1361
G01 X84.9140 Y17.2052
G01 X84.8042 Y17.2461
G01 X84.7626 Y17.2504
G01 X82.9775 Y17.2504
G01 X82.9358 Y17.2461
G01 X82.8261 Y17.2052
G01 X82.7339 Y17.1361
G01 X82.6648 Y17.0439
G01 X82.6303 Y16.9525
G01 X82.5906 Y16.8900
G01 X82.5696 Y16.8664
G01 X82.4741 Y16.8115
G01 X82.4398 Y16.8054
G01 X82.3625 Y16.8054
G01 X82.3285 Y16.8115
G01 X82.2350 Y16.8648
G01 X82.1370 Y16.9616
G01 X81.9577 Y17.0871
G01 X81.7593 Y17.1795
G01 X81.5480 Y17.2362
G01 X81.3300 Y17.2552
G01 X81.1121 Y17.2362
G01 X80.9008 Y17.1795
G01 X80.7024 Y17.0871
G01 X80.5231 Y16.9616
G01 X80.3684 Y16.8069
G01 X80.2640 Y16.6578
G01 X80.2053 Y16.5984
G01 X80.1797 Y16.5844
G01 X80.1073 Y16.5583
G01 X80.0730 Y16.5522
G01 X79.9798 Y16.5669
G01 X79.9470 Y16.5788
G01 X79.9328 Y16.5890
G01 X79.8642 Y16.6474
G01 X79.7517 Y16.8069
G01 X79.5970 Y16.9616
G01 X79.4177 Y17.0871
G01 X79.2193 Y17.1795
G01 X79.0080 Y17.2362
G01 X78.7900 Y17.2552
G01 X78.5721 Y17.2362
G01 X78.3608 Y17.1795
G01 X78.1624 Y17.0871
G01 X77.9831 Y16.9616
G01 X77.8284 Y16.8069
G01 X77.7240 Y16.6578
G01 X77.6762 Y16.6078
G01 X77.6397 Y16.5844
G01 X77.5673 Y16.5583
G01 X77.5330 Y16.5522
G01 X77.4398 Y16.5669
G01 X77.4070 Y16.5788
G01 X77.3928 Y16.5890
G01 X77.3242 Y16.6474
G01 X77.2117 Y16.8069
G01 X77.0570 Y16.9616
G01 X76.8777 Y17.0871
G01 X76.6793 Y17.1795
G01 X76.4680 Y17.2362
G01 X76.2500 Y17.2552
G01 X76.0321 Y17.2362
G01 X75.8208 Y17.1795
G01 X75.6224 Y17.0871
G01 X75.4431 Y16.9616
G01 X75.2884 Y16.8069
G01 X75.1837 Y16.6573
G01 X75.1360 Y16.6073
G01 X75.0994 Y16.5842
G01 X75.0268 Y16.5578
G01 X74.9927 Y16.5517
G01 X74.8995 Y16.5666
G01 X74.8668 Y16.5786
G01 X74.8525 Y16.5885
G01 X74.7839 Y16.6472
G01 X74.6712 Y16.8064
G01 X74.5165 Y16.9611
G01 X74.3374 Y17.0866
G01 X74.1393 Y17.1790
G01 X74.0601 Y17.2004
G01 X74.0601 Y16.8770
G01 X74.1845 Y16.8232
G01 X74.3377 Y16.7124
G01 X74.4720 Y16.5666
G01 X74.5780 Y16.3863
G01 X74.6409 Y16.1872
G01 X74.6600 Y16.0000
G01 X74.6366 Y15.7925
G01 X74.5780 Y15.6136
G01 X74.4842 Y15.4503
G01 X74.3532 Y15.3015
G01 X74.1850 Y15.1773
G01 X74.0037 Y15.0965
G01 X73.8094 Y15.0551
G01 X73.6003 Y15.0569
G01 X73.4068 Y15.1003
G01 X73.2351 Y15.1773
G01 X73.0824 Y15.2875
G01 X72.9414 Y15.4417
G01 X72.8469 Y15.6042
G01 X72.8297 Y15.6500
G01 X72.5096 Y15.6500
G01 X72.5310 Y15.5707
G01 X72.6234 Y15.3726
G01 X72.7489 Y15.1935
G01 X72.9036 Y15.0388
G01 X73.0827 Y14.9134
G01 X73.2808 Y14.8209
G01 X73.4931 Y14.7640
G01 X73.6161 Y14.7498
G01 X73.6417 Y14.7396
G01 X73.7085 Y14.7010
G01 X73.7352 Y14.6787
G01 X73.7837 Y14.5976
G01 X73.7956 Y14.5649
G01 X73.7972 Y14.5476
G01 X73.7972 Y14.4704
G01 X73.7911 Y14.4363
G01 X73.7377 Y14.3429
G01 X63.8228 Y4.4267
G01 X63.7657 Y4.3840
G01 X63.6727 Y4.3571
G01 X63.6468 Y4.3536
G01 X43.6733 Y4.3536
G01 X43.6088 Y4.3622
G01 X43.5846 Y4.3721
G01 X43.5178 Y4.4107
G01 X43.4972 Y4.4267
G01 X36.4396 Y11.4869
G01 X36.4226 Y11.5092
G01 X36.3893 Y11.5941
G01 X36.3827 Y11.6284
G01 X36.3840 Y11.6456
G01 X36.4007 Y11.7386
G01 X36.4175 Y11.7691
G01 X36.4663 Y11.8288
G01 X36.4924 Y11.8516
G01 X36.5803 Y11.8867
G01 X36.6619 Y11.8984
G01 X36.8069 Y11.9464
G01 X36.9362 Y12.0261
G01 X37.0439 Y12.1338
G01 X37.1236 Y12.2631
G01 X37.1716 Y12.4082
G01 X37.1805 Y12.4950
G01 X37.1805 Y14.5849
G01 X37.1716 Y14.6718
G01 X37.1236 Y14.8168
G01 X37.0439 Y14.9461
G01 X36.9362 Y15.0538
G01 X36.8069 Y15.1336
G01 X36.6619 Y15.1816
G01 X36.5750 Y15.1905
G01 X34.4350 Y15.1905
G01 X34.3484 Y15.1816
G01 X34.2034 Y15.1336
G01 X34.0738 Y15.0538
G01 X33.9664 Y14.9464
G01 X33.8770 Y14.7993
G01 X33.8310 Y14.7363
G01 X33.8186 Y14.7246
G01 X33.7200 Y14.6726
G01 X33.6855 Y14.6677
G01 X33.6085 Y14.6708
G01 X33.5745 Y14.6782
G01 X33.4830 Y14.7348
G01 X33.4101 Y14.8120
G01 X33.2075 Y14.9736
G01 X32.9829 Y15.1033
G01 X32.7414 Y15.1981
G01 X32.4886 Y15.2557
G01 X32.2948 Y15.2702
G01 X32.1653 Y15.2702
G01 X31.9715 Y15.2557
G01 X31.7185 Y15.1981
G01 X31.4772 Y15.1033
G01 X31.2527 Y14.9736
G01 X31.0497 Y14.8120
G01 X30.8734 Y14.6218
G01 X30.7274 Y14.4076
G01 X30.6149 Y14.1740
G01 X30.5384 Y13.9261
G01 X30.4998 Y13.6695
G01 X30.4998 Y13.4104
G01 X30.5384 Y13.1539
G01 X30.6149 Y12.9060
G01 X30.7274 Y12.6723
G01 X30.8734 Y12.4582
G01 X31.0497 Y12.2679
G01 X31.2527 Y12.1064
G01 X31.4772 Y11.9766
G01 X31.7185 Y11.8819
G01 X31.9715 Y11.8242
G01 X32.1653 Y11.8097
G01 X32.2918 Y11.8097
G01 X32.3639 Y11.7978
G01 X32.4046 Y11.7803
G01 X32.4668 Y11.7348
G01 X32.4909 Y11.7097
G01 X32.5303 Y11.6241
G01 X32.5387 Y11.5903
G01 X32.5384 Y11.5727
G01 X32.5277 Y11.4831
G01 X32.4566 Y11.2969
G01 X32.4198 Y11.1001
G01 X32.4198 Y10.8999
G01 X32.4566 Y10.7031
G01 X32.5288 Y10.5164
G01 X32.6342 Y10.3462
G01 X32.7690 Y10.1981
G01 X32.9288 Y10.0774
G01 X33.1081 Y9.9883
G01 X33.3007 Y9.9334
G01 X33.4500 Y9.9197
G01 X33.5501 Y9.9197
G01 X33.6994 Y9.9334
G01 X33.8920 Y9.9883
G01 X34.0713 Y10.0774
G01 X34.2311 Y10.1981
G01 X34.3659 Y10.3462
G01 X34.4711 Y10.5164
G01 X34.5435 Y10.7031
G01 X34.5803 Y10.8999
G01 X34.5811 Y11.0538
G01 X34.6019 Y11.1440
G01 X34.6187 Y11.1714
G01 X34.6809 Y11.2425
G01 X34.7111 Y11.2596
G01 X34.7838 Y11.2855
G01 X34.8005 Y11.2900
G01 X34.8353 Y11.2898
G01 X34.9113 Y11.2758
G01 X34.9438 Y11.2636
G01 X35.0261 Y11.1945
G01 X35.0500 Y11.1615
G01 X35.0947 Y11.1214
G01 X42.8765 Y3.3396
G01 X42.9176 Y3.2936
G01 X43.0078 Y3.2276
G01 X43.0345 Y3.2123
G01 X43.1419 Y3.1679
G01 X43.1714 Y3.1598
G01 X43.2819 Y3.1427
G01 X43.3436 Y3.1463
G01 X63.9765 Y3.1463
G01 X64.0382 Y3.1427
G01 X64.1487 Y3.1598
G01 X64.1782 Y3.1679
G01 X64.2856 Y3.2123
G01 X64.3123 Y3.2276
G01 X64.4025 Y3.2936
G01 X64.4436 Y3.3396
G01 X75.8007 Y14.6969
G01 X75.8215 Y14.7127
G01 X75.8883 Y14.7513
G01 X75.9196 Y14.7630
G01 X76.0171 Y14.7655
G01 X76.2500 Y14.7447
G01 X76.4680 Y14.7637
G01 X76.6793 Y14.8204
G01 X76.8777 Y14.9128
G01 X77.0570 Y15.0383
G01 X77.2117 Y15.1930
G01 X77.3161 Y15.3424
G01 X77.3748 Y15.4018
G01 X77.4004 Y15.4155
G01 X77.4898 Y15.4462
G01 X77.5244 Y15.4462
G01 X77.6003 Y15.4330
G01 X77.6331 Y15.4211
G01 X77.7159 Y15.3525
G01 X77.8284 Y15.1930
G01 X77.9831 Y15.0383
G01 X78.0887 Y14.9636
G01 X78.1401 Y14.9085
G01 X78.1576 Y14.8819
G01 X78.1830 Y14.7925
G01 X78.1863 Y14.7665
G01 X78.1863 Y14.3035
G01 X78.1830 Y14.2418
G01 X78.1997 Y14.1313
G01 X78.2079 Y14.1018
G01 X78.2523 Y13.9944
G01 X78.2676 Y13.9677
G01 X78.3339 Y13.8775
G01 X78.3798 Y13.8364
G01 X90.1266 Y2.0897
G01 X90.1677 Y2.0437
G01 X90.2576 Y1.9774
G01 X90.2846 Y1.9624
G01 X90.3917 Y1.9180
G01 X90.4215 Y1.9096
G01 X90.5319 Y1.8928
G01 X90.5934 Y1.8964
G01 X176.2323 Y1.8964
G01 X176.2940 Y1.8928
G01 X176.4045 Y1.9096
G01 X176.4342 Y1.9180
G01 X176.5414 Y1.9624
G01 X176.5681 Y1.9774
G01 X176.6583 Y2.0437
G01 X176.6994 Y2.0897
G01 X185.2153 Y10.6055
G01 X185.2612 Y10.6469
G01 X185.3275 Y10.7368
G01 X185.3425 Y10.7635
G01 X185.3870 Y10.8709
G01 X185.3954 Y10.9004
G01 X185.4121 Y11.0109
G01 X185.4088 Y11.0726
G01 X185.4088 Y11.6406
G01 X185.4322 Y11.7409
G01 X185.4469 Y11.7724
G01 X185.5125 Y11.8402
G01 X185.5409 Y11.8600
G01 X185.5574 Y11.8661
G01 X185.6448 Y11.8887
G01 X185.8749 Y11.8895
G01 X185.9618 Y11.8984
G01 X186.1068 Y11.9464
G01 X186.2364 Y12.0261
G01 X186.3438 Y12.1338
G01 X186.4236 Y12.2631
G01 X186.4716 Y12.4082
G01 X186.4804 Y12.4950
G01 X186.1800 Y12.5400
G01 X186.1795 Y14.5504
G01 X186.1723 Y14.6126
G01 X186.1497 Y14.6825
G01 X186.1132 Y14.7457
G01 X186.0560 Y14.8067
G01 X186.0050 Y14.8430
G01 X185.9382 Y14.8730
G01 X185.8769 Y14.8864
G01 X185.8353 Y14.8900
G01 X183.7799 Y14.8900
G01 X183.7332 Y14.8864
G01 X183.6720 Y14.8730
G01 X183.6049 Y14.8430
G01 X183.5457 Y14.8001
G01 X183.4970 Y14.7457
G01 X183.4604 Y14.6825
G01 X183.4378 Y14.6126
G01 X183.4299 Y14.5400
G01 X183.4299 Y12.5400
G01 X183.4378 Y12.4673
G01 X183.4650 Y12.3883
G01 X183.4970 Y12.3342
G01 X183.5384 Y12.2873
G01 X183.6049 Y12.2370
G01 X183.6819 Y12.2044
G01 X183.7538 Y12.1912
G01 X184.5018 Y12.1902
G01 X184.5018 Y11.1747
G01 X176.1302 Y2.8031
G01 X90.6955 Y2.8031
G01 X79.0933 Y14.4056
G01 X79.0933 Y15.1003
G01 X79.2739 Y15.1828
G01 X79.4258 Y15.2941
G01 X79.5520 Y15.4335
G01 X79.6580 Y15.6136
G01 X79.7209 Y15.8128
G01 X79.7400 Y16.0000
G01 X79.7209 Y16.1872
G01 X79.6618 Y16.3767
G01 X79.5586 Y16.5583
G01 X79.4332 Y16.6985
G01 X79.2556 Y16.8275
G01 X79.0837 Y16.9034
G01 X78.8789 Y16.9454
G01 X78.6907 Y16.9448
G01 X78.4964 Y16.9034
G01 X78.3151 Y16.8227
G01 X78.1543 Y16.7061
G01 X78.0214 Y16.5583
G01 X77.9183 Y16.3767
G01 X77.8591 Y16.1872
G01 X77.8401 Y16.0000
G01 X77.8591 Y15.8128
G01 X77.9221 Y15.6136
G01 X78.0280 Y15.4335
G01 X78.1543 Y15.2941
G01 X78.3062 Y15.1828
G01 X78.4868 Y15.1000
G01 X78.4873 Y14.2702
G01 X78.4926 Y14.2210
G01 X78.5142 Y14.1552
G01 X78.5437 Y14.1036
G01 X78.5691 Y14.0729
G01 X90.3557 Y2.2855
G01 X90.4189 Y2.2380
G01 X90.4469 Y2.2238
G01 X90.5187 Y2.2012
G01 X90.5700 Y2.1968
G01 X176.2559 Y2.1968
G01 X176.3052 Y2.2012
G01 X176.3809 Y2.2240
G01 X176.4322 Y2.2537
G01 X176.4703 Y2.2855
G01 X185.0296 Y10.8466
G01 X185.0733 Y10.9080
G01 X185.0906 Y10.9482
G01 X185.1083 Y11.0490
G01 X185.1083 Y12.1900
G01 X185.8300 Y12.1900
G01 X185.8769 Y12.1935
G01 X185.9382 Y12.2070
G01 X186.0139 Y12.2425
G01 X186.0641 Y12.2799
G01 X186.1132 Y12.3342
G01 X186.1497 Y12.3977
G01 X186.1696 Y12.4572
G01 X186.1800 Y12.5400
G01 X186.2800 Y12.5400
G01 X186.2800 Y14.5400
G01 X186.2734 Y14.6129
G01 X186.2648 Y14.6538
G01 X186.2315 Y14.7417
G01 X186.1942 Y14.8044
G01 X186.1299 Y14.8753
G01 X186.0626 Y14.9248
G01 X185.9887 Y14.9606
G01 X185.9488 Y14.9733
G01 X185.8665 Y14.9883
G01 X183.7433 Y14.9883
G01 X183.6489 Y14.9700
G01 X183.5597 Y14.9322
G01 X183.4802 Y14.8755
G01 X183.4291 Y14.8206
G01 X183.3783 Y14.7417
G01 X183.3613 Y14.7036
G01 X183.3397 Y14.6334
G01 X183.3301 Y14.5400
G01 X183.3301 Y12.5400
G01 X183.3367 Y12.4671
G01 X183.3453 Y12.4262
G01 X183.3783 Y12.3383
G01 X183.4159 Y12.2756
G01 X183.4642 Y12.2204
G01 X183.4952 Y12.1925
G01 X183.5551 Y12.1503
G01 X183.6410 Y12.1120
G01 X183.7124 Y12.0957
G01 X183.7535 Y12.0914
G01 X184.4017 Y12.0904
G01 X184.4312 Y12.1194
G01 X184.4017 Y12.0904
G01 X184.4017 Y11.2161
G01 X184.4093 Y11.2131
G01 X184.4017 Y11.2161
G01 X176.0888 Y2.9032
G01 X176.0921 Y2.8956
G01 X176.0888 Y2.9032
G01 X90.7369 Y2.9032
G01 X90.7339 Y2.8956
G01 X90.7369 Y2.9032
G01 X79.1931 Y14.4470
G01 X79.1855 Y14.4440
G01 X79.1931 Y14.4470
G01 X79.1931 Y15.0353
G01 X79.1774 Y15.0454
G01 X79.1931 Y15.0353
G01 X79.2963 Y15.0812
G01 X79.3326 Y15.1021
G01 X79.4926 Y15.2197
G01 X79.6262 Y15.3665
G01 X79.6508 Y15.4003
G01 X79.7491 Y15.5730
G01 X79.8116 Y15.7615
G01 X79.8203 Y15.8024
G01 X79.8401 Y16.0000
G01 X79.8203 Y16.1976
G01 X79.8116 Y16.2385
G01 X79.7491 Y16.4269
G01 X79.6508 Y16.5997
G01 X79.6262 Y16.6334
G01 X79.5073 Y16.7655
G01 X79.4763 Y16.7935
G01 X79.3151 Y16.9093
G01 X79.1340 Y16.9911
G01 X79.0943 Y17.0040
G01 X78.9203 Y17.0409
G01 X78.8789 Y17.0454
G01 X78.6742 Y17.0434
G01 X78.4657 Y16.9987
G01 X78.2650 Y16.9093
G01 X78.0875 Y16.7803
G01 X77.9358 Y16.6101
G01 X77.8403 Y16.4457
G01 X77.8233 Y16.4076
G01 X77.7629 Y16.2184
G01 X77.7410 Y16.0208
G01 X77.7410 Y15.9791
G01 X77.7598 Y15.8024
G01 X77.7685 Y15.7615
G01 X77.8307 Y15.5730
G01 X77.9292 Y15.4003
G01 X77.9536 Y15.3665
G01 X78.0875 Y15.2197
G01 X78.2475 Y15.1021
G01 X78.2836 Y15.0812
G01 X78.3869 Y15.0353
G01 X78.4024 Y15.0454
G01 X78.3869 Y15.0353
G01 X78.3877 Y14.2603
G01 X78.3946 Y14.2014
G01 X78.4108 Y14.1442
G01 X78.4258 Y14.1079
G01 X78.4446 Y14.0729
G01 X78.4918 Y14.0094
G01 X90.2848 Y2.2149
G01 X90.3602 Y2.1572
G01 X90.4159 Y2.1288
G01 X90.4992 Y2.1031
G01 X90.5700 Y2.0968
G01 X176.2559 Y2.0968
G01 X176.3151 Y2.1016
G01 X176.3918 Y2.1209
G01 X176.4279 Y2.1359
G01 X176.4957 Y2.1765
G01 X176.5409 Y2.2149
G01 X185.0901 Y10.7640
G01 X185.1607 Y10.8590
G01 X185.1830 Y10.9098
G01 X185.1957 Y10.9550
G01 X185.2082 Y11.0490
G01 X185.2082 Y12.0899
G01 X185.1792 Y12.1191
G01 X185.2082 Y12.0899
G01 X185.8404 Y12.0904
G01 X185.8978 Y12.0957
G01 X185.9768 Y12.1150
G01 X186.0507 Y12.1481
G01 X186.1149 Y12.1925
G01 X186.1459 Y12.2204
G01 X186.1942 Y12.2756
G01 X186.2412 Y12.3568
G01 X186.2648 Y12.4262
G01 X186.2734 Y12.4671
G01 X186.2800 Y12.5400
G00 Z2.0000 ( retract )

G00 X179.9300 Y11.0000 ( rapid move to begin. )
G01 F450.0001
( Mill infeed pass 1/1 )
G01 Z-0.1270
G01 F900.0000
G01 X179.9300 Y11.0000
G01 X179.9112 Y11.2885
G01 X179.8549 Y11.5720
G01 X179.7619 Y11.8458
G01 X179.6339 Y12.1051
G01 X179.4734 Y12.3454
G01 X179.2829 Y12.5628
G01 X179.0654 Y12.7533
G01 X178.8251 Y12.9139
G01 X178.5658 Y13.0416
G01 X178.2920 Y13.1346
G01 X178.0085 Y13.1910
G01 X177.7921 Y13.2052
G01 X177.6479 Y13.2052
G01 X177.4314 Y13.1910
G01 X177.1480 Y13.1346
G01 X176.8742 Y13.0416
G01 X176.6151 Y12.9139
G01 X176.3746 Y12.7533
G01 X176.1574 Y12.5628
G01 X175.9666 Y12.3454
G01 X175.8061 Y12.1051
G01 X175.6783 Y11.8458
G01 X175.5854 Y11.5720
G01 X175.5290 Y11.2885
G01 X175.5099 Y11.0000
G01 X175.5290 Y10.7114
G01 X175.5854 Y10.4280
G01 X175.6783 Y10.1542
G01 X175.8061 Y9.8948
G01 X175.9666 Y9.6545
G01 X176.1574 Y9.4374
G01 X176.3746 Y9.2466
G01 X176.6151 Y9.0861
G01 X176.8742 Y8.9581
G01 X177.1480 Y8.8654
G01 X177.4314 Y8.8087
G01 X177.6479 Y8.7947
G01 X177.7921 Y8.7947
G01 X178.0085 Y8.8087
G01 X178.2920 Y8.8654
G01 X178.5658 Y8.9581
G01 X178.8251 Y9.0861
G01 X179.0654 Y9.2466
G01 X179.2829 Y9.4374
G01 X179.4734 Y9.6545
G01 X179.6339 Y9.8948
G01 X179.7619 Y10.1542
G01 X179.8549 Y10.4280
G01 X179.9112 Y10.7114
G01 X179.9300 Y11.0000
G01 X179.8300 Y11.0000
G01 X179.8119 Y10.7246
G01 X179.7581 Y10.4539
G01 X179.6694 Y10.1925
G01 X179.5473 Y9.9449
G01 X179.3941 Y9.7155
G01 X179.2120 Y9.5080
G01 X179.0045 Y9.3259
G01 X178.7751 Y9.1727
G01 X178.5275 Y9.0505
G01 X178.2661 Y8.9619
G01 X177.9956 Y8.9080
G01 X177.7891 Y8.8946
G01 X177.6512 Y8.8948
G01 X177.4447 Y8.9078
G01 X177.1739 Y8.9621
G01 X176.9125 Y9.0508
G01 X176.6651 Y9.1727
G01 X176.4358 Y9.3261
G01 X176.2282 Y9.5080
G01 X176.0461 Y9.7155
G01 X175.8930 Y9.9451
G01 X175.7708 Y10.1925
G01 X175.6821 Y10.4539
G01 X175.6283 Y10.7246
G01 X175.6103 Y11.0000
G01 X175.6283 Y11.2753
G01 X175.6821 Y11.5461
G01 X175.7708 Y11.8074
G01 X175.8930 Y12.0548
G01 X176.0461 Y12.2845
G01 X176.2282 Y12.4917
G01 X176.4358 Y12.6738
G01 X176.6651 Y12.8273
G01 X176.9125 Y12.9492
G01 X177.1739 Y13.0378
G01 X177.4447 Y13.0917
G01 X177.6512 Y13.1054
G01 X177.7891 Y13.1054
G01 X177.9956 Y13.0919
G01 X178.2661 Y13.0381
G01 X178.5275 Y12.9494
G01 X178.7751 Y12.8273
G01 X179.0045 Y12.6741
G01 X179.2120 Y12.4920
G01 X179.3941 Y12.2845
G01 X179.5473 Y12.0551
G01 X179.6694 Y11.8074
G01 X179.7581 Y11.5461
G01 X179.8119 Y11.2753
G01 X179.8300 Y11.0000
G00 Z2.0000 ( retract )

G00 X176.8104 Y15.9578 ( rapid move to begin. )
G01 F450.0001
( Mill infeed pass 1/1 )
G01 Z-0.1270
G01 F900.0000
G01 X176.8104 Y15.9578
G01 X176.8107 Y16.2022
G01 X176.7741 Y16.4440
G01 X176.7022 Y16.6774
G01 X176.5960 Y16.8976
G01 X176.4584 Y17.0995
G01 X176.2923 Y17.2786
G01 X176.1012 Y17.4310
G01 X175.8894 Y17.5532
G01 X175.6621 Y17.6426
G01 X175.4238 Y17.6969
G01 X175.2409 Y17.7101
G01 X175.1190 Y17.7101
G01 X174.9364 Y17.6969
G01 X174.6982 Y17.6426
G01 X174.4706 Y17.5532
G01 X174.2590 Y17.4310
G01 X174.0680 Y17.2783
G01 X173.9715 Y17.1765
G01 X173.8887 Y17.1216
G01 X173.8584 Y17.1056
G01 X173.8259 Y17.0950
G01 X173.7152 Y17.0856
G01 X173.6804 Y17.0866
G01 X173.6463 Y17.0937
G01 X173.5450 Y17.1412
G01 X173.5153 Y17.1595
G01 X173.4891 Y17.1826
G01 X173.4675 Y17.2100
G01 X173.4251 Y17.2745
G01 X173.3380 Y17.4239
G01 X173.2468 Y17.5148
G01 X173.1376 Y17.5829
G01 X173.0136 Y17.6228
G01 X172.9430 Y17.6306
G01 X172.3281 Y17.6299
G01 X172.2986 Y17.6593
G01 X172.3281 Y17.6299
G01 X172.3281 Y17.5296
G01 X172.2989 Y17.5006
G01 X172.3281 Y17.5296
G01 X172.9296 Y17.5285
G01 X172.9707 Y17.5242
G01 X173.0421 Y17.5080
G01 X173.1279 Y17.4696
G01 X173.1879 Y17.4274
G01 X173.2189 Y17.3995
G01 X173.2671 Y17.3444
G01 X173.3047 Y17.2817
G01 X173.3217 Y17.2436
G01 X173.3433 Y17.1734
G01 X173.3530 Y17.0800
G01 X173.3530 Y15.0800
G01 X173.3433 Y14.9865
G01 X173.3141 Y14.8968
G01 X173.2671 Y14.8156
G01 X173.2041 Y14.7455
G01 X173.1279 Y14.6903
G01 X173.0616 Y14.6596
G01 X173.0218 Y14.6467
G01 X172.9707 Y14.6357
G01 X172.9031 Y14.6299
G01 X172.3281 Y14.6299
G01 X172.2989 Y14.6591
G01 X172.3281 Y14.6299
G01 X172.3281 Y14.5301
G01 X172.2986 Y14.5006
G01 X172.3281 Y14.5301
G01 X172.9430 Y14.5293
G01 X173.0136 Y14.5372
G01 X173.1376 Y14.5771
G01 X173.2468 Y14.6451
G01 X173.3372 Y14.7356
G01 X173.4612 Y14.9416
G01 X173.4825 Y14.9705
G01 X173.5087 Y14.9951
G01 X173.5389 Y15.0147
G01 X173.6392 Y15.0642
G01 X173.6733 Y15.0721
G01 X173.7081 Y15.0739
G01 X173.8196 Y15.0668
G01 X173.8531 Y15.0564
G01 X173.8841 Y15.0404
G01 X173.9704 Y14.9842
G01 X174.0680 Y14.8816
G01 X174.2590 Y14.7290
G01 X174.4706 Y14.6068
G01 X174.6982 Y14.5174
G01 X174.9364 Y14.4630
G01 X175.1190 Y14.4496
G01 X175.2409 Y14.4496
G01 X175.4238 Y14.4630
G01 X175.6621 Y14.5174
G01 X175.8894 Y14.6068
G01 X176.1012 Y14.7290
G01 X176.2923 Y14.8814
G01 X176.4584 Y15.0604
G01 X176.5960 Y15.2624
G01 X176.7022 Y15.4826
G01 X176.7741 Y15.7160
G01 X176.8104 Y15.9578
G01 X176.9102 Y15.9502
G01 X176.9102 Y16.2098
G01 X176.8716 Y16.4661
G01 X176.7952 Y16.7140
G01 X176.6827 Y16.9476
G01 X176.5366 Y17.1618
G01 X176.3603 Y17.3520
G01 X176.1574 Y17.5136
G01 X175.9328 Y17.6433
G01 X175.6915 Y17.7381
G01 X175.4386 Y17.7957
G01 X175.2448 Y17.8102
G01 X175.1152 Y17.8102
G01 X174.9214 Y17.7957
G01 X174.6687 Y17.7381
G01 X174.4271 Y17.6433
G01 X174.2026 Y17.5136
G01 X173.9999 Y17.3520
G01 X173.9072 Y17.2532
G01 X173.8346 Y17.2057
G01 X173.8033 Y17.1925
G01 X173.7093 Y17.1854
G01 X173.6921 Y17.1859
G01 X173.6588 Y17.1958
G01 X173.5897 Y17.2306
G01 X173.5620 Y17.2514
G01 X173.5087 Y17.3294
G01 X173.4962 Y17.3566
G01 X173.4165 Y17.4859
G01 X173.3090 Y17.5933
G01 X173.1795 Y17.6731
G01 X173.0347 Y17.7211
G01 X172.9478 Y17.7300
G01 X172.2280 Y17.7300
G01 X172.2280 Y17.4297
G01 X172.9293 Y17.4287
G01 X173.0111 Y17.4130
G01 X173.0868 Y17.3774
G01 X173.1373 Y17.3401
G01 X173.1861 Y17.2857
G01 X173.2227 Y17.2225
G01 X173.2427 Y17.1628
G01 X173.2531 Y17.0800
G01 X173.2531 Y15.0800
G01 X173.2453 Y15.0071
G01 X173.2227 Y14.9377
G01 X173.1861 Y14.8742
G01 X173.1292 Y14.8133
G01 X173.0687 Y14.7721
G01 X173.0111 Y14.7470
G01 X172.9499 Y14.7335
G01 X172.9031 Y14.7300
G01 X172.2280 Y14.7300
G01 X172.2280 Y14.4300
G01 X172.9478 Y14.4300
G01 X173.0347 Y14.4389
G01 X173.1795 Y14.4869
G01 X173.3090 Y14.5666
G01 X173.4160 Y14.6738
G01 X173.5468 Y14.8897
G01 X173.5706 Y14.9167
G01 X173.6540 Y14.9624
G01 X173.6700 Y14.9692
G01 X173.7043 Y14.9738
G01 X173.7987 Y14.9690
G01 X173.8307 Y14.9558
G01 X173.9067 Y14.9070
G01 X173.9999 Y14.8079
G01 X174.2026 Y14.6464
G01 X174.4271 Y14.5166
G01 X174.6687 Y14.4219
G01 X174.9214 Y14.3642
G01 X175.1152 Y14.3497
G01 X175.2448 Y14.3497
G01 X175.4386 Y14.3642
G01 X175.6915 Y14.4219
G01 X175.9328 Y14.5166
G01 X176.1574 Y14.6464
G01 X176.3603 Y14.8079
G01 X176.5366 Y14.9982
G01 X176.6827 Y15.2123
G01 X176.7952 Y15.4460
G01 X176.8716 Y15.6939
G01 X176.9102 Y15.9502
G00 Z2.0000 ( retract )

G00 X173.6204 Y10.9090 ( rapid move to begin. )
G01 F450.0001
( Mill infeed pass 1/1 )
G01 Z-0.1270
G01 F900.0000
G01 X173.6204 Y10.9090
G01 X173.6207 Y11.0909
G01 X173.5874 Y11.2695
G01 X173.5216 Y11.4389
G01 X173.4261 Y11.5936
G01 X173.3037 Y11.7279
G01 X173.1584 Y11.8374
G01 X172.9958 Y11.9184
G01 X172.8211 Y11.9682
G01 X172.6855 Y11.9807
G01 X172.5948 Y11.9802
G01 X172.4591 Y11.9682
G01 X172.2841 Y11.9184
G01 X172.1216 Y11.8374
G01 X171.9765 Y11.7279
G01 X171.8541 Y11.5936
G01 X171.7584 Y11.4389
G01 X171.6928 Y11.2695
G01 X171.6593 Y11.0909
G01 X171.6593 Y10.9090
G01 X171.6928 Y10.7305
G01 X171.7584 Y10.5611
G01 X171.8541 Y10.4064
G01 X171.9765 Y10.2720
G01 X172.1216 Y10.1625
G01 X172.2841 Y10.0815
G01 X172.4591 Y10.0317
G01 X172.5948 Y10.0198
G01 X172.6855 Y10.0195
G01 X172.8211 Y10.0317
G01 X172.9958 Y10.0815
G01 X173.1584 Y10.1625
G01 X173.3037 Y10.2720
G01 X173.4261 Y10.4064
G01 X173.5216 Y10.5611
G01 X173.5874 Y10.7305
G01 X173.6204 Y10.9090
G01 X173.7203 Y10.8999
G01 X173.7203 Y11.1001
G01 X173.6837 Y11.2969
G01 X173.6113 Y11.4836
G01 X173.5059 Y11.6538
G01 X173.3710 Y11.8019
G01 X173.2112 Y11.9225
G01 X173.0319 Y12.0117
G01 X172.8394 Y12.0665
G01 X172.6900 Y12.0802
G01 X172.5902 Y12.0802
G01 X172.4406 Y12.0665
G01 X172.2481 Y12.0117
G01 X172.0690 Y11.9225
G01 X171.9092 Y11.8019
G01 X171.7744 Y11.6538
G01 X171.6689 Y11.4836
G01 X171.5966 Y11.2969
G01 X171.5597 Y11.1001
G01 X171.5597 Y10.8999
G01 X171.5966 Y10.7031
G01 X171.6689 Y10.5164
G01 X171.7744 Y10.3462
G01 X171.9092 Y10.1984
G01 X172.0690 Y10.0774
G01 X172.2481 Y9.9883
G01 X172.4406 Y9.9334
G01 X172.5900 Y9.9197
G01 X172.6900 Y9.9197
G01 X172.8394 Y9.9334
G01 X173.0319 Y9.9883
G01 X173.2112 Y10.0774
G01 X173.3710 Y10.1981
G01 X173.5059 Y10.3462
G01 X173.6113 Y10.5164
G01 X173.6837 Y10.7031
G01 X173.7203 Y10.8999
G00 Z2.0000 ( retract )

G00 X171.5280 Y14.4300 ( rapid move to begin. )
G01 F450.0001
( Mill infeed pass 1/1 )
G01 Z-0.1270
G01 F900.0000
G01 X171.5280 Y14.4300
G01 X170.8081 Y14.4300
G01 X170.7213 Y14.4389
G01 X170.5765 Y14.4869
G01 X170.4472 Y14.5666
G01 X170.3398 Y14.6741
G01 X170.2600 Y14.8034
G01 X170.2120 Y14.9484
G01 X170.2031 Y15.0350
G01 X170.2031 Y15.7300
G01 X170.5031 Y15.7300
G01 X170.5031 Y15.0800
G01 X170.5089 Y15.0175
G01 X170.5381 Y14.9283
G01 X170.5699 Y14.8742
G01 X170.6189 Y14.8199
G01 X170.6781 Y14.7770
G01 X170.7350 Y14.7508
G01 X170.8216 Y14.7315
G01 X171.5280 Y14.7300
G01 X171.5280 Y14.4300
G01 X171.4279 Y14.5301
G01 X170.8132 Y14.5301
G01 X170.7424 Y14.5359
G01 X170.6187 Y14.5776
G01 X170.5092 Y14.6451
G01 X170.4183 Y14.7361
G01 X170.3504 Y14.8455
G01 X170.3090 Y14.9692
G01 X170.3029 Y15.0401
G01 X170.3029 Y15.6299
G01 X170.2730 Y15.6596
G01 X170.3029 Y15.6299
G01 X170.4030 Y15.6299
G01 X170.4315 Y15.6586
G01 X170.4030 Y15.6299
G01 X170.4030 Y15.0800
G01 X170.4096 Y15.0071
G01 X170.4183 Y14.9662
G01 X170.4515 Y14.8783
G01 X170.4889 Y14.8156
G01 X170.5519 Y14.7455
G01 X170.6281 Y14.6903
G01 X170.6943 Y14.6596
G01 X170.7342 Y14.6467
G01 X170.8165 Y14.6317
G01 X171.4279 Y14.6299
G01 X171.4571 Y14.6586
G01 X171.4279 Y14.6299
G01 X171.4279 Y14.5301
G00 Z2.0000 ( retract )

G00 X171.5280 Y17.4300 ( rapid move to begin. )
G01 F450.0001
( Mill infeed pass 1/1 )
G01 Z-0.1270
G01 F900.0000
G01 X171.5280 Y17.4300
G01 X170.8216 Y17.4285
G01 X170.7350 Y17.4092
G01 X170.6781 Y17.3830
G01 X170.6270 Y17.3467
G01 X170.5699 Y17.2857
G01 X170.5381 Y17.2316
G01 X170.5089 Y17.1425
G01 X170.5031 Y17.0800
G01 X170.5031 Y16.4300
G01 X170.2031 Y16.4300
G01 X170.2031 Y17.1249
G01 X170.2120 Y17.2115
G01 X170.2600 Y17.3566
G01 X170.3398 Y17.4859
G01 X170.4472 Y17.5933
G01 X170.5765 Y17.6731
G01 X170.7215 Y17.7211
G01 X170.8081 Y17.7300
G01 X171.5280 Y17.7300
G01 X171.5280 Y17.4300
G01 X171.4279 Y17.5301
G01 X171.4279 Y17.6299
G01 X171.4574 Y17.6593
G01 X171.4279 Y17.6299
G01 X170.8132 Y17.6306
G01 X170.7424 Y17.6228
G01 X170.6187 Y17.5829
G01 X170.5092 Y17.5148
G01 X170.4183 Y17.4239
G01 X170.3504 Y17.3142
G01 X170.3090 Y17.1907
G01 X170.3029 Y17.1199
G01 X170.3029 Y16.5301
G01 X170.2730 Y16.5003
G01 X170.3029 Y16.5301
G01 X170.4030 Y16.5301
G01 X170.4317 Y16.5011
G01 X170.4030 Y16.5301
G01 X170.4030 Y17.0800
G01 X170.4096 Y17.1529
G01 X170.4183 Y17.1938
G01 X170.4515 Y17.2817
G01 X170.4889 Y17.3444
G01 X170.5519 Y17.4145
G01 X170.6105 Y17.4584
G01 X170.6466 Y17.4793
G01 X170.7139 Y17.5080
G01 X170.7853 Y17.5242
G01 X170.8531 Y17.5301
G01 X171.4279 Y17.5301
G00 Z2.0000 ( retract )

G00 X161.9801 Y12.5400 ( rapid move to begin. )
G01 F450.0001
( Mill infeed pass 1/1 )
G01 Z-0.1270
G01 F900.0000
G01 X161.9801 Y12.5400
G01 X161.9735 Y12.4671
G01 X161.9649 Y12.4262
G01 X161.9410 Y12.3568
G01 X161.8940 Y12.2756
G01 X161.8460 Y12.2204
G01 X161.8148 Y12.1925
G01 X161.7508 Y12.1481
G01 X161.6768 Y12.1150
G01 X161.5978 Y12.0957
G01 X161.5404 Y12.0904
G01 X160.9082 Y12.0899
G01 X160.8790 Y12.1191
G01 X160.9082 Y12.0899
G01 X160.9072 Y11.0294
G01 X160.9006 Y10.9705
G01 X160.8841 Y10.9134
G01 X160.8691 Y10.8770
G01 X160.8402 Y10.8250
G01 X160.8033 Y10.7785
G01 X153.7411 Y3.7147
G01 X153.6799 Y3.6647
G01 X153.6278 Y3.6358
G01 X153.5537 Y3.6093
G01 X153.5151 Y3.6017
G01 X153.4559 Y3.5969
G01 X92.0699 Y3.5969
G01 X92.0107 Y3.6017
G01 X91.9343 Y3.6208
G01 X91.8629 Y3.6546
G01 X91.8304 Y3.6764
G01 X91.7849 Y3.7147
G01 X81.0450 Y14.4549
G01 X80.9709 Y14.5570
G01 X80.9318 Y14.6764
G01 X80.9277 Y15.0350
G01 X80.9432 Y15.0449
G01 X80.9277 Y15.0350
G01 X80.8050 Y15.0906
G01 X80.6437 Y15.2065
G01 X80.6127 Y15.2344
G01 X80.4807 Y15.3827
G01 X80.3803 Y15.5542
G01 X80.3633 Y15.5926
G01 X80.3029 Y15.7818
G01 X80.2800 Y16.0000
G01 X80.3029 Y16.2184
G01 X80.3633 Y16.4076
G01 X80.3803 Y16.4457
G01 X80.4845 Y16.6220
G01 X80.6127 Y16.7655
G01 X80.6437 Y16.7935
G01 X80.8050 Y16.9093
G01 X80.9861 Y16.9911
G01 X81.0257 Y17.0040
G01 X81.2142 Y17.0434
G01 X81.4189 Y17.0454
G01 X81.4603 Y17.0409
G01 X81.6544 Y16.9987
G01 X81.8363 Y16.9187
G01 X81.8726 Y16.8979
G01 X82.0326 Y16.7803
G01 X82.1662 Y16.6334
G01 X82.1908 Y16.5997
G01 X82.2891 Y16.4269
G01 X82.3516 Y16.2385
G01 X82.3603 Y16.1976
G01 X82.3801 Y16.0000
G01 X82.3570 Y15.7818
G01 X82.2891 Y15.5730
G01 X82.1908 Y15.4003
G01 X82.1662 Y15.3665
G01 X82.0326 Y15.2197
G01 X81.8726 Y15.1021
G01 X81.8363 Y15.0812
G01 X81.7331 Y15.0353
G01 X81.7174 Y15.0454
G01 X81.7331 Y15.0353
G01 X81.7331 Y14.9070
G01 X81.7255 Y14.9037
G01 X81.7331 Y14.9070
G01 X92.2371 Y4.4031
G01 X92.2340 Y4.3955
G01 X92.2371 Y4.4031
G01 X153.2890 Y4.4031
G01 X153.2920 Y4.3955
G01 X153.2890 Y4.4031
G01 X160.1018 Y11.2161
G01 X160.1094 Y11.2131
G01 X160.1018 Y11.2161
G01 X160.1018 Y12.0904
G01 X160.1310 Y12.1194
G01 X160.1018 Y12.0904
G01 X159.4536 Y12.0914
G01 X159.4124 Y12.0957
G01 X159.3411 Y12.1120
G01 X159.2550 Y12.1503
G01 X159.1953 Y12.1925
G01 X159.1640 Y12.2204
G01 X159.1160 Y12.2756
G01 X159.0784 Y12.3383
G01 X159.0454 Y12.4262
G01 X159.0365 Y12.4671
G01 X159.0299 Y12.5400
G01 X159.0299 Y14.5400
G01 X159.0398 Y14.6334
G01 X159.0614 Y14.7036
G01 X159.0784 Y14.7417
G01 X159.1292 Y14.8206
G01 X159.1803 Y14.8755
G01 X159.2598 Y14.9322
G01 X159.3489 Y14.9700
G01 X159.4434 Y14.9883
G01 X161.5666 Y14.9883
G01 X161.6489 Y14.9733
G01 X161.6885 Y14.9606
G01 X161.7624 Y14.9248
G01 X161.8300 Y14.8753
G01 X161.8940 Y14.8044
G01 X161.9316 Y14.7417
G01 X161.9649 Y14.6538
G01 X161.9735 Y14.6129
G01 X161.9801 Y14.5400
G01 X161.9801 Y12.5400
G01 X161.8800 Y12.5400
G01 X161.8800 Y14.5400
G01 X161.8724 Y14.6126
G01 X161.8498 Y14.6825
G01 X161.8132 Y14.7457
G01 X161.7642 Y14.8001
G01 X161.7050 Y14.8430
G01 X161.6479 Y14.8692
G01 X161.5770 Y14.8864
G01 X161.5354 Y14.8900
G01 X159.4800 Y14.8900
G01 X159.4330 Y14.8864
G01 X159.3820 Y14.8755
G01 X159.3144 Y14.8478
G01 X159.2458 Y14.8001
G01 X159.2034 Y14.7538
G01 X159.1567 Y14.6726
G01 X159.1376 Y14.6126
G01 X159.1300 Y14.5400
G01 X159.1300 Y12.5400
G01 X159.1404 Y12.4572
G01 X159.1650 Y12.3883
G01 X159.1968 Y12.3342
G01 X159.2384 Y12.2873
G01 X159.3050 Y12.2370
G01 X159.3820 Y12.2044
G01 X159.4538 Y12.1912
G01 X160.2019 Y12.1902
G01 X160.2019 Y11.1747
G01 X153.3304 Y4.3033
G01 X92.1957 Y4.3033
G01 X81.6333 Y14.8656
G01 X81.6333 Y15.1003
G01 X81.8139 Y15.1828
G01 X81.9658 Y15.2941
G01 X82.0920 Y15.4335
G01 X82.1980 Y15.6136
G01 X82.2592 Y15.8024
G01 X82.2800 Y16.0000
G01 X82.2566 Y16.2075
G01 X82.1931 Y16.3957
G01 X82.0986 Y16.5583
G01 X81.9732 Y16.6985
G01 X81.7956 Y16.8275
G01 X81.6237 Y16.9034
G01 X81.4189 Y16.9454
G01 X81.2307 Y16.9448
G01 X81.0364 Y16.9034
G01 X80.8551 Y16.8227
G01 X80.6943 Y16.7061
G01 X80.5558 Y16.5496
G01 X80.4621 Y16.3863
G01 X80.4034 Y16.2075
G01 X80.3801 Y16.0000
G01 X80.4009 Y15.8024
G01 X80.4621 Y15.6136
G01 X80.5680 Y15.4335
G01 X80.6943 Y15.2941
G01 X80.8462 Y15.1828
G01 X81.0273 Y15.1000
G01 X81.0306 Y14.6924
G01 X81.0598 Y14.6022
G01 X81.1157 Y14.5255
G01 X91.8555 Y3.7856
G01 X91.8936 Y3.7536
G01 X91.9452 Y3.7241
G01 X92.0013 Y3.7051
G01 X92.0699 Y3.6967
G01 X153.4559 Y3.6967
G01 X153.5054 Y3.7013
G01 X153.5808 Y3.7241
G01 X153.6243 Y3.7478
G01 X153.6703 Y3.7856
G01 X160.7261 Y10.8420
G01 X160.7571 Y10.8806
G01 X160.7810 Y10.9243
G01 X160.8023 Y10.9901
G01 X160.8077 Y11.0393
G01 X160.8082 Y12.1900
G01 X161.5300 Y12.1900
G01 X161.5770 Y12.1935
G01 X161.6382 Y12.2070
G01 X161.7139 Y12.2425
G01 X161.7642 Y12.2799
G01 X161.8132 Y12.3342
G01 X161.8498 Y12.3977
G01 X161.8696 Y12.4572
G01 X161.8800 Y12.5400
G00 Z2.0000 ( retract )

G00 X155.6301 Y11.0000 ( rapid move to begin. )
G01 F450.0001
( Mill infeed pass 1/1 )
G01 Z-0.1270
G01 F900.0000
G01 X155.6301 Y11.0000
G01 X155.6111 Y11.2885
G01 X155.5547 Y11.5720
G01 X155.4617 Y11.8458
G01 X155.3340 Y12.1051
G01 X155.1734 Y12.3454
G01 X154.9827 Y12.5628
G01 X154.7655 Y12.7533
G01 X154.5250 Y12.9139
G01 X154.2659 Y13.0416
G01 X153.9921 Y13.1346
G01 X153.7086 Y13.1910
G01 X153.4922 Y13.2052
G01 X153.3479 Y13.2052
G01 X153.1315 Y13.1910
G01 X152.8481 Y13.1346
G01 X152.5742 Y13.0416
G01 X152.3152 Y12.9139
G01 X152.0746 Y12.7533
G01 X151.8572 Y12.5628
G01 X151.6667 Y12.3454
G01 X151.5062 Y12.1051
G01 X151.3782 Y11.8458
G01 X151.2854 Y11.5720
G01 X151.2288 Y11.2885
G01 X151.2100 Y11.0000
G01 X151.2288 Y10.7114
G01 X151.2854 Y10.4280
G01 X151.3782 Y10.1542
G01 X151.5062 Y9.8948
G01 X151.6667 Y9.6545
G01 X151.8572 Y9.4374
G01 X152.0746 Y9.2466
G01 X152.3152 Y9.0861
G01 X152.5742 Y8.9581
G01 X152.8481 Y8.8654
G01 X153.1315 Y8.8087
G01 X153.3479 Y8.7947
G01 X153.4922 Y8.7947
G01 X153.7086 Y8.8087
G01 X153.9921 Y8.8654
G01 X154.2659 Y8.9581
G01 X154.5250 Y9.0861
G01 X154.7655 Y9.2466
G01 X154.9827 Y9.4374
G01 X155.1734 Y9.6545
G01 X155.3340 Y9.8948
G01 X155.4617 Y10.1542
G01 X155.5547 Y10.4280
G01 X155.6111 Y10.7114
G01 X155.6301 Y11.0000
G01 X155.5300 Y11.0000
G01 X155.5120 Y10.7246
G01 X155.4582 Y10.4539
G01 X155.3695 Y10.1925
G01 X155.2473 Y9.9449
G01 X155.0939 Y9.7155
G01 X154.9121 Y9.5080
G01 X154.7045 Y9.3259
G01 X154.4749 Y9.1727
G01 X154.2275 Y9.0505
G01 X153.9662 Y8.9619
G01 X153.6954 Y8.9080
G01 X153.4889 Y8.8946
G01 X153.3512 Y8.8948
G01 X153.1447 Y8.9078
G01 X152.8740 Y8.9621
G01 X152.6126 Y9.0508
G01 X152.3652 Y9.1727
G01 X152.1356 Y9.3261
G01 X151.9281 Y9.5080
G01 X151.7462 Y9.7155
G01 X151.5928 Y9.9451
G01 X151.4709 Y10.1925
G01 X151.3822 Y10.4539
G01 X151.3284 Y10.7246
G01 X151.3101 Y11.0000
G01 X151.3284 Y11.2753
G01 X151.3822 Y11.5461
G01 X151.4709 Y11.8074
G01 X151.5928 Y12.0548
G01 X151.7462 Y12.2845
G01 X151.9281 Y12.4917
G01 X152.1356 Y12.6738
G01 X152.3652 Y12.8273
G01 X152.6126 Y12.9492
G01 X152.8740 Y13.0378
G01 X153.1447 Y13.0917
G01 X153.3512 Y13.1054
G01 X153.4889 Y13.1054
G01 X153.6954 Y13.0919
G01 X153.9662 Y13.0381
G01 X154.2275 Y12.9494
G01 X154.4749 Y12.8273
G01 X154.7045 Y12.6741
G01 X154.9121 Y12.4920
G01 X155.0939 Y12.2845
G01 X155.2473 Y12.0551
G01 X155.3695 Y11.8074
G01 X155.4582 Y11.5461
G01 X155.5120 Y11.2753
G01 X155.5300 Y11.0000
G00 Z2.0000 ( retract )

G00 X152.5102 Y15.9578 ( rapid move to begin. )
G01 F450.0001
( Mill infeed pass 1/1 )
G01 Z-0.1270
G01 F900.0000
G01 X152.5102 Y15.9578
G01 X152.5105 Y16.2022
G01 X152.4742 Y16.4440
G01 X152.4020 Y16.6774
G01 X152.2961 Y16.8976
G01 X152.1584 Y17.0995
G01 X151.9923 Y17.2786
G01 X151.8011 Y17.4310
G01 X151.5895 Y17.5532
G01 X151.3619 Y17.6426
G01 X151.1236 Y17.6969
G01 X150.9410 Y17.7101
G01 X150.8191 Y17.7101
G01 X150.6362 Y17.6969
G01 X150.3980 Y17.6426
G01 X150.1706 Y17.5532
G01 X149.9588 Y17.4310
G01 X149.7681 Y17.2783
G01 X149.6713 Y17.1765
G01 X149.5887 Y17.1216
G01 X149.5585 Y17.1056
G01 X149.5260 Y17.0950
G01 X149.4152 Y17.0856
G01 X149.3804 Y17.0866
G01 X149.3462 Y17.0937
G01 X149.3139 Y17.1066
G01 X149.2153 Y17.1595
G01 X149.1892 Y17.1826
G01 X149.1676 Y17.2100
G01 X149.1252 Y17.2743
G01 X149.0381 Y17.4239
G01 X148.9469 Y17.5148
G01 X148.8376 Y17.5829
G01 X148.7137 Y17.6228
G01 X148.6428 Y17.6306
G01 X148.0282 Y17.6299
G01 X147.9987 Y17.6593
G01 X148.0282 Y17.6299
G01 X148.0282 Y17.5296
G01 X147.9987 Y17.5006
G01 X148.0282 Y17.5296
G01 X148.6296 Y17.5285
G01 X148.6708 Y17.5242
G01 X148.7421 Y17.5080
G01 X148.8280 Y17.4696
G01 X148.8879 Y17.4274
G01 X148.9189 Y17.3995
G01 X148.9672 Y17.3444
G01 X149.0045 Y17.2817
G01 X149.0215 Y17.2436
G01 X149.0431 Y17.1734
G01 X149.0530 Y17.0800
G01 X149.0530 Y15.0800
G01 X149.0431 Y14.9865
G01 X149.0142 Y14.8968
G01 X148.9672 Y14.8156
G01 X148.9042 Y14.7455
G01 X148.8280 Y14.6903
G01 X148.7617 Y14.6596
G01 X148.7218 Y14.6467
G01 X148.6708 Y14.6357
G01 X148.6030 Y14.6299
G01 X148.0282 Y14.6299
G01 X147.9989 Y14.6591
G01 X148.0282 Y14.6299
G01 X148.0282 Y14.5301
G01 X147.9987 Y14.5006
G01 X148.0282 Y14.5301
G01 X148.6428 Y14.5293
G01 X148.7137 Y14.5372
G01 X148.8376 Y14.5771
G01 X148.9469 Y14.6451
G01 X149.0373 Y14.7356
G01 X149.1612 Y14.9416
G01 X149.1826 Y14.9705
G01 X149.2087 Y14.9951
G01 X149.2390 Y15.0147
G01 X149.3393 Y15.0642
G01 X149.3731 Y15.0721
G01 X149.4081 Y15.0739
G01 X149.5196 Y15.0668
G01 X149.5529 Y15.0564
G01 X149.5842 Y15.0404
G01 X149.6705 Y14.9842
G01 X149.7681 Y14.8816
G01 X149.9588 Y14.7290
G01 X150.1706 Y14.6068
G01 X150.3980 Y14.5174
G01 X150.6362 Y14.4630
G01 X150.8191 Y14.4496
G01 X150.9410 Y14.4496
G01 X151.1236 Y14.4630
G01 X151.3619 Y14.5174
G01 X151.5895 Y14.6068
G01 X151.8011 Y14.7290
G01 X151.9923 Y14.8814
G01 X152.1584 Y15.0604
G01 X152.2961 Y15.2624
G01 X152.4020 Y15.4826
G01 X152.4742 Y15.7160
G01 X152.5102 Y15.9578
G01 X152.6103 Y15.9502
G01 X152.6103 Y16.2098
G01 X152.5717 Y16.4661
G01 X152.4952 Y16.7140
G01 X152.3827 Y16.9476
G01 X152.2367 Y17.1618
G01 X152.0601 Y17.3520
G01 X151.8575 Y17.5136
G01 X151.6329 Y17.6433
G01 X151.3914 Y17.7381
G01 X151.1386 Y17.7957
G01 X150.9448 Y17.8102
G01 X150.8153 Y17.8102
G01 X150.6215 Y17.7957
G01 X150.3685 Y17.7381
G01 X150.1272 Y17.6433
G01 X149.9027 Y17.5136
G01 X149.6997 Y17.3520
G01 X149.6070 Y17.2532
G01 X149.5346 Y17.2057
G01 X149.5034 Y17.1925
G01 X149.4094 Y17.1854
G01 X149.3749 Y17.1894
G01 X149.3586 Y17.1961
G01 X149.2898 Y17.2306
G01 X149.2618 Y17.2512
G01 X149.2087 Y17.3294
G01 X149.1960 Y17.3566
G01 X149.1163 Y17.4859
G01 X149.0088 Y17.5933
G01 X148.8796 Y17.6731
G01 X148.7348 Y17.7211
G01 X148.6479 Y17.7300
G01 X147.9281 Y17.7300
G01 X147.9281 Y17.4297
G01 X148.6294 Y17.4287
G01 X148.7112 Y17.4130
G01 X148.7868 Y17.3774
G01 X148.8371 Y17.3401
G01 X148.8862 Y17.2857
G01 X148.9227 Y17.2225
G01 X148.9426 Y17.1628
G01 X148.9530 Y17.0800
G01 X148.9530 Y15.0800
G01 X148.9453 Y15.0071
G01 X148.9227 Y14.9377
G01 X148.8862 Y14.8742
G01 X148.8290 Y14.8133
G01 X148.7688 Y14.7721
G01 X148.7112 Y14.7470
G01 X148.6499 Y14.7335
G01 X148.6030 Y14.7300
G01 X147.9281 Y14.7300
G01 X147.9281 Y14.4300
G01 X148.6479 Y14.4300
G01 X148.7348 Y14.4389
G01 X148.8796 Y14.4869
G01 X149.0088 Y14.5666
G01 X149.1160 Y14.6738
G01 X149.2468 Y14.8897
G01 X149.2705 Y14.9167
G01 X149.3538 Y14.9624
G01 X149.3698 Y14.9692
G01 X149.4043 Y14.9738
G01 X149.4986 Y14.9690
G01 X149.5308 Y14.9558
G01 X149.6068 Y14.9070
G01 X149.6997 Y14.8079
G01 X149.9027 Y14.6464
G01 X150.1272 Y14.5166
G01 X150.3685 Y14.4219
G01 X150.6215 Y14.3642
G01 X150.8153 Y14.3497
G01 X150.9448 Y14.3497
G01 X151.1386 Y14.3642
G01 X151.3914 Y14.4219
G01 X151.6329 Y14.5166
G01 X151.8575 Y14.6464
G01 X152.0601 Y14.8079
G01 X152.2367 Y14.9982
G01 X152.3827 Y15.2123
G01 X152.4952 Y15.4460
G01 X152.5717 Y15.6939
G01 X152.6103 Y15.9502
G00 Z2.0000 ( retract )

G00 X149.3202 Y10.9090 ( rapid move to begin. )
G01 F450.0001
( Mill infeed pass 1/1 )
G01 Z-0.1270
G01 F900.0000
G01 X149.3202 Y10.9090
G01 X149.3208 Y11.0909
G01 X149.2875 Y11.2695
G01 X149.2217 Y11.4389
G01 X149.1259 Y11.5936
G01 X149.0035 Y11.7279
G01 X148.8585 Y11.8374
G01 X148.6959 Y11.9184
G01 X148.5209 Y11.9682
G01 X148.3853 Y11.9807
G01 X148.2946 Y11.9802
G01 X148.1590 Y11.9682
G01 X147.9842 Y11.9184
G01 X147.8217 Y11.8374
G01 X147.6766 Y11.7279
G01 X147.5542 Y11.5936
G01 X147.4584 Y11.4389
G01 X147.3926 Y11.2695
G01 X147.3594 Y11.0909
G01 X147.3594 Y10.9090
G01 X147.3926 Y10.7305
G01 X147.4584 Y10.5611
G01 X147.5542 Y10.4064
G01 X147.6766 Y10.2720
G01 X147.8217 Y10.1625
G01 X147.9842 Y10.0815
G01 X148.1590 Y10.0317
G01 X148.2946 Y10.0198
G01 X148.3853 Y10.0195
G01 X148.5209 Y10.0317
G01 X148.6959 Y10.0815
G01 X148.8585 Y10.1625
G01 X149.0035 Y10.2720
G01 X149.1259 Y10.4064
G01 X149.2217 Y10.5611
G01 X149.2875 Y10.7305
G01 X149.3202 Y10.9090
G01 X149.4203 Y10.8999
G01 X149.4203 Y11.1001
G01 X149.3835 Y11.2969
G01 X149.3111 Y11.4836
G01 X149.2057 Y11.6538
G01 X149.0711 Y11.8019
G01 X148.9111 Y11.9225
G01 X148.7320 Y12.0117
G01 X148.5395 Y12.0665
G01 X148.3901 Y12.0802
G01 X148.2900 Y12.0802
G01 X148.1407 Y12.0665
G01 X147.9481 Y12.0117
G01 X147.7688 Y11.9225
G01 X147.6091 Y11.8019
G01 X147.4742 Y11.6538
G01 X147.3688 Y11.4836
G01 X147.2966 Y11.2969
G01 X147.2598 Y11.1001
G01 X147.2598 Y10.8999
G01 X147.2966 Y10.7031
G01 X147.3688 Y10.5164
G01 X147.4742 Y10.3462
G01 X147.6091 Y10.1981
G01 X147.7688 Y10.0774
G01 X147.9481 Y9.9883
G01 X148.1407 Y9.9334
G01 X148.2900 Y9.9197
G01 X148.3901 Y9.9197
G01 X148.5395 Y9.9334
G01 X148.7320 Y9.9883
G01 X148.9111 Y10.0774
G01 X149.0711 Y10.1981
G01 X149.2057 Y10.3462
G01 X149.3111 Y10.5164
G01 X149.3835 Y10.7031
G01 X149.4203 Y10.8999
G00 Z2.0000 ( retract )

G00 X147.2281 Y14.4300 ( rapid move to begin. )
G01 F450.0001
( Mill infeed pass 1/1 )
G01 Z-0.1270
G01 F900.0000
G01 X147.2281 Y14.4300
G01 X146.5082 Y14.4300
G01 X146.4213 Y14.4389
G01 X146.2766 Y14.4869
G01 X146.1470 Y14.5666
G01 X146.0396 Y14.6741
G01 X145.9598 Y14.8034
G01 X145.9118 Y14.9484
G01 X145.9029 Y15.0350
G01 X145.9029 Y15.7300
G01 X146.2029 Y15.7300
G01 X146.2029 Y15.0800
G01 X146.2090 Y15.0175
G01 X146.2380 Y14.9283
G01 X146.2700 Y14.8742
G01 X146.3187 Y14.8199
G01 X146.3779 Y14.7770
G01 X146.4351 Y14.7508
G01 X146.5217 Y14.7315
G01 X147.2281 Y14.7300
G01 X147.2281 Y14.4300
G01 X147.1280 Y14.5301
G01 X146.5133 Y14.5301
G01 X146.4422 Y14.5359
G01 X146.3187 Y14.5776
G01 X146.2093 Y14.6451
G01 X146.1181 Y14.7361
G01 X146.0505 Y14.8455
G01 X146.0091 Y14.9692
G01 X146.0030 Y15.0401
G01 X146.0030 Y15.6299
G01 X145.9730 Y15.6596
G01 X146.0030 Y15.6299
G01 X146.1031 Y15.6299
G01 X146.1313 Y15.6586
G01 X146.1031 Y15.6299
G01 X146.1031 Y15.0800
G01 X146.1097 Y15.0071
G01 X146.1343 Y14.9164
G01 X146.1513 Y14.8783
G01 X146.1889 Y14.8156
G01 X146.2519 Y14.7455
G01 X146.3281 Y14.6903
G01 X146.3944 Y14.6596
G01 X146.4343 Y14.6467
G01 X146.5163 Y14.6317
G01 X147.1280 Y14.6299
G01 X147.1569 Y14.6586
G01 X147.1280 Y14.6299
G01 X147.1280 Y14.5301
G00 Z2.0000 ( retract )

G00 X147.2281 Y17.4300 ( rapid move to begin. )
G01 F450.0001
( Mill infeed pass 1/1 )
G01 Z-0.1270
G01 F900.0000
G01 X147.2281 Y17.4300
G01 X146.5217 Y17.4285
G01 X146.4351 Y17.4092
G01 X146.3779 Y17.3830
G01 X146.3269 Y17.3467
G01 X146.2700 Y17.2857
G01 X146.2380 Y17.2316
G01 X146.2090 Y17.1425
G01 X146.2029 Y17.0800
G01 X146.2029 Y16.4300
G01 X145.9029 Y16.4300
G01 X145.9029 Y17.1249
G01 X145.9118 Y17.2115
G01 X145.9598 Y17.3566
G01 X146.0396 Y17.4859
G01 X146.1470 Y17.5933
G01 X146.2766 Y17.6731
G01 X146.4213 Y17.7211
G01 X146.5082 Y17.7300
G01 X147.2281 Y17.7300
G01 X147.2281 Y17.4300
G01 X147.1280 Y17.5301
G01 X147.1280 Y17.6299
G01 X147.1574 Y17.6593
G01 X147.1280 Y17.6299
G01 X146.5130 Y17.6306
G01 X146.4424 Y17.6228
G01 X146.3185 Y17.5829
G01 X146.2093 Y17.5148
G01 X146.1181 Y17.4239
G01 X146.0505 Y17.3142
G01 X146.0091 Y17.1907
G01 X146.0030 Y17.1199
G01 X146.0030 Y16.5301
G01 X145.9730 Y16.5003
G01 X146.0030 Y16.5301
G01 X146.1031 Y16.5301
G01 X146.1315 Y16.5011
G01 X146.1031 Y16.5301
G01 X146.1031 Y17.0800
G01 X146.1097 Y17.1529
G01 X146.1343 Y17.2436
G01 X146.1513 Y17.2817
G01 X146.1889 Y17.3444
G01 X146.2519 Y17.4145
G01 X146.3103 Y17.4584
G01 X146.3467 Y17.4793
G01 X146.4140 Y17.5080
G01 X146.4854 Y17.5242
G01 X146.5529 Y17.5301
G01 X147.1280 Y17.5301
G00 Z2.0000 ( retract )

G00 X131.3302 Y11.0000 ( rapid move to begin. )
G01 F450.0001
( Mill infeed pass 1/1 )
G01 Z-0.1270
G01 F900.0000
G01 X131.3302 Y11.0000
G01 X131.3111 Y11.2885
G01 X131.2548 Y11.5720
G01 X131.1618 Y11.8458
G01 X131.0340 Y12.1051
G01 X130.8732 Y12.3454
G01 X130.6827 Y12.5628
G01 X130.4653 Y12.7533
G01 X130.2250 Y12.9139
G01 X129.9657 Y13.0416
G01 X129.6921 Y13.1346
G01 X129.4084 Y13.1910
G01 X129.1923 Y13.2052
G01 X129.0477 Y13.2052
G01 X128.8316 Y13.1910
G01 X128.5481 Y13.1346
G01 X128.2743 Y13.0416
G01 X128.0150 Y12.9139
G01 X127.7747 Y12.7533
G01 X127.5573 Y12.5628
G01 X127.3668 Y12.3454
G01 X127.2060 Y12.1051
G01 X127.0782 Y11.8458
G01 X126.9853 Y11.5720
G01 X126.9289 Y11.2885
G01 X126.9101 Y11.0000
G01 X126.9289 Y10.7114
G01 X126.9853 Y10.4280
G01 X127.0782 Y10.1542
G01 X127.2060 Y9.8948
G01 X127.3668 Y9.6545
G01 X127.5573 Y9.4374
G01 X127.7747 Y9.2466
G01 X128.0150 Y9.0861
G01 X128.2743 Y8.9581
G01 X128.5481 Y8.8654
G01 X128.8316 Y8.8087
G01 X129.0477 Y8.7947
G01 X129.1923 Y8.7947
G01 X129.4084 Y8.8087
G01 X129.6921 Y8.8654
G01 X129.9657 Y8.9581
G01 X130.2250 Y9.0861
G01 X130.4653 Y9.2466
G01 X130.6827 Y9.4374
G01 X130.8732 Y9.6545
G01 X131.0340 Y9.8948
G01 X131.1618 Y10.1542
G01 X131.2548 Y10.4280
G01 X131.3111 Y10.7114
G01 X131.3302 Y11.0000
G01 X131.2301 Y11.0000
G01 X131.2121 Y10.7246
G01 X131.1582 Y10.4539
G01 X131.0693 Y10.1925
G01 X130.9474 Y9.9449
G01 X130.7940 Y9.7155
G01 X130.6121 Y9.5080
G01 X130.4046 Y9.3259
G01 X130.1750 Y9.1727
G01 X129.9276 Y9.0505
G01 X129.6662 Y8.9619
G01 X129.3955 Y8.9080
G01 X129.1890 Y8.8946
G01 X129.0511 Y8.8948
G01 X128.8445 Y8.9078
G01 X128.5740 Y8.9621
G01 X128.3127 Y9.0508
G01 X128.0650 Y9.1727
G01 X127.8357 Y9.3261
G01 X127.6281 Y9.5080
G01 X127.4463 Y9.7155
G01 X127.2929 Y9.9451
G01 X127.1709 Y10.1925
G01 X127.0820 Y10.4539
G01 X127.0282 Y10.7246
G01 X127.0102 Y11.0000
G01 X127.0282 Y11.2753
G01 X127.0820 Y11.5461
G01 X127.1709 Y11.8074
G01 X127.2929 Y12.0548
G01 X127.4463 Y12.2845
G01 X127.6281 Y12.4917
G01 X127.8357 Y12.6738
G01 X128.0650 Y12.8273
G01 X128.3127 Y12.9492
G01 X128.5740 Y13.0378
G01 X128.8445 Y13.0917
G01 X129.0511 Y13.1054
G01 X129.1890 Y13.1054
G01 X129.3955 Y13.0919
G01 X129.6662 Y13.0381
G01 X129.9276 Y12.9494
G01 X130.1750 Y12.8273
G01 X130.4046 Y12.6741
G01 X130.6121 Y12.4920
G01 X130.7940 Y12.2845
G01 X130.9474 Y12.0551
G01 X131.0693 Y11.8074
G01 X131.1582 Y11.5461
G01 X131.2121 Y11.2753
G01 X131.2301 Y11.0000
G00 Z2.0000 ( retract )

G00 X128.2103 Y15.9578 ( rapid move to begin. )
G01 F450.0001
( Mill infeed pass 1/1 )
G01 Z-0.1270
G01 F900.0000
G01 X128.2103 Y15.9578
G01 X128.2106 Y16.2022
G01 X128.1742 Y16.4440
G01 X128.1021 Y16.6774
G01 X127.9962 Y16.8976
G01 X127.8585 Y17.0995
G01 X127.6921 Y17.2786
G01 X127.5011 Y17.4310
G01 X127.2896 Y17.5532
G01 X127.0620 Y17.6426
G01 X126.8237 Y17.6969
G01 X126.6411 Y17.7101
G01 X126.5189 Y17.7101
G01 X126.3363 Y17.6969
G01 X126.0980 Y17.6426
G01 X125.8705 Y17.5532
G01 X125.6589 Y17.4310
G01 X125.4681 Y17.2783
G01 X125.3714 Y17.1765
G01 X125.2888 Y17.1216
G01 X125.2586 Y17.1056
G01 X125.2261 Y17.0950
G01 X125.1151 Y17.0856
G01 X125.0803 Y17.0866
G01 X125.0462 Y17.0937
G01 X125.0137 Y17.1066
G01 X124.9152 Y17.1595
G01 X124.8893 Y17.1826
G01 X124.8677 Y17.2100
G01 X124.8253 Y17.2743
G01 X124.7379 Y17.4239
G01 X124.6469 Y17.5148
G01 X124.5375 Y17.5829
G01 X124.4135 Y17.6228
G01 X124.3429 Y17.6306
G01 X123.7280 Y17.6299
G01 X123.6988 Y17.6593
G01 X123.7280 Y17.6299
G01 X123.7280 Y17.5296
G01 X123.6988 Y17.5006
G01 X123.7280 Y17.5296
G01 X124.3294 Y17.5285
G01 X124.3708 Y17.5242
G01 X124.4420 Y17.5080
G01 X124.5281 Y17.4696
G01 X124.5878 Y17.4274
G01 X124.6190 Y17.3995
G01 X124.6670 Y17.3444
G01 X124.7046 Y17.2817
G01 X124.7216 Y17.2436
G01 X124.7432 Y17.1734
G01 X124.7531 Y17.0800
G01 X124.7531 Y15.0800
G01 X124.7432 Y14.9865
G01 X124.7140 Y14.8968
G01 X124.6670 Y14.8156
G01 X124.6040 Y14.7455
G01 X124.5281 Y14.6903
G01 X124.4615 Y14.6596
G01 X124.4219 Y14.6467
G01 X124.3708 Y14.6357
G01 X124.3030 Y14.6299
G01 X123.7280 Y14.6299
G01 X123.6988 Y14.6591
G01 X123.7280 Y14.6299
G01 X123.7280 Y14.5301
G01 X123.6988 Y14.5006
G01 X123.7280 Y14.5301
G01 X124.3429 Y14.5293
G01 X124.4135 Y14.5372
G01 X124.5375 Y14.5771
G01 X124.6469 Y14.6451
G01 X124.7371 Y14.7356
G01 X124.8613 Y14.9416
G01 X124.8827 Y14.9705
G01 X124.9088 Y14.9951
G01 X124.9388 Y15.0147
G01 X125.0391 Y15.0642
G01 X125.0732 Y15.0721
G01 X125.1080 Y15.0739
G01 X125.2197 Y15.0668
G01 X125.2530 Y15.0564
G01 X125.2840 Y15.0406
G01 X125.3706 Y14.9842
G01 X125.4681 Y14.8816
G01 X125.6589 Y14.7290
G01 X125.8705 Y14.6068
G01 X126.0980 Y14.5174
G01 X126.3363 Y14.4630
G01 X126.5189 Y14.4496
G01 X126.6411 Y14.4496
G01 X126.8237 Y14.4630
G01 X127.0620 Y14.5174
G01 X127.2896 Y14.6068
G01 X127.5011 Y14.7290
G01 X127.6921 Y14.8814
G01 X127.8585 Y15.0604
G01 X127.9962 Y15.2624
G01 X128.1021 Y15.4826
G01 X128.1742 Y15.7160
G01 X128.2103 Y15.9578
G01 X128.3104 Y15.9502
G01 X128.3104 Y16.2098
G01 X128.2718 Y16.4661
G01 X128.1953 Y16.7140
G01 X128.0828 Y16.9476
G01 X127.9368 Y17.1618
G01 X127.7602 Y17.3520
G01 X127.5575 Y17.5136
G01 X127.3330 Y17.6433
G01 X127.0914 Y17.7381
G01 X126.8387 Y17.7957
G01 X126.6447 Y17.8102
G01 X126.5154 Y17.8102
G01 X126.3216 Y17.7957
G01 X126.0686 Y17.7381
G01 X125.8273 Y17.6433
G01 X125.6025 Y17.5136
G01 X125.3998 Y17.3520
G01 X125.3071 Y17.2532
G01 X125.2347 Y17.2057
G01 X125.2032 Y17.1925
G01 X125.1095 Y17.1854
G01 X125.0749 Y17.1894
G01 X125.0587 Y17.1961
G01 X124.9898 Y17.2306
G01 X124.9619 Y17.2512
G01 X124.9088 Y17.3294
G01 X124.8961 Y17.3566
G01 X124.8164 Y17.4859
G01 X124.7089 Y17.5933
G01 X124.5796 Y17.6731
G01 X124.4346 Y17.7211
G01 X124.3480 Y17.7300
G01 X123.6282 Y17.7300
G01 X123.6282 Y17.4297
G01 X124.3294 Y17.4287
G01 X124.4112 Y17.4130
G01 X124.4869 Y17.3774
G01 X124.5372 Y17.3401
G01 X124.5862 Y17.2857
G01 X124.6228 Y17.2225
G01 X124.6426 Y17.1628
G01 X124.6530 Y17.0800
G01 X124.6530 Y15.0800
G01 X124.6454 Y15.0071
G01 X124.6228 Y14.9377
G01 X124.5862 Y14.8742
G01 X124.5291 Y14.8133
G01 X124.4686 Y14.7721
G01 X124.4112 Y14.7470
G01 X124.3500 Y14.7335
G01 X124.3030 Y14.7300
G01 X123.6282 Y14.7300
G01 X123.6282 Y14.4300
G01 X124.3480 Y14.4300
G01 X124.4346 Y14.4389
G01 X124.5796 Y14.4869
G01 X124.7089 Y14.5666
G01 X124.8161 Y14.6738
G01 X124.9469 Y14.8897
G01 X124.9705 Y14.9167
G01 X125.0539 Y14.9624
G01 X125.0699 Y14.9692
G01 X125.1044 Y14.9738
G01 X125.1986 Y14.9690
G01 X125.2309 Y14.9558
G01 X125.3068 Y14.9070
G01 X125.3998 Y14.8079
G01 X125.6025 Y14.6464
G01 X125.8273 Y14.5166
G01 X126.0686 Y14.4219
G01 X126.3216 Y14.3642
G01 X126.5154 Y14.3497
G01 X126.6447 Y14.3497
G01 X126.8387 Y14.3642
G01 X127.0914 Y14.4219
G01 X127.3330 Y14.5166
G01 X127.5575 Y14.6464
G01 X127.7602 Y14.8079
G01 X127.9368 Y14.9982
G01 X128.0828 Y15.2123
G01 X128.1953 Y15.4460
G01 X128.2718 Y15.6939
G01 X128.3104 Y15.9502
G00 Z2.0000 ( retract )

G00 X125.0203 Y10.9090 ( rapid move to begin. )
G01 F450.0001
( Mill infeed pass 1/1 )
G01 Z-0.1270
G01 F900.0000
G01 X125.0203 Y10.9090
G01 X124.9873 Y10.7305
G01 X124.9218 Y10.5611
G01 X124.8260 Y10.4064
G01 X124.7036 Y10.2720
G01 X124.5586 Y10.1625
G01 X124.3957 Y10.0815
G01 X124.2210 Y10.0317
G01 X124.0853 Y10.0195
G01 X123.9947 Y10.0198
G01 X123.8590 Y10.0317
G01 X123.6843 Y10.0815
G01 X123.5215 Y10.1625
G01 X123.3764 Y10.2720
G01 X123.2540 Y10.4064
G01 X123.1582 Y10.5611
G01 X123.0927 Y10.7305
G01 X123.0592 Y10.9090
G01 X123.0592 Y11.0909
G01 X123.0927 Y11.2695
G01 X123.1582 Y11.4389
G01 X123.2540 Y11.5936
G01 X123.3764 Y11.7279
G01 X123.5215 Y11.8374
G01 X123.6843 Y11.9184
G01 X123.8590 Y11.9682
G01 X123.9947 Y11.9802
G01 X124.0853 Y11.9807
G01 X124.2210 Y11.9682
G01 X124.3957 Y11.9184
G01 X124.5586 Y11.8374
G01 X124.7036 Y11.7279
G01 X124.8260 Y11.5936
G01 X124.9218 Y11.4389
G01 X124.9873 Y11.2695
G01 X125.0208 Y11.0909
G01 X125.0203 Y10.9090
G01 X125.1204 Y10.8999
G01 X125.1204 Y11.1001
G01 X125.0836 Y11.2969
G01 X125.0112 Y11.4836
G01 X124.9058 Y11.6538
G01 X124.7709 Y11.8019
G01 X124.6111 Y11.9225
G01 X124.4321 Y12.0117
G01 X124.2393 Y12.0665
G01 X124.0899 Y12.0802
G01 X123.9901 Y12.0802
G01 X123.8407 Y12.0665
G01 X123.6482 Y12.0117
G01 X123.4689 Y11.9225
G01 X123.3091 Y11.8019
G01 X123.1743 Y11.6538
G01 X123.0688 Y11.4836
G01 X122.9965 Y11.2969
G01 X122.9596 Y11.1001
G01 X122.9596 Y10.8999
G01 X122.9965 Y10.7031
G01 X123.0688 Y10.5164
G01 X123.1743 Y10.3462
G01 X123.3091 Y10.1981
G01 X123.4689 Y10.0774
G01 X123.6482 Y9.9883
G01 X123.8407 Y9.9334
G01 X123.9901 Y9.9197
G01 X124.0899 Y9.9197
G01 X124.2393 Y9.9334
G01 X124.4321 Y9.9883
G01 X124.6111 Y10.0774
G01 X124.7709 Y10.1984
G01 X124.9058 Y10.3462
G01 X125.0112 Y10.5164
G01 X125.0836 Y10.7031
G01 X125.1204 Y10.8999
G00 Z2.0000 ( retract )

G00 X122.9281 Y14.4300 ( rapid move to begin. )
G01 F450.0001
( Mill infeed pass 1/1 )
G01 Z-0.1270
G01 F900.0000
G01 X122.9281 Y14.4300
G01 X122.2080 Y14.4300
G01 X122.1214 Y14.4389
G01 X121.9764 Y14.4869
G01 X121.8471 Y14.5666
G01 X121.7397 Y14.6741
G01 X121.6599 Y14.8034
G01 X121.6119 Y14.9484
G01 X121.6030 Y15.0350
G01 X121.6030 Y15.7300
G01 X121.9030 Y15.7300
G01 X121.9030 Y15.0800
G01 X121.9091 Y15.0175
G01 X121.9380 Y14.9283
G01 X121.9698 Y14.8742
G01 X122.0188 Y14.8199
G01 X122.0780 Y14.7770
G01 X122.1351 Y14.7508
G01 X122.2218 Y14.7315
G01 X122.9281 Y14.7300
G01 X122.9281 Y14.4300
G01 X122.8280 Y14.5301
G01 X122.2134 Y14.5301
G01 X122.1422 Y14.5359
G01 X122.0188 Y14.5776
G01 X121.9091 Y14.6451
G01 X121.8181 Y14.7361
G01 X121.7506 Y14.8455
G01 X121.7092 Y14.9692
G01 X121.7031 Y15.0401
G01 X121.7031 Y15.6299
G01 X121.6731 Y15.6596
G01 X121.7031 Y15.6299
G01 X121.8029 Y15.6299
G01 X121.8314 Y15.6586
G01 X121.8029 Y15.6299
G01 X121.8029 Y15.0800
G01 X121.8095 Y15.0071
G01 X121.8344 Y14.9164
G01 X121.8514 Y14.8783
G01 X121.8890 Y14.8156
G01 X121.9520 Y14.7455
G01 X122.0279 Y14.6903
G01 X122.0945 Y14.6596
G01 X122.1341 Y14.6467
G01 X122.2164 Y14.6317
G01 X122.8280 Y14.6299
G01 X122.8570 Y14.6586
G01 X122.8280 Y14.6299
G01 X122.8280 Y14.5301
G00 Z2.0000 ( retract )

G00 X122.9281 Y17.4300 ( rapid move to begin. )
G01 F450.0001
( Mill infeed pass 1/1 )
G01 Z-0.1270
G01 F900.0000
G01 X122.9281 Y17.4300
G01 X122.2218 Y17.4285
G01 X122.1351 Y17.4092
G01 X122.0780 Y17.3830
G01 X122.0269 Y17.3467
G01 X121.9642 Y17.2768
G01 X121.9332 Y17.2225
G01 X121.9091 Y17.1425
G01 X121.9030 Y17.0800
G01 X121.9030 Y16.4300
G01 X121.6030 Y16.4300
G01 X121.6030 Y17.1249
G01 X121.6119 Y17.2115
G01 X121.6599 Y17.3566
G01 X121.7397 Y17.4859
G01 X121.8471 Y17.5933
G01 X121.9764 Y17.6731
G01 X122.1214 Y17.7211
G01 X122.2080 Y17.7300
G01 X122.9281 Y17.7300
G01 X122.9281 Y17.4300
G01 X122.8280 Y17.5301
G01 X122.8280 Y17.6299
G01 X122.8573 Y17.6593
G01 X122.8280 Y17.6299
G01 X122.2131 Y17.6306
G01 X122.1425 Y17.6228
G01 X122.0186 Y17.5829
G01 X121.9091 Y17.5148
G01 X121.8181 Y17.4239
G01 X121.7506 Y17.3142
G01 X121.7092 Y17.1907
G01 X121.7031 Y17.1199
G01 X121.7031 Y16.5301
G01 X121.6731 Y16.5003
G01 X121.7031 Y16.5301
G01 X121.8029 Y16.5301
G01 X121.8316 Y16.5011
G01 X121.8029 Y16.5301
G01 X121.8029 Y17.0800
G01 X121.8095 Y17.1529
G01 X121.8344 Y17.2436
G01 X121.8514 Y17.2817
G01 X121.8890 Y17.3444
G01 X121.9520 Y17.4145
G01 X122.0104 Y17.4584
G01 X122.0467 Y17.4793
G01 X122.1141 Y17.5080
G01 X122.1854 Y17.5242
G01 X122.2530 Y17.5301
G01 X122.8280 Y17.5301
G00 Z2.0000 ( retract )

G00 X84.6902 Y14.9499 ( rapid move to begin. )
G01 F450.0001
( Mill infeed pass 1/1 )
G01 Z-0.1270
G01 F900.0000
G01 X84.6902 Y14.9499
G01 X93.7372 Y5.9032
G01 X93.7339 Y5.8956
G01 X93.7372 Y5.9032
G01 X130.4889 Y5.9032
G01 X130.4920 Y5.8956
G01 X130.4889 Y5.9032
G01 X135.8019 Y11.2161
G01 X135.8095 Y11.2131
G01 X135.8019 Y11.2161
G01 X135.8019 Y12.0904
G01 X135.8311 Y12.1194
G01 X135.8019 Y12.0904
G01 X135.1537 Y12.0914
G01 X135.1123 Y12.0957
G01 X135.0409 Y12.1120
G01 X134.9736 Y12.1407
G01 X134.9375 Y12.1618
G01 X134.8788 Y12.2055
G01 X134.8290 Y12.2593
G01 X134.8047 Y12.2931
G01 X134.7688 Y12.3568
G01 X134.7399 Y12.4465
G01 X134.7300 Y12.5400
G01 X134.7310 Y14.5608
G01 X134.7399 Y14.6334
G01 X134.7688 Y14.7231
G01 X134.8161 Y14.8044
G01 X134.8803 Y14.8755
G01 X134.9472 Y14.9248
G01 X135.0213 Y14.9606
G01 X135.1123 Y14.9842
G01 X135.1697 Y14.9898
G01 X137.2301 Y14.9901
G01 X137.2977 Y14.9842
G01 X137.3774 Y14.9647
G01 X137.4506 Y14.9319
G01 X137.5301 Y14.8753
G01 X137.5941 Y14.8044
G01 X137.6411 Y14.7231
G01 X137.6703 Y14.6334
G01 X137.6789 Y14.5608
G01 X137.6799 Y12.5400
G01 X137.5801 Y12.5400
G01 X137.5801 Y14.5400
G01 X137.5725 Y14.6126
G01 X137.5499 Y14.6825
G01 X137.5131 Y14.7457
G01 X137.4643 Y14.8001
G01 X137.4051 Y14.8430
G01 X137.3381 Y14.8730
G01 X137.2768 Y14.8864
G01 X137.2301 Y14.8900
G01 X135.1747 Y14.8900
G01 X135.1331 Y14.8864
G01 X135.0622 Y14.8692
G01 X135.0051 Y14.8430
G01 X134.9459 Y14.8001
G01 X134.8969 Y14.7457
G01 X134.8603 Y14.6825
G01 X134.8377 Y14.6126
G01 X134.8301 Y14.5400
G01 X134.8301 Y12.5400
G01 X134.8377 Y12.4673
G01 X134.8651 Y12.3883
G01 X134.8969 Y12.3342
G01 X134.9385 Y12.2873
G01 X135.0051 Y12.2370
G01 X135.0820 Y12.2044
G01 X135.1537 Y12.1912
G01 X135.9019 Y12.1902
G01 X135.9019 Y11.1747
G01 X130.5303 Y5.8031
G01 X93.6955 Y5.8031
G01 X84.4489 Y15.0500
G01 X84.7395 Y15.0518
G01 X84.7583 Y15.0576
G01 X84.7908 Y15.0792
G01 X84.8032 Y15.0945
G01 X84.8182 Y15.1305
G01 X84.8200 Y16.8501
G01 X84.8124 Y16.8882
G01 X84.7908 Y16.9207
G01 X84.7583 Y16.9423
G01 X84.7199 Y16.9499
G01 X83.0199 Y16.9499
G01 X82.9818 Y16.9423
G01 X82.9493 Y16.9207
G01 X82.9277 Y16.8882
G01 X82.9201 Y16.8501
G01 X82.9201 Y15.1501
G01 X82.9277 Y15.1117
G01 X82.9493 Y15.0792
G01 X82.9818 Y15.0576
G01 X83.0199 Y15.0500
G01 X83.6074 Y15.0500
G01 X83.6237 Y15.0236
G01 X83.6557 Y14.9855
G01 X93.3557 Y5.2855
G01 X93.4324 Y5.2299
G01 X93.5225 Y5.2004
G01 X130.7033 Y5.2004
G01 X130.7935 Y5.2299
G01 X130.8702 Y5.2855
G01 X136.4259 Y10.8420
G01 X136.4572 Y10.8806
G01 X136.4811 Y10.9243
G01 X136.5024 Y10.9901
G01 X136.5077 Y11.0393
G01 X136.5082 Y12.1900
G01 X137.2301 Y12.1900
G01 X137.2768 Y12.1935
G01 X137.3381 Y12.2070
G01 X137.4137 Y12.2425
G01 X137.4643 Y12.2799
G01 X137.5131 Y12.3342
G01 X137.5499 Y12.3977
G01 X137.5697 Y12.4572
G01 X137.5801 Y12.5400
G01 X137.6799 Y12.5400
G01 X137.6703 Y12.4465
G01 X137.6487 Y12.3764
G01 X137.6317 Y12.3383
G01 X137.5941 Y12.2756
G01 X137.5458 Y12.2204
G01 X137.5148 Y12.1925
G01 X137.4508 Y12.1481
G01 X137.3769 Y12.1150
G01 X137.2977 Y12.0957
G01 X137.2405 Y12.0904
G01 X136.6083 Y12.0899
G01 X136.5791 Y12.1191
G01 X136.6083 Y12.0899
G01 X136.6073 Y11.0294
G01 X136.6004 Y10.9705
G01 X136.5842 Y10.9134
G01 X136.5692 Y10.8770
G01 X136.5402 Y10.8250
G01 X136.5034 Y10.7785
G01 X130.9411 Y5.2149
G01 X130.8390 Y5.1407
G01 X130.7191 Y5.1018
G01 X93.5383 Y5.0993
G01 X93.4766 Y5.1090
G01 X93.3869 Y5.1407
G01 X93.2851 Y5.2149
G01 X83.5850 Y14.9149
G01 X83.5548 Y14.9499
G01 X83.5581 Y14.9576
G01 X83.5548 Y14.9499
G01 X83.0199 Y14.9499
G01 X82.9810 Y14.9537
G01 X82.9434 Y14.9652
G01 X82.9089 Y14.9837
G01 X82.8787 Y15.0086
G01 X82.8538 Y15.0388
G01 X82.8352 Y15.0734
G01 X82.8238 Y15.1110
G01 X82.8200 Y15.1501
G01 X82.8200 Y16.8501
G01 X82.8238 Y16.8890
G01 X82.8380 Y16.9316
G01 X82.8512 Y16.9568
G01 X82.8787 Y16.9913
G01 X82.9135 Y17.0188
G01 X82.9368 Y17.0312
G01 X82.9810 Y17.0462
G01 X83.0199 Y17.0500
G01 X84.7199 Y17.0500
G01 X84.7590 Y17.0462
G01 X84.8032 Y17.0312
G01 X84.8269 Y17.0185
G01 X84.8614 Y16.9913
G01 X84.8886 Y16.9568
G01 X84.9013 Y16.9329
G01 X84.9163 Y16.8890
G01 X84.9201 Y16.8501
G01 X84.9201 Y15.1501
G01 X84.9163 Y15.1110
G01 X84.9048 Y15.0734
G01 X84.8863 Y15.0388
G01 X84.8614 Y15.0086
G01 X84.8312 Y14.9837
G01 X84.7966 Y14.9652
G01 X84.7590 Y14.9537
G01 X84.6902 Y14.9499
G01 X84.5731 Y14.9890
G00 Z2.0000 ( retract )

G00 X80.2188 Y9.9032 ( rapid move to begin. )
G01 F450.0001
( Mill infeed pass 1/1 )
G01 Z-0.1270
G01 F900.0000
G01 X80.2188 Y9.9032
G01 X80.2086 Y9.9362
G01 X80.1842 Y9.9606
G01 X80.1515 Y9.9708
G01 X80.1174 Y9.9647
G01 X80.0806 Y9.9357
G01 X79.7672 Y9.5372
G01 X79.7550 Y9.5240
G01 X79.7240 Y9.5054
G01 X79.6887 Y9.4988
G01 X79.6531 Y9.5054
G01 X79.6224 Y9.5240
G01 X79.6099 Y9.5372
G01 X79.2805 Y9.9532
G01 X79.2432 Y9.9698
G01 X79.2089 Y9.9677
G01 X79.1794 Y9.9499
G01 X79.1616 Y9.9202
G01 X79.1596 Y9.8859
G01 X79.1789 Y9.8433
G01 X79.5447 Y9.3774
G01 X79.5619 Y9.3439
G01 X79.5658 Y9.3251
G01 X79.5619 Y9.2875
G01 X79.5447 Y9.2540
G01 X79.1657 Y8.7681
G01 X79.1583 Y8.7282
G01 X79.1685 Y8.6952
G01 X79.1929 Y8.6708
G01 X79.2259 Y8.6604
G01 X79.2597 Y8.6667
G01 X79.2968 Y8.6957
G01 X79.6099 Y9.0942
G01 X79.6224 Y9.1074
G01 X79.6531 Y9.1260
G01 X79.6887 Y9.1326
G01 X79.7240 Y9.1260
G01 X79.7550 Y9.1074
G01 X79.7672 Y9.0942
G01 X80.0969 Y8.6782
G01 X80.1342 Y8.6614
G01 X80.1685 Y8.6637
G01 X80.1980 Y8.6815
G01 X80.2157 Y8.7109
G01 X80.2178 Y8.7455
G01 X80.1985 Y8.7881
G01 X79.8325 Y9.2540
G01 X79.8152 Y9.2875
G01 X79.8116 Y9.3251
G01 X79.8152 Y9.3439
G01 X79.8325 Y9.3774
G01 X80.2023 Y9.8478
G01 X80.2114 Y9.8631
G01 X80.2188 Y9.9032
G01 X79.7852 Y9.4442
G01 X79.7321 Y9.4044
G01 X79.7192 Y9.3718
G01 X79.7121 Y9.3348
G01 X79.7121 Y9.2967
G01 X79.7192 Y9.2593
G01 X79.7321 Y9.2271
G01 X79.7758 Y9.1910
G01 X79.7321 Y9.2271
G01 X79.6887 Y9.2324
G01 X79.6450 Y9.2271
G01 X79.6016 Y9.1910
G01 X79.6450 Y9.2271
G01 X79.6580 Y9.2593
G01 X79.6651 Y9.2967
G01 X79.6651 Y9.3348
G01 X79.6580 Y9.3718
G01 X79.6450 Y9.4044
G01 X79.5919 Y9.4442
G01 X79.6450 Y9.4044
G01 X79.6887 Y9.3990
G01 X79.7321 Y9.4044
G00 Z2.0000 ( retract )

G00 X78.6925 Y9.6383 ( rapid move to begin. )
G01 F450.0001
( Mill infeed pass 1/1 )
G01 Z-0.1270
G01 F900.0000
G01 X78.6925 Y9.6383
G01 X78.7220 Y9.6436
G01 X78.7199 Y9.6606
G01 X78.7088 Y9.6929
G01 X78.6229 Y9.8600
G01 X78.5881 Y9.8872
G01 X78.4192 Y9.9692
G01 X78.3849 Y9.9741
G01 X78.0519 Y9.9718
G01 X78.0191 Y9.9606
G01 X77.8523 Y9.8745
G01 X77.8253 Y9.8402
G01 X77.7491 Y9.6881
G01 X77.7387 Y9.6368
G01 X77.7387 Y8.9883
G01 X77.7519 Y8.9385
G01 X77.8375 Y8.7714
G01 X77.8723 Y8.7439
G01 X78.0247 Y8.6680
G01 X78.0758 Y8.6573
G01 X78.4085 Y8.6594
G01 X78.4413 Y8.6708
G01 X78.6066 Y8.7556
G01 X78.6305 Y8.7889
G01 X78.6354 Y8.8229
G01 X78.6237 Y8.8555
G01 X78.5983 Y8.8788
G01 X78.5650 Y8.8877
G01 X78.5193 Y8.8773
G01 X78.4004 Y8.8179
G01 X78.3557 Y8.8074
G01 X78.0895 Y8.8085
G01 X78.0603 Y8.8179
G01 X77.9689 Y8.8651
G01 X77.9567 Y8.8755
G01 X77.9379 Y8.9014
G01 X77.8934 Y8.9931
G01 X77.8886 Y9.0236
G01 X77.8906 Y9.1918
G01 X77.9054 Y9.2278
G01 X77.9178 Y9.2428
G01 X77.9503 Y9.2646
G01 X78.6557 Y9.4077
G01 X78.6862 Y9.4191
G01 X78.7085 Y9.4404
G01 X78.7197 Y9.4704
G01 X78.7220 Y9.6436
G01 X78.6922 Y9.6441
G01 X78.6727 Y9.4932
G01 X78.6600 Y9.4706
G01 X78.6473 Y9.4592
G01 X78.6503 Y9.4557
G01 X78.6473 Y9.4592
G01 X78.5078 Y9.4031
G01 X78.0329 Y9.3081
G01 X77.9529 Y9.3007
G01 X77.8591 Y9.3007
G01 X77.8398 Y9.3048
G01 X77.8375 Y9.2982
G01 X77.8398 Y9.3048
G01 X77.8274 Y9.3121
G01 X77.8162 Y9.3251
G01 X77.8137 Y9.3233
G01 X77.8162 Y9.3251
G01 X77.7753 Y9.4275
G01 X77.7636 Y9.5291
G01 X77.7626 Y9.6294
G01 X77.7718 Y9.6726
G01 X77.7865 Y9.7086
G01 X77.8477 Y9.8234
G01 X77.8774 Y9.8570
G01 X77.8744 Y9.8603
G01 X77.8774 Y9.8570
G01 X77.9239 Y9.8849
G01 X78.0057 Y9.9258
G01 X78.0656 Y9.9494
G01 X78.3773 Y9.9494
G01 X78.4205 Y9.9408
G01 X78.5363 Y9.8852
G01 X78.5790 Y9.8595
G01 X78.6041 Y9.8349
G01 X78.6074 Y9.8379
G01 X78.6041 Y9.8349
G01 X78.6338 Y9.7859
G01 X78.6816 Y9.6863
G01 X78.6925 Y9.6383
G01 X78.5632 Y9.6154
G01 X78.5536 Y9.5801
G01 X78.5317 Y9.5509
G01 X78.5010 Y9.5313
G01 X78.4832 Y9.5260
G01 X78.0082 Y9.4310
G01 X77.9732 Y9.4303
G01 X77.9559 Y9.4346
G01 X77.9252 Y9.4518
G01 X77.9127 Y9.4643
G01 X77.8949 Y9.4945
G01 X77.8886 Y9.5291
G01 X77.8886 Y9.6078
G01 X77.8934 Y9.6380
G01 X77.9379 Y9.7300
G01 X77.9567 Y9.7559
G01 X77.9826 Y9.7747
G01 X78.0745 Y9.8194
G01 X78.1050 Y9.8240
G01 X78.3557 Y9.8240
G01 X78.3862 Y9.8194
G01 X78.4779 Y9.7747
G01 X78.5038 Y9.7559
G01 X78.5226 Y9.7300
G01 X78.5531 Y9.6688
G01 X78.5632 Y9.6337
G01 X78.5632 Y9.6154
G01 X78.5914 Y9.6365
G01 X78.5746 Y9.6810
G01 X78.5228 Y9.7762
G01 X78.4878 Y9.7978
G01 X78.3907 Y9.8450
G01 X78.3549 Y9.8491
G01 X78.0821 Y9.8478
G01 X78.0484 Y9.8354
G01 X77.9391 Y9.7780
G01 X77.9150 Y9.7399
G01 X77.8675 Y9.6429
G01 X77.8642 Y9.6228
G01 X77.8637 Y9.5324
G01 X77.8739 Y9.4521
G01 X77.8937 Y9.4008
G01 X77.9506 Y9.4008
G01 X78.0156 Y9.4071
G01 X78.4837 Y9.5006
G01 X78.5759 Y9.5377
G01 X78.5914 Y9.6365
G00 Z2.0000 ( retract )

G00 X77.0969 Y9.9411 ( rapid move to begin. )
G01 F450.0001
( Mill infeed pass 1/1 )
G01 Z-0.1270
G01 F900.0000
G01 X77.0969 Y9.9411
G01 X77.0931 Y9.9052
G01 X77.0270 Y9.7716
G01 X77.0151 Y9.7549
G01 X76.9511 Y9.6919
G01 X76.8297 Y9.6299
G01 X76.7502 Y9.5994
G01 X76.6765 Y9.5631
G01 X76.5762 Y9.6030
G01 X76.4789 Y9.6154
G01 X76.2254 Y9.6157
G01 X76.2069 Y9.6652
G01 X76.1970 Y9.7437
G01 X76.1970 Y10.3022
G01 X76.2190 Y10.4092
G01 X76.3273 Y10.4318
G01 X76.7718 Y10.4323
G01 X76.8073 Y10.4285
G01 X76.9490 Y10.3579
G01 X77.0077 Y10.3007
G01 X77.0318 Y10.2674
G01 X77.0834 Y10.1643
G01 X77.0959 Y10.1305
G01 X77.0969 Y9.9411
G01 X77.0720 Y9.9403
G01 X77.0720 Y10.1077
G01 X77.0672 Y10.1382
G01 X77.0009 Y10.2705
G01 X76.9473 Y10.3259
G01 X76.9214 Y10.3447
G01 X76.8170 Y10.3967
G01 X76.7723 Y10.4074
G01 X76.3219 Y10.4074
G01 X76.2838 Y10.3998
G01 X76.2663 Y10.3904
G01 X76.2389 Y10.3629
G01 X76.2295 Y10.3457
G01 X76.2218 Y10.3073
G01 X76.2218 Y9.7406
G01 X76.2239 Y9.7211
G01 X76.2389 Y9.6850
G01 X76.2663 Y9.6576
G01 X76.2838 Y9.6482
G01 X76.3219 Y9.6406
G01 X76.7723 Y9.6406
G01 X76.8027 Y9.6454
G01 X76.9351 Y9.7117
G01 X76.9904 Y9.7653
G01 X77.0092 Y9.7912
G01 X77.0613 Y9.8956
G01 X77.0720 Y9.9403
G00 Z2.0000 ( retract )

G00 X76.6895 Y9.4298 ( rapid move to begin. )
G01 F450.0001
( Mill infeed pass 1/1 )
G01 Z-0.1270
G01 F900.0000
G01 X76.6895 Y9.4298
G01 X76.6696 Y9.4577
G01 X76.5510 Y9.5049
G01 X76.4692 Y9.5156
G01 X76.1822 Y9.5164
G01 X76.1807 Y9.5123
G01 X76.1822 Y9.5164
G01 X76.1589 Y9.5273
G01 X76.1477 Y9.5402
G01 X76.1439 Y9.5374
G01 X76.1477 Y9.5402
G01 X76.1086 Y9.6411
G01 X76.0974 Y9.7345
G01 X76.0964 Y10.3073
G01 X76.1304 Y10.4709
G01 X76.1266 Y10.4729
G01 X76.1304 Y10.4709
G01 X76.1413 Y10.4866
G01 X76.1571 Y10.4976
G01 X76.1550 Y10.5014
G01 X76.1571 Y10.4976
G01 X76.3219 Y10.5324
G01 X76.7738 Y10.5324
G01 X76.8309 Y10.5283
G01 X77.0077 Y10.4409
G01 X77.0895 Y10.3602
G01 X77.1218 Y10.3142
G01 X77.1822 Y10.1890
G01 X77.1972 Y10.1463
G01 X77.1964 Y9.9187
G01 X77.2218 Y9.9111
G01 X77.2114 Y9.8600
G01 X77.1342 Y9.7061
G01 X77.1111 Y9.6738
G01 X77.0303 Y9.5938
G01 X77.0087 Y9.5794
G01 X76.8271 Y9.4879
G01 X76.8017 Y9.4595
G01 X76.7933 Y9.4422
G01 X76.7875 Y9.4046
G01 X76.7961 Y9.3675
G01 X76.8055 Y9.3508
G01 X77.2015 Y8.7854
G01 X77.2183 Y8.7414
G01 X77.2145 Y8.7074
G01 X77.1952 Y8.6787
G01 X77.1647 Y8.6624
G01 X77.1301 Y8.6624
G01 X77.0941 Y8.6810
G01 X76.5419 Y9.4625
G01 X76.5099 Y9.4833
G01 X76.4916 Y9.4889
G01 X76.3219 Y9.4907
G01 X76.2838 Y9.4831
G01 X76.2663 Y9.4739
G01 X76.2389 Y9.4463
G01 X76.2239 Y9.4102
G01 X76.2218 Y8.7445
G01 X76.2107 Y8.6990
G01 X76.1878 Y8.6731
G01 X76.1555 Y8.6609
G01 X76.1215 Y8.6650
G01 X76.0931 Y8.6845
G01 X76.0740 Y8.7208
G01 X76.0720 Y8.7384
G01 X76.0720 Y10.4732
G01 X76.0791 Y10.5128
G01 X76.1012 Y10.5407
G01 X76.1350 Y10.5560
G01 X76.8015 Y10.5573
G01 X76.8358 Y10.5527
G01 X77.0169 Y10.4640
G01 X77.0377 Y10.4478
G01 X77.1111 Y10.3744
G01 X77.1342 Y10.3419
G01 X77.2086 Y10.1935
G01 X77.2218 Y10.1430
G01 X77.2218 Y9.9111
G01 X77.1964 Y9.9187
G01 X77.1865 Y9.8697
G01 X77.1111 Y9.7152
G01 X77.0898 Y9.6883
G01 X77.0115 Y9.6098
G01 X76.8726 Y9.5397
G01 X76.7916 Y9.5082
G01 X76.6956 Y9.4615
G01 X76.6895 Y9.4298
G01 X76.7212 Y9.2781
G00 Z2.0000 ( retract )

G00 X73.0921 Y6.4572 ( rapid move to begin. )
G01 F450.0001
( Mill infeed pass 1/1 )
G01 Z-0.1270
G01 F900.0000
G01 X73.0921 Y6.4572
G01 X73.0761 Y6.3551
G01 X72.9836 Y6.3182
G01 X72.5155 Y6.2245
G01 X72.4505 Y6.2182
G01 X72.3936 Y6.2182
G01 X72.3737 Y6.2697
G01 X72.3636 Y6.3497
G01 X72.3641 Y6.4402
G01 X72.3676 Y6.4602
G01 X72.4149 Y6.5573
G01 X72.4393 Y6.5954
G01 X72.5485 Y6.6530
G01 X72.5823 Y6.6655
G01 X72.8548 Y6.6665
G01 X72.8906 Y6.6627
G01 X72.9879 Y6.6152
G01 X73.0227 Y6.5936
G01 X73.0453 Y6.5562
G01 X73.0921 Y6.4572
G01 X73.0634 Y6.4328
G01 X73.0634 Y6.4513
G01 X73.0532 Y6.4864
G01 X73.0227 Y6.5474
G01 X73.0039 Y6.5735
G01 X72.9780 Y6.5923
G01 X72.8861 Y6.6368
G01 X72.8556 Y6.6416
G01 X72.6049 Y6.6416
G01 X72.5744 Y6.6368
G01 X72.4827 Y6.5923
G01 X72.4568 Y6.5735
G01 X72.4380 Y6.5474
G01 X72.3933 Y6.4557
G01 X72.3887 Y6.4252
G01 X72.3887 Y6.3467
G01 X72.3948 Y6.3119
G01 X72.4126 Y6.2817
G01 X72.4253 Y6.2692
G01 X72.4560 Y6.2522
G01 X72.4731 Y6.2479
G01 X72.5084 Y6.2487
G01 X72.9833 Y6.3436
G01 X73.0174 Y6.3571
G01 X73.0440 Y6.3820
G01 X73.0601 Y6.4148
G01 X73.0634 Y6.4328
G01 X73.2219 Y6.4610
G01 X73.2191 Y6.4849
G01 X73.2117 Y6.5047
G01 X73.1230 Y6.6774
G01 X73.0882 Y6.7048
G01 X72.9191 Y6.7869
G01 X72.8848 Y6.7915
G01 X72.5521 Y6.7894
G01 X72.5193 Y6.7782
G01 X72.3522 Y6.6919
G01 X72.3255 Y6.6576
G01 X72.2493 Y6.5054
G01 X72.2386 Y6.4544
G01 X72.2386 Y5.8059
G01 X72.2518 Y5.7559
G01 X72.3377 Y5.5890
G01 X72.3725 Y5.5616
G01 X72.5246 Y5.4854
G01 X72.5759 Y5.4747
G01 X72.8909 Y5.4747
G01 X72.9153 Y5.4778
G01 X73.1065 Y5.5733
G01 X73.1304 Y5.6063
G01 X73.1352 Y5.6406
G01 X73.1238 Y5.6728
G01 X73.0984 Y5.6962
G01 X73.0651 Y5.7051
G01 X73.0192 Y5.6947
G01 X72.9003 Y5.6355
G01 X72.8556 Y5.6248
G01 X72.5896 Y5.6261
G01 X72.5602 Y5.6355
G01 X72.4690 Y5.6825
G01 X72.4568 Y5.6929
G01 X72.4380 Y5.7188
G01 X72.3933 Y5.8108
G01 X72.3887 Y5.8412
G01 X72.3905 Y6.0091
G01 X72.4055 Y6.0452
G01 X72.4179 Y6.0604
G01 X72.4502 Y6.0820
G01 X73.1558 Y6.2250
G01 X73.1860 Y6.2365
G01 X73.2086 Y6.2581
G01 X73.2198 Y6.2880
G01 X73.2219 Y6.4610
G01 X73.1921 Y6.4625
G01 X73.1728 Y6.3106
G01 X73.1601 Y6.2883
G01 X73.1472 Y6.2768
G01 X73.1502 Y6.2730
G01 X73.1472 Y6.2768
G01 X73.0080 Y6.2207
G01 X72.5327 Y6.1255
G01 X72.4530 Y6.1181
G01 X72.3590 Y6.1181
G01 X72.3387 Y6.1227
G01 X72.3362 Y6.1161
G01 X72.3387 Y6.1227
G01 X72.3161 Y6.1425
G01 X72.3138 Y6.1410
G01 X72.3161 Y6.1425
G01 X72.2754 Y6.2451
G01 X72.2635 Y6.3467
G01 X72.2627 Y6.4468
G01 X72.2719 Y6.4902
G01 X72.2866 Y6.5263
G01 X72.3478 Y6.6411
G01 X72.3773 Y6.6746
G01 X72.3743 Y6.6777
G01 X72.3773 Y6.6746
G01 X72.5043 Y6.7427
G01 X72.5655 Y6.7668
G01 X72.8774 Y6.7678
G01 X72.9206 Y6.7584
G01 X73.0341 Y6.7048
G01 X73.0791 Y6.6772
G01 X73.1040 Y6.6525
G01 X73.1065 Y6.6545
G01 X73.1040 Y6.6525
G01 X73.1662 Y6.5390
G01 X73.1858 Y6.4922
G01 X73.1921 Y6.4625
G00 Z2.0000 ( retract )

G00 X74.2439 Y5.8958 ( rapid move to begin. )
G01 F450.0001
( Mill infeed pass 1/1 )
G01 Z-0.1270
G01 F900.0000
G01 X74.2439 Y5.8958
G01 X74.2028 Y5.8781
G01 X74.1657 Y5.8710
G01 X74.1281 Y5.8710
G01 X74.0910 Y5.8781
G01 X74.0499 Y5.8958
G01 X73.9597 Y5.9830
G01 X74.0499 Y5.8958
G01 X74.1469 Y5.6243
G01 X74.1469 Y5.4760
G01 X74.1469 Y5.6243
G01 X74.2439 Y5.8958
G01 X74.3234 Y5.9654
G01 X74.6361 Y6.7031
G01 X74.2201 Y5.5311
G01 X74.1987 Y5.4966
G01 X74.1680 Y5.4785
G01 X74.1436 Y5.4755
G01 X74.1324 Y5.4770
G01 X74.1002 Y5.4920
G01 X74.0847 Y5.5098
G01 X74.0743 Y5.5303
G01 X73.6638 Y6.6799
G01 X73.6590 Y6.7264
G01 X73.6719 Y6.7587
G01 X73.6981 Y6.7810
G01 X73.7316 Y6.7884
G01 X73.7649 Y6.7795
G01 X73.7949 Y6.7521
G01 X74.0527 Y6.0366
G01 X74.0608 Y6.0195
G01 X74.0854 Y5.9914
G01 X74.1190 Y5.9741
G01 X74.1375 Y5.9705
G01 X74.1749 Y5.9741
G01 X74.1924 Y5.9812
G01 X74.2084 Y5.9914
G01 X74.2333 Y6.0195
G01 X74.4888 Y6.7302
G01 X74.5150 Y6.7694
G01 X74.5449 Y6.7861
G01 X74.5795 Y6.7866
G01 X74.6102 Y6.7714
G01 X74.6305 Y6.7434
G01 X74.6361 Y6.7031
G00 Z2.0000 ( retract )

G00 X75.2782 Y6.5499 ( rapid move to begin. )
G01 F450.0001
( Mill infeed pass 1/1 )
G01 Z-0.1270
G01 F900.0000
G01 X75.2782 Y6.5499
G01 X75.2302 Y6.5979
G01 X75.2302 Y6.6393
G01 X75.2302 Y6.5979
G01 X75.1822 Y6.5499
G01 X75.1408 Y6.5499
G01 X75.1822 Y6.5499
G01 X75.2302 Y6.5019
G01 X75.2302 Y6.4605
G01 X75.2302 Y6.5019
G01 X75.2782 Y6.5499
G01 X75.3196 Y6.5499
G01 X75.3875 Y6.5408
G01 X75.3831 Y6.5761
G01 X75.3603 Y6.6093
G01 X75.2676 Y6.6977
G01 X75.2318 Y6.7076
G01 X75.2112 Y6.7051
G01 X75.1741 Y6.6830
