(Processed with ArcBreaker)
( pcb2gcode 2.5.0 )
( Software-independent Gcode )
( This file uses a mill head of 0.12500inch to drill the 2 hole sizes. )
( Hole sizes: [0.1693inch] [0.1575inch] )

G94       (Inches per minute feed rate.)
G21       (Units == MM.)
G91.1     (Incremental arc distance mode.)
G90       (Absolute coordinates.)
S10000    (RPM spindle speed.)

G01 F100.0001 (Feedrate)
G00 Z10.0000 (Retract to tool change height)
T2
M5        (Spindle stop.)
(MSG, Change tool bit to drill size 0.12500inch)
M6        (Tool change.)
M0        (Temporary machine stop.)
M3        (Spindle on clockwise.)
G00 Z2.0000

G0 X8.6322 Y11.0007
G1 Z0.5001 F49.9999
G1 F100.0001
G1 X8.632 Y11.001 Z0.500
G1 X8.630 Y10.951 Z0.493
G1 X8.623 Y10.902 Z0.486
G1 X8.612 Y10.853 Z0.479
G1 X8.597 Y10.806 Z0.472
G1 X8.578 Y10.760 Z0.465
G1 X8.555 Y10.716 Z0.458
G1 X8.528 Y10.674 Z0.451
G1 X8.497 Y10.635 Z0.444
G1 X8.463 Y10.599 Z0.437
G1 X8.426 Y10.565 Z0.430
G1 X8.386 Y10.536 Z0.423
G1 X8.344 Y10.509 Z0.416
G1 X8.299 Y10.487 Z0.409
G1 X8.253 Y10.469 Z0.401
G1 X8.205 Y10.455 Z0.394
G1 X8.156 Y10.445 Z0.387
G1 X8.107 Y10.439 Z0.380
G1 X8.057 Y10.438 Z0.373
G1 X8.007 Y10.442 Z0.366
G1 X7.958 Y10.449 Z0.359
G1 X7.910 Y10.461 Z0.352
G1 X7.863 Y10.477 Z0.345
G1 X7.818 Y10.498 Z0.338
G1 X7.774 Y10.522 Z0.331
G1 X7.733 Y10.550 Z0.324
G1 X7.694 Y10.581 Z0.317
G1 X7.659 Y10.616 Z0.310
G1 X7.626 Y10.654 Z0.303
G1 X7.598 Y10.695 Z0.296
G1 X7.572 Y10.738 Z0.289
G1 X7.551 Y10.783 Z0.282
G1 X7.534 Y10.829 Z0.275
G1 X7.521 Y10.877 Z0.268
G1 X7.512 Y10.926 Z0.261
G1 X7.508 Y10.976 Z0.254
G1 X7.508 Y11.026 Z0.247
G1 X7.512 Y11.075 Z0.239
G1 X7.521 Y11.124 Z0.232
G1 X7.534 Y11.172 Z0.225
G1 X7.551 Y11.219 Z0.218
G1 X7.572 Y11.264 Z0.211
G1 X7.598 Y11.307 Z0.204
G1 X7.626 Y11.347 Z0.197
G1 X7.659 Y11.385 Z0.190
G1 X7.694 Y11.420 Z0.183
G1 X7.733 Y11.451 Z0.176
G1 X7.774 Y11.479 Z0.169
G1 X7.818 Y11.504 Z0.162
G1 X7.863 Y11.524 Z0.155
G1 X7.910 Y11.540 Z0.148
G1 X7.958 Y11.552 Z0.141
G1 X8.007 Y11.560 Z0.134
G1 X8.057 Y11.563 Z0.127
G1 X8.107 Y11.562 Z0.120
G1 X8.156 Y11.557 Z0.113
G1 X8.205 Y11.547 Z0.106
G1 X8.253 Y11.533 Z0.099
G1 X8.299 Y11.514 Z0.092
G1 X8.344 Y11.492 Z0.085
G1 X8.386 Y11.466 Z0.077
G1 X8.426 Y11.436 Z0.070
G1 X8.463 Y11.403 Z0.063
G1 X8.497 Y11.367 Z0.056
G1 X8.528 Y11.327 Z0.049
G1 X8.555 Y11.286 Z0.042
G1 X8.578 Y11.242 Z0.035
G1 X8.597 Y11.196 Z0.028
G1 X8.612 Y11.148 Z0.021
G1 X8.623 Y11.100 Z0.014
G1 X8.630 Y11.050 Z0.007
G1 X8.632 Y11.001 Z0.000
G1 X8.632 Y11.001 Z-0.000
G1 X8.630 Y10.951 Z-0.007
G1 X8.623 Y10.902 Z-0.014
G1 X8.612 Y10.853 Z-0.021
G1 X8.597 Y10.806 Z-0.028
G1 X8.578 Y10.760 Z-0.035
G1 X8.555 Y10.716 Z-0.042
G1 X8.528 Y10.674 Z-0.049
G1 X8.497 Y10.635 Z-0.056
G1 X8.463 Y10.599 Z-0.063
G1 X8.426 Y10.565 Z-0.070
G1 X8.386 Y10.536 Z-0.077
G1 X8.344 Y10.509 Z-0.085
G1 X8.299 Y10.487 Z-0.092
G1 X8.253 Y10.469 Z-0.099
G1 X8.205 Y10.455 Z-0.106
G1 X8.156 Y10.445 Z-0.113
G1 X8.107 Y10.439 Z-0.120
G1 X8.057 Y10.438 Z-0.127
G1 X8.007 Y10.442 Z-0.134
G1 X7.958 Y10.449 Z-0.141
G1 X7.910 Y10.461 Z-0.148
G1 X7.863 Y10.477 Z-0.155
G1 X7.818 Y10.498 Z-0.162
G1 X7.774 Y10.522 Z-0.169
G1 X7.733 Y10.550 Z-0.176
G1 X7.694 Y10.581 Z-0.183
G1 X7.659 Y10.616 Z-0.190
G1 X7.626 Y10.654 Z-0.197
G1 X7.598 Y10.695 Z-0.204
G1 X7.572 Y10.738 Z-0.211
G1 X7.551 Y10.783 Z-0.218
G1 X7.534 Y10.829 Z-0.225
G1 X7.521 Y10.877 Z-0.232
G1 X7.512 Y10.926 Z-0.239
G1 X7.508 Y10.976 Z-0.247
G1 X7.508 Y11.026 Z-0.254
G1 X7.512 Y11.075 Z-0.261
G1 X7.521 Y11.124 Z-0.268
G1 X7.534 Y11.172 Z-0.275
G1 X7.551 Y11.219 Z-0.282
G1 X7.572 Y11.264 Z-0.289
G1 X7.598 Y11.307 Z-0.296
G1 X7.626 Y11.347 Z-0.303
G1 X7.659 Y11.385 Z-0.310
G1 X7.694 Y11.420 Z-0.317
G1 X7.733 Y11.451 Z-0.324
G1 X7.774 Y11.479 Z-0.331
G1 X7.818 Y11.504 Z-0.338
G1 X7.863 Y11.524 Z-0.345
G1 X7.910 Y11.540 Z-0.352
G1 X7.958 Y11.552 Z-0.359
G1 X8.007 Y11.560 Z-0.366
G1 X8.057 Y11.563 Z-0.373
G1 X8.107 Y11.562 Z-0.380
G1 X8.156 Y11.557 Z-0.387
G1 X8.205 Y11.547 Z-0.394
G1 X8.253 Y11.533 Z-0.401
G1 X8.299 Y11.514 Z-0.409
G1 X8.344 Y11.492 Z-0.416
G1 X8.386 Y11.466 Z-0.423
G1 X8.426 Y11.436 Z-0.430
G1 X8.463 Y11.403 Z-0.437
G1 X8.497 Y11.367 Z-0.444
G1 X8.528 Y11.327 Z-0.451
G1 X8.555 Y11.286 Z-0.458
G1 X8.578 Y11.242 Z-0.465
G1 X8.597 Y11.196 Z-0.472
G1 X8.612 Y11.148 Z-0.479
G1 X8.623 Y11.100 Z-0.486
G1 X8.630 Y11.050 Z-0.493
G1 X8.632 Y11.001 Z-0.500
G1 X8.632 Y11.001 Z-0.500
G1 X8.630 Y10.951 Z-0.507
G1 X8.623 Y10.902 Z-0.514
G1 X8.612 Y10.853 Z-0.521
G1 X8.597 Y10.806 Z-0.528
G1 X8.578 Y10.760 Z-0.535
G1 X8.555 Y10.716 Z-0.542
G1 X8.528 Y10.674 Z-0.549
G1 X8.497 Y10.635 Z-0.556
G1 X8.463 Y10.599 Z-0.563
G1 X8.426 Y10.565 Z-0.571
G1 X8.386 Y10.536 Z-0.578
G1 X8.344 Y10.509 Z-0.585
G1 X8.299 Y10.487 Z-0.592
G1 X8.253 Y10.469 Z-0.599
G1 X8.205 Y10.455 Z-0.606
G1 X8.156 Y10.445 Z-0.613
G1 X8.107 Y10.439 Z-0.620
G1 X8.057 Y10.438 Z-0.627
G1 X8.007 Y10.442 Z-0.634
G1 X7.958 Y10.449 Z-0.641
G1 X7.910 Y10.461 Z-0.648
G1 X7.863 Y10.477 Z-0.655
G1 X7.818 Y10.498 Z-0.662
G1 X7.774 Y10.522 Z-0.669
G1 X7.733 Y10.550 Z-0.676
G1 X7.694 Y10.581 Z-0.683
G1 X7.659 Y10.616 Z-0.690
G1 X7.626 Y10.654 Z-0.697
G1 X7.598 Y10.695 Z-0.704
G1 X7.572 Y10.738 Z-0.711
G1 X7.551 Y10.783 Z-0.718
G1 X7.534 Y10.829 Z-0.725
G1 X7.521 Y10.877 Z-0.732
G1 X7.512 Y10.926 Z-0.739
G1 X7.508 Y10.976 Z-0.747
G1 X7.508 Y11.026 Z-0.754
G1 X7.512 Y11.075 Z-0.761
G1 X7.521 Y11.124 Z-0.768
G1 X7.534 Y11.172 Z-0.775
G1 X7.551 Y11.219 Z-0.782
G1 X7.572 Y11.264 Z-0.789
G1 X7.598 Y11.307 Z-0.796
G1 X7.626 Y11.347 Z-0.803
G1 X7.659 Y11.385 Z-0.810
G1 X7.694 Y11.420 Z-0.817
G1 X7.733 Y11.451 Z-0.824
G1 X7.774 Y11.479 Z-0.831
G1 X7.818 Y11.504 Z-0.838
G1 X7.863 Y11.524 Z-0.845
G1 X7.910 Y11.540 Z-0.852
G1 X7.958 Y11.552 Z-0.859
G1 X8.007 Y11.560 Z-0.866
G1 X8.057 Y11.563 Z-0.873
G1 X8.107 Y11.562 Z-0.880
G1 X8.156 Y11.557 Z-0.887
G1 X8.205 Y11.547 Z-0.894
G1 X8.253 Y11.533 Z-0.901
G1 X8.299 Y11.514 Z-0.908
G1 X8.344 Y11.492 Z-0.916
G1 X8.386 Y11.466 Z-0.923
G1 X8.426 Y11.436 Z-0.930
G1 X8.463 Y11.403 Z-0.937
G1 X8.497 Y11.367 Z-0.944
G1 X8.528 Y11.327 Z-0.951
G1 X8.555 Y11.286 Z-0.958
G1 X8.578 Y11.242 Z-0.965
G1 X8.597 Y11.196 Z-0.972
G1 X8.612 Y11.148 Z-0.979
G1 X8.623 Y11.100 Z-0.986
G1 X8.630 Y11.050 Z-0.993
G1 X8.632 Y11.001 Z-1.000
G1 X8.632 Y11.001 Z-1.000
G1 X8.630 Y10.951 Z-1.007
G1 X8.623 Y10.902 Z-1.014
G1 X8.612 Y10.853 Z-1.021
G1 X8.597 Y10.806 Z-1.028
G1 X8.578 Y10.760 Z-1.035
G1 X8.555 Y10.716 Z-1.042
G1 X8.528 Y10.674 Z-1.049
G1 X8.497 Y10.635 Z-1.056
G1 X8.463 Y10.599 Z-1.063
G1 X8.426 Y10.565 Z-1.070
G1 X8.386 Y10.536 Z-1.077
G1 X8.344 Y10.509 Z-1.085
G1 X8.299 Y10.487 Z-1.092
G1 X8.253 Y10.469 Z-1.099
G1 X8.205 Y10.455 Z-1.106
G1 X8.156 Y10.445 Z-1.113
G1 X8.107 Y10.439 Z-1.120
G1 X8.057 Y10.438 Z-1.127
G1 X8.007 Y10.442 Z-1.134
G1 X7.958 Y10.449 Z-1.141
G1 X7.910 Y10.461 Z-1.148
G1 X7.863 Y10.477 Z-1.155
G1 X7.818 Y10.498 Z-1.162
G1 X7.774 Y10.522 Z-1.169
G1 X7.733 Y10.550 Z-1.176
G1 X7.694 Y10.581 Z-1.183
G1 X7.659 Y10.616 Z-1.190
G1 X7.626 Y10.654 Z-1.197
G1 X7.598 Y10.695 Z-1.204
G1 X7.572 Y10.738 Z-1.211
G1 X7.551 Y10.783 Z-1.218
G1 X7.534 Y10.829 Z-1.225
G1 X7.521 Y10.877 Z-1.232
G1 X7.512 Y10.926 Z-1.239
G1 X7.508 Y10.976 Z-1.247
G1 X7.508 Y11.026 Z-1.254
G1 X7.512 Y11.075 Z-1.261
G1 X7.521 Y11.124 Z-1.268
G1 X7.534 Y11.172 Z-1.275
G1 X7.551 Y11.219 Z-1.282
G1 X7.572 Y11.264 Z-1.289
G1 X7.598 Y11.307 Z-1.296
G1 X7.626 Y11.347 Z-1.303
G1 X7.659 Y11.385 Z-1.310
G1 X7.694 Y11.420 Z-1.317
G1 X7.733 Y11.451 Z-1.324
G1 X7.774 Y11.479 Z-1.331
G1 X7.818 Y11.504 Z-1.338
G1 X7.863 Y11.524 Z-1.345
G1 X7.910 Y11.540 Z-1.352
G1 X7.958 Y11.552 Z-1.359
G1 X8.007 Y11.560 Z-1.366
G1 X8.057 Y11.563 Z-1.373
G1 X8.107 Y11.562 Z-1.380
G1 X8.156 Y11.557 Z-1.387
G1 X8.205 Y11.547 Z-1.394
G1 X8.253 Y11.533 Z-1.401
G1 X8.299 Y11.514 Z-1.409
G1 X8.344 Y11.492 Z-1.416
G1 X8.386 Y11.466 Z-1.423
G1 X8.426 Y11.436 Z-1.430
G1 X8.463 Y11.403 Z-1.437
G1 X8.497 Y11.367 Z-1.444
G1 X8.528 Y11.327 Z-1.451
G1 X8.555 Y11.286 Z-1.458
G1 X8.578 Y11.242 Z-1.465
G1 X8.597 Y11.196 Z-1.472
G1 X8.612 Y11.148 Z-1.479
G1 X8.623 Y11.100 Z-1.486
G1 X8.630 Y11.050 Z-1.493
G1 X8.632 Y11.001 Z-1.500
G1 X8.632 Y11.001 Z-1.500
G1 X8.630 Y10.951 Z-1.507
G1 X8.623 Y10.902 Z-1.514
G1 X8.612 Y10.853 Z-1.521
G1 X8.597 Y10.806 Z-1.528
G1 X8.578 Y10.760 Z-1.535
G1 X8.555 Y10.716 Z-1.542
G1 X8.528 Y10.674 Z-1.549
G1 X8.497 Y10.635 Z-1.556
G1 X8.463 Y10.599 Z-1.563
G1 X8.426 Y10.565 Z-1.571
G1 X8.386 Y10.536 Z-1.578
G1 X8.344 Y10.509 Z-1.585
G1 X8.299 Y10.487 Z-1.592
G1 X8.253 Y10.469 Z-1.599
G1 X8.205 Y10.455 Z-1.606
G1 X8.156 Y10.445 Z-1.613
G1 X8.107 Y10.439 Z-1.620
G1 X8.057 Y10.438 Z-1.627
G1 X8.007 Y10.442 Z-1.634
G1 X7.958 Y10.449 Z-1.641
G1 X7.910 Y10.461 Z-1.648
G1 X7.863 Y10.477 Z-1.655
G1 X7.818 Y10.498 Z-1.662
G1 X7.774 Y10.522 Z-1.669
G1 X7.733 Y10.550 Z-1.676
G1 X7.694 Y10.581 Z-1.683
G1 X7.659 Y10.616 Z-1.690
G1 X7.626 Y10.654 Z-1.697
G1 X7.598 Y10.695 Z-1.704
G1 X7.572 Y10.738 Z-1.711
G1 X7.551 Y10.783 Z-1.718
G1 X7.534 Y10.829 Z-1.725
G1 X7.521 Y10.877 Z-1.732
G1 X7.512 Y10.926 Z-1.739
G1 X7.508 Y10.976 Z-1.747
G1 X7.508 Y11.026 Z-1.754
G1 X7.512 Y11.075 Z-1.761
G1 X7.521 Y11.124 Z-1.768
G1 X7.534 Y11.172 Z-1.775
G1 X7.551 Y11.219 Z-1.782
G1 X7.572 Y11.264 Z-1.789
G1 X7.598 Y11.307 Z-1.796
G1 X7.626 Y11.347 Z-1.803
G1 X7.659 Y11.385 Z-1.810
G1 X7.694 Y11.420 Z-1.817
G1 X7.733 Y11.451 Z-1.824
G1 X7.774 Y11.479 Z-1.831
G1 X7.818 Y11.504 Z-1.838
G1 X7.863 Y11.524 Z-1.845
G1 X7.910 Y11.540 Z-1.852
G1 X7.958 Y11.552 Z-1.859
G1 X8.007 Y11.560 Z-1.866
G1 X8.057 Y11.563 Z-1.873
G1 X8.107 Y11.562 Z-1.880
G1 X8.156 Y11.557 Z-1.887
G1 X8.205 Y11.547 Z-1.894
G1 X8.253 Y11.533 Z-1.901
G1 X8.299 Y11.514 Z-1.908
G1 X8.344 Y11.492 Z-1.916
G1 X8.386 Y11.466 Z-1.923
G1 X8.426 Y11.436 Z-1.930
G1 X8.463 Y11.403 Z-1.937
G1 X8.497 Y11.367 Z-1.944
G1 X8.528 Y11.327 Z-1.951
G1 X8.555 Y11.286 Z-1.958
G1 X8.578 Y11.242 Z-1.965
G1 X8.597 Y11.196 Z-1.972
G1 X8.612 Y11.148 Z-1.979
G1 X8.623 Y11.100 Z-1.986
G1 X8.630 Y11.050 Z-1.993
G1 X8.632 Y11.001 Z-2.000
G1 X8.632 Y11.001 Z-2.000
G1 X8.630 Y10.951 Z-2.000
G1 X8.623 Y10.902 Z-2.000
G1 X8.612 Y10.853 Z-2.000
G1 X8.597 Y10.806 Z-2.000
G1 X8.578 Y10.760 Z-2.000
G1 X8.555 Y10.716 Z-2.000
G1 X8.528 Y10.674 Z-2.000
G1 X8.497 Y10.635 Z-2.000
G1 X8.463 Y10.599 Z-2.000
G1 X8.426 Y10.565 Z-2.000
G1 X8.386 Y10.536 Z-2.000
G1 X8.344 Y10.509 Z-2.000
G1 X8.299 Y10.487 Z-2.000
G1 X8.253 Y10.469 Z-2.000
G1 X8.205 Y10.455 Z-2.000
G1 X8.156 Y10.445 Z-2.000
G1 X8.107 Y10.439 Z-2.000
G1 X8.057 Y10.438 Z-2.000
G1 X8.007 Y10.442 Z-2.000
G1 X7.958 Y10.449 Z-2.000
G1 X7.910 Y10.461 Z-2.000
G1 X7.863 Y10.477 Z-2.000
G1 X7.818 Y10.498 Z-2.000
G1 X7.774 Y10.522 Z-2.000
G1 X7.733 Y10.550 Z-2.000
G1 X7.694 Y10.581 Z-2.000
G1 X7.659 Y10.616 Z-2.000
G1 X7.626 Y10.654 Z-2.000
G1 X7.598 Y10.695 Z-2.000
G1 X7.572 Y10.738 Z-2.000
G1 X7.551 Y10.783 Z-2.000
G1 X7.534 Y10.829 Z-2.000
G1 X7.521 Y10.877 Z-2.000
G1 X7.512 Y10.926 Z-2.000
G1 X7.508 Y10.976 Z-2.000
G1 X7.508 Y11.026 Z-2.000
G1 X7.512 Y11.075 Z-2.000
G1 X7.521 Y11.124 Z-2.000
G1 X7.534 Y11.172 Z-2.000
G1 X7.551 Y11.219 Z-2.000
G1 X7.572 Y11.264 Z-2.000
G1 X7.598 Y11.307 Z-2.000
G1 X7.626 Y11.347 Z-2.000
G1 X7.659 Y11.385 Z-2.000
G1 X7.694 Y11.420 Z-2.000
G1 X7.733 Y11.451 Z-2.000
G1 X7.774 Y11.479 Z-2.000
G1 X7.818 Y11.504 Z-2.000
G1 X7.863 Y11.524 Z-2.000
G1 X7.910 Y11.540 Z-2.000
G1 X7.958 Y11.552 Z-2.000
G1 X8.007 Y11.560 Z-2.000
G1 X8.057 Y11.563 Z-2.000
G1 X8.107 Y11.562 Z-2.000
G1 X8.156 Y11.557 Z-2.000
G1 X8.205 Y11.547 Z-2.000
G1 X8.253 Y11.533 Z-2.000
G1 X8.299 Y11.514 Z-2.000
G1 X8.344 Y11.492 Z-2.000
G1 X8.386 Y11.466 Z-2.000
G1 X8.426 Y11.436 Z-2.000
G1 X8.463 Y11.403 Z-2.000
G1 X8.497 Y11.367 Z-2.000
G1 X8.528 Y11.327 Z-2.000
G1 X8.555 Y11.286 Z-2.000
G1 X8.578 Y11.242 Z-2.000
G1 X8.597 Y11.196 Z-2.000
G1 X8.612 Y11.148 Z-2.000
G1 X8.623 Y11.100 Z-2.000
G1 X8.630 Y11.050 Z-2.000
G1 X8.632 Y11.001 Z-2.000
G1 Z2.0000 F49.9999

G0 X49.1325 Y11.0007
G1 Z0.5001 F49.9999
G1 F100.0001
G1 X49.133 Y11.001 Z0.500
G1 X49.130 Y10.951 Z0.493
G1 X49.124 Y10.902 Z0.486
G1 X49.113 Y10.853 Z0.479
G1 X49.098 Y10.806 Z0.472
G1 X49.078 Y10.760 Z0.465
G1 X49.055 Y10.716 Z0.458
G1 X49.028 Y10.674 Z0.451
G1 X48.997 Y10.635 Z0.444
G1 X48.963 Y10.599 Z0.437
G1 X48.926 Y10.565 Z0.430
G1 X48.886 Y10.536 Z0.423
G1 X48.844 Y10.509 Z0.416
G1 X48.799 Y10.487 Z0.409
G1 X48.753 Y10.469 Z0.401
G1 X48.705 Y10.455 Z0.394
G1 X48.657 Y10.445 Z0.387
G1 X48.607 Y10.439 Z0.380
G1 X48.557 Y10.438 Z0.373
G1 X48.508 Y10.442 Z0.366
G1 X48.459 Y10.449 Z0.359
G1 X48.410 Y10.461 Z0.352
G1 X48.363 Y10.477 Z0.345
G1 X48.318 Y10.498 Z0.338
G1 X48.274 Y10.522 Z0.331
G1 X48.233 Y10.550 Z0.324
G1 X48.195 Y10.581 Z0.317
G1 X48.159 Y10.616 Z0.310
G1 X48.127 Y10.654 Z0.303
G1 X48.098 Y10.695 Z0.296
G1 X48.073 Y10.738 Z0.289
G1 X48.051 Y10.783 Z0.282
G1 X48.034 Y10.829 Z0.275
G1 X48.021 Y10.877 Z0.268
G1 X48.012 Y10.926 Z0.261
G1 X48.008 Y10.976 Z0.254
G1 X48.008 Y11.026 Z0.247
G1 X48.012 Y11.075 Z0.239
G1 X48.021 Y11.124 Z0.232
G1 X48.034 Y11.172 Z0.225
G1 X48.051 Y11.219 Z0.218
G1 X48.073 Y11.264 Z0.211
G1 X48.098 Y11.307 Z0.204
G1 X48.127 Y11.347 Z0.197
G1 X48.159 Y11.385 Z0.190
G1 X48.195 Y11.420 Z0.183
G1 X48.233 Y11.451 Z0.176
G1 X48.274 Y11.479 Z0.169
G1 X48.318 Y11.504 Z0.162
G1 X48.363 Y11.524 Z0.155
G1 X48.410 Y11.540 Z0.148
G1 X48.459 Y11.552 Z0.141
G1 X48.508 Y11.560 Z0.134
G1 X48.557 Y11.563 Z0.127
G1 X48.607 Y11.562 Z0.120
G1 X48.657 Y11.557 Z0.113
G1 X48.705 Y11.547 Z0.106
G1 X48.753 Y11.533 Z0.099
G1 X48.799 Y11.514 Z0.092
G1 X48.844 Y11.492 Z0.085
G1 X48.886 Y11.466 Z0.077
G1 X48.926 Y11.436 Z0.070
G1 X48.963 Y11.403 Z0.063
G1 X48.997 Y11.367 Z0.056
G1 X49.028 Y11.327 Z0.049
G1 X49.055 Y11.286 Z0.042
G1 X49.078 Y11.242 Z0.035
G1 X49.098 Y11.196 Z0.028
G1 X49.113 Y11.148 Z0.021
G1 X49.124 Y11.100 Z0.014
G1 X49.130 Y11.050 Z0.007
G1 X49.133 Y11.001 Z0.000
G1 X49.133 Y11.001 Z-0.000
G1 X49.130 Y10.951 Z-0.007
G1 X49.124 Y10.902 Z-0.014
G1 X49.113 Y10.853 Z-0.021
G1 X49.098 Y10.806 Z-0.028
G1 X49.078 Y10.760 Z-0.035
G1 X49.055 Y10.716 Z-0.042
G1 X49.028 Y10.674 Z-0.049
G1 X48.997 Y10.635 Z-0.056
G1 X48.963 Y10.599 Z-0.063
G1 X48.926 Y10.565 Z-0.070
G1 X48.886 Y10.536 Z-0.077
G1 X48.844 Y10.509 Z-0.085
G1 X48.799 Y10.487 Z-0.092
G1 X48.753 Y10.469 Z-0.099
G1 X48.705 Y10.455 Z-0.106
G1 X48.657 Y10.445 Z-0.113
G1 X48.607 Y10.439 Z-0.120
G1 X48.557 Y10.438 Z-0.127
G1 X48.508 Y10.442 Z-0.134
G1 X48.459 Y10.449 Z-0.141
G1 X48.410 Y10.461 Z-0.148
G1 X48.363 Y10.477 Z-0.155
G1 X48.318 Y10.498 Z-0.162
G1 X48.274 Y10.522 Z-0.169
G1 X48.233 Y10.550 Z-0.176
G1 X48.195 Y10.581 Z-0.183
G1 X48.159 Y10.616 Z-0.190
G1 X48.127 Y10.654 Z-0.197
G1 X48.098 Y10.695 Z-0.204
G1 X48.073 Y10.738 Z-0.211
G1 X48.051 Y10.783 Z-0.218
G1 X48.034 Y10.829 Z-0.225
G1 X48.021 Y10.877 Z-0.232
G1 X48.012 Y10.926 Z-0.239
G1 X48.008 Y10.976 Z-0.247
G1 X48.008 Y11.026 Z-0.254
G1 X48.012 Y11.075 Z-0.261
G1 X48.021 Y11.124 Z-0.268
G1 X48.034 Y11.172 Z-0.275
G1 X48.051 Y11.219 Z-0.282
G1 X48.073 Y11.264 Z-0.289
G1 X48.098 Y11.307 Z-0.296
G1 X48.127 Y11.347 Z-0.303
G1 X48.159 Y11.385 Z-0.310
G1 X48.195 Y11.420 Z-0.317
G1 X48.233 Y11.451 Z-0.324
G1 X48.274 Y11.479 Z-0.331
G1 X48.318 Y11.504 Z-0.338
G1 X48.363 Y11.524 Z-0.345
G1 X48.410 Y11.540 Z-0.352
G1 X48.459 Y11.552 Z-0.359
G1 X48.508 Y11.560 Z-0.366
G1 X48.557 Y11.563 Z-0.373
G1 X48.607 Y11.562 Z-0.380
G1 X48.657 Y11.557 Z-0.387
G1 X48.705 Y11.547 Z-0.394
G1 X48.753 Y11.533 Z-0.401
G1 X48.799 Y11.514 Z-0.409
G1 X48.844 Y11.492 Z-0.416
G1 X48.886 Y11.466 Z-0.423
G1 X48.926 Y11.436 Z-0.430
G1 X48.963 Y11.403 Z-0.437
G1 X48.997 Y11.367 Z-0.444
G1 X49.028 Y11.327 Z-0.451
G1 X49.055 Y11.286 Z-0.458
G1 X49.078 Y11.242 Z-0.465
G1 X49.098 Y11.196 Z-0.472
G1 X49.113 Y11.148 Z-0.479
G1 X49.124 Y11.100 Z-0.486
G1 X49.130 Y11.050 Z-0.493
G1 X49.133 Y11.001 Z-0.500
G1 X49.133 Y11.001 Z-0.500
G1 X49.130 Y10.951 Z-0.507
G1 X49.124 Y10.902 Z-0.514
G1 X49.113 Y10.853 Z-0.521
G1 X49.098 Y10.806 Z-0.528
G1 X49.078 Y10.760 Z-0.535
G1 X49.055 Y10.716 Z-0.542
G1 X49.028 Y10.674 Z-0.549
G1 X48.997 Y10.635 Z-0.556
G1 X48.963 Y10.599 Z-0.563
G1 X48.926 Y10.565 Z-0.571
G1 X48.886 Y10.536 Z-0.578
G1 X48.844 Y10.509 Z-0.585
G1 X48.799 Y10.487 Z-0.592
G1 X48.753 Y10.469 Z-0.599
G1 X48.705 Y10.455 Z-0.606
G1 X48.657 Y10.445 Z-0.613
G1 X48.607 Y10.439 Z-0.620
G1 X48.557 Y10.438 Z-0.627
G1 X48.508 Y10.442 Z-0.634
G1 X48.459 Y10.449 Z-0.641
G1 X48.410 Y10.461 Z-0.648
G1 X48.363 Y10.477 Z-0.655
G1 X48.318 Y10.498 Z-0.662
G1 X48.274 Y10.522 Z-0.669
G1 X48.233 Y10.550 Z-0.676
G1 X48.195 Y10.581 Z-0.683
G1 X48.159 Y10.616 Z-0.690
G1 X48.127 Y10.654 Z-0.697
G1 X48.098 Y10.695 Z-0.704
G1 X48.073 Y10.738 Z-0.711
G1 X48.051 Y10.783 Z-0.718
G1 X48.034 Y10.829 Z-0.725
G1 X48.021 Y10.877 Z-0.732
G1 X48.012 Y10.926 Z-0.739
G1 X48.008 Y10.976 Z-0.747
G1 X48.008 Y11.026 Z-0.754
G1 X48.012 Y11.075 Z-0.761
G1 X48.021 Y11.124 Z-0.768
G1 X48.034 Y11.172 Z-0.775
G1 X48.051 Y11.219 Z-0.782
G1 X48.073 Y11.264 Z-0.789
G1 X48.098 Y11.307 Z-0.796
G1 X48.127 Y11.347 Z-0.803
G1 X48.159 Y11.385 Z-0.810
G1 X48.195 Y11.420 Z-0.817
G1 X48.233 Y11.451 Z-0.824
G1 X48.274 Y11.479 Z-0.831
G1 X48.318 Y11.504 Z-0.838
G1 X48.363 Y11.524 Z-0.845
G1 X48.410 Y11.540 Z-0.852
G1 X48.459 Y11.552 Z-0.859
G1 X48.508 Y11.560 Z-0.866
G1 X48.557 Y11.563 Z-0.873
G1 X48.607 Y11.562 Z-0.880
G1 X48.657 Y11.557 Z-0.887
G1 X48.705 Y11.547 Z-0.894
G1 X48.753 Y11.533 Z-0.901
G1 X48.799 Y11.514 Z-0.908
G1 X48.844 Y11.492 Z-0.916
G1 X48.886 Y11.466 Z-0.923
G1 X48.926 Y11.436 Z-0.930
G1 X48.963 Y11.403 Z-0.937
G1 X48.997 Y11.367 Z-0.944
G1 X49.028 Y11.327 Z-0.951
G1 X49.055 Y11.286 Z-0.958
G1 X49.078 Y11.242 Z-0.965
G1 X49.098 Y11.196 Z-0.972
G1 X49.113 Y11.148 Z-0.979
G1 X49.124 Y11.100 Z-0.986
G1 X49.130 Y11.050 Z-0.993
G1 X49.133 Y11.001 Z-1.000
G1 X49.133 Y11.001 Z-1.000
G1 X49.130 Y10.951 Z-1.007
G1 X49.124 Y10.902 Z-1.014
G1 X49.113 Y10.853 Z-1.021
G1 X49.098 Y10.806 Z-1.028
G1 X49.078 Y10.760 Z-1.035
G1 X49.055 Y10.716 Z-1.042
G1 X49.028 Y10.674 Z-1.049
G1 X48.997 Y10.635 Z-1.056
G1 X48.963 Y10.599 Z-1.063
G1 X48.926 Y10.565 Z-1.070
G1 X48.886 Y10.536 Z-1.077
G1 X48.844 Y10.509 Z-1.085
G1 X48.799 Y10.487 Z-1.092
G1 X48.753 Y10.469 Z-1.099
G1 X48.705 Y10.455 Z-1.106
G1 X48.657 Y10.445 Z-1.113
G1 X48.607 Y10.439 Z-1.120
G1 X48.557 Y10.438 Z-1.127
G1 X48.508 Y10.442 Z-1.134
G1 X48.459 Y10.449 Z-1.141
G1 X48.410 Y10.461 Z-1.148
G1 X48.363 Y10.477 Z-1.155
G1 X48.318 Y10.498 Z-1.162
G1 X48.274 Y10.522 Z-1.169
G1 X48.233 Y10.550 Z-1.176
G1 X48.195 Y10.581 Z-1.183
G1 X48.159 Y10.616 Z-1.190
G1 X48.127 Y10.654 Z-1.197
G1 X48.098 Y10.695 Z-1.204
G1 X48.073 Y10.738 Z-1.211
G1 X48.051 Y10.783 Z-1.218
G1 X48.034 Y10.829 Z-1.225
G1 X48.021 Y10.877 Z-1.232
G1 X48.012 Y10.926 Z-1.239
G1 X48.008 Y10.976 Z-1.247
G1 X48.008 Y11.026 Z-1.254
G1 X48.012 Y11.075 Z-1.261
G1 X48.021 Y11.124 Z-1.268
G1 X48.034 Y11.172 Z-1.275
G1 X48.051 Y11.219 Z-1.282
G1 X48.073 Y11.264 Z-1.289
G1 X48.098 Y11.307 Z-1.296
G1 X48.127 Y11.347 Z-1.303
G1 X48.159 Y11.385 Z-1.310
G1 X48.195 Y11.420 Z-1.317
G1 X48.233 Y11.451 Z-1.324
G1 X48.274 Y11.479 Z-1.331
G1 X48.318 Y11.504 Z-1.338
G1 X48.363 Y11.524 Z-1.345
G1 X48.410 Y11.540 Z-1.352
G1 X48.459 Y11.552 Z-1.359
G1 X48.508 Y11.560 Z-1.366
G1 X48.557 Y11.563 Z-1.373
G1 X48.607 Y11.562 Z-1.380
G1 X48.657 Y11.557 Z-1.387
G1 X48.705 Y11.547 Z-1.394
G1 X48.753 Y11.533 Z-1.401
G1 X48.799 Y11.514 Z-1.409
G1 X48.844 Y11.492 Z-1.416
G1 X48.886 Y11.466 Z-1.423
G1 X48.926 Y11.436 Z-1.430
G1 X48.963 Y11.403 Z-1.437
G1 X48.997 Y11.367 Z-1.444
G1 X49.028 Y11.327 Z-1.451
G1 X49.055 Y11.286 Z-1.458
G1 X49.078 Y11.242 Z-1.465
G1 X49.098 Y11.196 Z-1.472
G1 X49.113 Y11.148 Z-1.479
G1 X49.124 Y11.100 Z-1.486
G1 X49.130 Y11.050 Z-1.493
G1 X49.133 Y11.001 Z-1.500
G1 X49.133 Y11.001 Z-1.500
G1 X49.130 Y10.951 Z-1.507
G1 X49.124 Y10.902 Z-1.514
G1 X49.113 Y10.853 Z-1.521
G1 X49.098 Y10.806 Z-1.528
G1 X49.078 Y10.760 Z-1.535
G1 X49.055 Y10.716 Z-1.542
G1 X49.028 Y10.674 Z-1.549
G1 X48.997 Y10.635 Z-1.556
G1 X48.963 Y10.599 Z-1.563
G1 X48.926 Y10.565 Z-1.571
G1 X48.886 Y10.536 Z-1.578
G1 X48.844 Y10.509 Z-1.585
G1 X48.799 Y10.487 Z-1.592
G1 X48.753 Y10.469 Z-1.599
G1 X48.705 Y10.455 Z-1.606
G1 X48.657 Y10.445 Z-1.613
G1 X48.607 Y10.439 Z-1.620
G1 X48.557 Y10.438 Z-1.627
G1 X48.508 Y10.442 Z-1.634
G1 X48.459 Y10.449 Z-1.641
G1 X48.410 Y10.461 Z-1.648
G1 X48.363 Y10.477 Z-1.655
G1 X48.318 Y10.498 Z-1.662
G1 X48.274 Y10.522 Z-1.669
G1 X48.233 Y10.550 Z-1.676
G1 X48.195 Y10.581 Z-1.683
G1 X48.159 Y10.616 Z-1.690
G1 X48.127 Y10.654 Z-1.697
G1 X48.098 Y10.695 Z-1.704
G1 X48.073 Y10.738 Z-1.711
G1 X48.051 Y10.783 Z-1.718
G1 X48.034 Y10.829 Z-1.725
G1 X48.021 Y10.877 Z-1.732
G1 X48.012 Y10.926 Z-1.739
G1 X48.008 Y10.976 Z-1.747
G1 X48.008 Y11.026 Z-1.754
G1 X48.012 Y11.075 Z-1.761
G1 X48.021 Y11.124 Z-1.768
G1 X48.034 Y11.172 Z-1.775
G1 X48.051 Y11.219 Z-1.782
G1 X48.073 Y11.264 Z-1.789
G1 X48.098 Y11.307 Z-1.796
G1 X48.127 Y11.347 Z-1.803
G1 X48.159 Y11.385 Z-1.810
G1 X48.195 Y11.420 Z-1.817
G1 X48.233 Y11.451 Z-1.824
G1 X48.274 Y11.479 Z-1.831
G1 X48.318 Y11.504 Z-1.838
G1 X48.363 Y11.524 Z-1.845
G1 X48.410 Y11.540 Z-1.852
G1 X48.459 Y11.552 Z-1.859
G1 X48.508 Y11.560 Z-1.866
G1 X48.557 Y11.563 Z-1.873
G1 X48.607 Y11.562 Z-1.880
G1 X48.657 Y11.557 Z-1.887
G1 X48.705 Y11.547 Z-1.894
G1 X48.753 Y11.533 Z-1.901
G1 X48.799 Y11.514 Z-1.908
G1 X48.844 Y11.492 Z-1.916
G1 X48.886 Y11.466 Z-1.923
G1 X48.926 Y11.436 Z-1.930
G1 X48.963 Y11.403 Z-1.937
G1 X48.997 Y11.367 Z-1.944
G1 X49.028 Y11.327 Z-1.951
G1 X49.055 Y11.286 Z-1.958
G1 X49.078 Y11.242 Z-1.965
G1 X49.098 Y11.196 Z-1.972
G1 X49.113 Y11.148 Z-1.979
G1 X49.124 Y11.100 Z-1.986
G1 X49.130 Y11.050 Z-1.993
G1 X49.133 Y11.001 Z-2.000
G1 X49.133 Y11.001 Z-2.000
G1 X49.130 Y10.951 Z-2.000
G1 X49.124 Y10.902 Z-2.000
G1 X49.113 Y10.853 Z-2.000
G1 X49.098 Y10.806 Z-2.000
G1 X49.078 Y10.760 Z-2.000
G1 X49.055 Y10.716 Z-2.000
G1 X49.028 Y10.674 Z-2.000
G1 X48.997 Y10.635 Z-2.000
G1 X48.963 Y10.599 Z-2.000
G1 X48.926 Y10.565 Z-2.000
G1 X48.886 Y10.536 Z-2.000
G1 X48.844 Y10.509 Z-2.000
G1 X48.799 Y10.487 Z-2.000
G1 X48.753 Y10.469 Z-2.000
G1 X48.705 Y10.455 Z-2.000
G1 X48.657 Y10.445 Z-2.000
G1 X48.607 Y10.439 Z-2.000
G1 X48.557 Y10.438 Z-2.000
G1 X48.508 Y10.442 Z-2.000
G1 X48.459 Y10.449 Z-2.000
G1 X48.410 Y10.461 Z-2.000
G1 X48.363 Y10.477 Z-2.000
G1 X48.318 Y10.498 Z-2.000
G1 X48.274 Y10.522 Z-2.000
G1 X48.233 Y10.550 Z-2.000
G1 X48.195 Y10.581 Z-2.000
G1 X48.159 Y10.616 Z-2.000
G1 X48.127 Y10.654 Z-2.000
G1 X48.098 Y10.695 Z-2.000
G1 X48.073 Y10.738 Z-2.000
G1 X48.051 Y10.783 Z-2.000
G1 X48.034 Y10.829 Z-2.000
G1 X48.021 Y10.877 Z-2.000
G1 X48.012 Y10.926 Z-2.000
G1 X48.008 Y10.976 Z-2.000
G1 X48.008 Y11.026 Z-2.000
G1 X48.012 Y11.075 Z-2.000
G1 X48.021 Y11.124 Z-2.000
G1 X48.034 Y11.172 Z-2.000
G1 X48.051 Y11.219 Z-2.000
G1 X48.073 Y11.264 Z-2.000
G1 X48.098 Y11.307 Z-2.000
G1 X48.127 Y11.347 Z-2.000
G1 X48.159 Y11.385 Z-2.000
G1 X48.195 Y11.420 Z-2.000
G1 X48.233 Y11.451 Z-2.000
G1 X48.274 Y11.479 Z-2.000
G1 X48.318 Y11.504 Z-2.000
G1 X48.363 Y11.524 Z-2.000
G1 X48.410 Y11.540 Z-2.000
G1 X48.459 Y11.552 Z-2.000
G1 X48.508 Y11.560 Z-2.000
G1 X48.557 Y11.563 Z-2.000
G1 X48.607 Y11.562 Z-2.000
G1 X48.657 Y11.557 Z-2.000
G1 X48.705 Y11.547 Z-2.000
G1 X48.753 Y11.533 Z-2.000
G1 X48.799 Y11.514 Z-2.000
G1 X48.844 Y11.492 Z-2.000
G1 X48.886 Y11.466 Z-2.000
G1 X48.926 Y11.436 Z-2.000
G1 X48.963 Y11.403 Z-2.000
G1 X48.997 Y11.367 Z-2.000
G1 X49.028 Y11.327 Z-2.000
G1 X49.055 Y11.286 Z-2.000
G1 X49.078 Y11.242 Z-2.000
G1 X49.098 Y11.196 Z-2.000
G1 X49.113 Y11.148 Z-2.000
G1 X49.124 Y11.100 Z-2.000
G1 X49.130 Y11.050 Z-2.000
G1 X49.133 Y11.001 Z-2.000
G1 Z2.0000 F49.9999

G0 X109.6328 Y11.0007
G1 Z0.5001 F49.9999
G1 F100.0001
G1 X109.633 Y11.001 Z0.500
G1 X109.631 Y10.951 Z0.493
G1 X109.624 Y10.902 Z0.486
G1 X109.613 Y10.853 Z0.479
G1 X109.598 Y10.806 Z0.472
G1 X109.579 Y10.760 Z0.465
G1 X109.555 Y10.716 Z0.458
G1 X109.528 Y10.674 Z0.451
G1 X109.498 Y10.635 Z0.444
G1 X109.464 Y10.599 Z0.437
G1 X109.427 Y10.565 Z0.430
G1 X109.387 Y10.536 Z0.423
G1 X109.344 Y10.509 Z0.416
G1 X109.300 Y10.487 Z0.409
G1 X109.253 Y10.469 Z0.401
G1 X109.206 Y10.455 Z0.394
G1 X109.157 Y10.445 Z0.387
G1 X109.108 Y10.439 Z0.380
G1 X109.058 Y10.438 Z0.373
G1 X109.008 Y10.442 Z0.366
G1 X108.959 Y10.449 Z0.359
G1 X108.911 Y10.461 Z0.352
G1 X108.864 Y10.477 Z0.345
G1 X108.818 Y10.498 Z0.338
G1 X108.775 Y10.522 Z0.331
G1 X108.733 Y10.550 Z0.324
G1 X108.695 Y10.581 Z0.317
G1 X108.659 Y10.616 Z0.310
G1 X108.627 Y10.654 Z0.303
G1 X108.598 Y10.695 Z0.296
G1 X108.573 Y10.738 Z0.289
G1 X108.552 Y10.783 Z0.282
G1 X108.534 Y10.829 Z0.275
G1 X108.521 Y10.877 Z0.268
G1 X108.513 Y10.926 Z0.261
G1 X108.508 Y10.976 Z0.254
G1 X108.508 Y11.026 Z0.247
G1 X108.513 Y11.075 Z0.239
G1 X108.521 Y11.124 Z0.232
G1 X108.534 Y11.172 Z0.225
G1 X108.552 Y11.219 Z0.218
G1 X108.573 Y11.264 Z0.211
G1 X108.598 Y11.307 Z0.204
G1 X108.627 Y11.347 Z0.197
G1 X108.659 Y11.385 Z0.190
G1 X108.695 Y11.420 Z0.183
G1 X108.733 Y11.451 Z0.176
G1 X108.775 Y11.479 Z0.169
G1 X108.818 Y11.504 Z0.162
G1 X108.864 Y11.524 Z0.155
G1 X108.911 Y11.540 Z0.148
G1 X108.959 Y11.552 Z0.141
G1 X109.008 Y11.560 Z0.134
G1 X109.058 Y11.563 Z0.127
G1 X109.108 Y11.562 Z0.120
G1 X109.157 Y11.557 Z0.113
G1 X109.206 Y11.547 Z0.106
G1 X109.253 Y11.533 Z0.099
G1 X109.300 Y11.514 Z0.092
G1 X109.344 Y11.492 Z0.085
G1 X109.387 Y11.466 Z0.077
G1 X109.427 Y11.436 Z0.070
G1 X109.464 Y11.403 Z0.063
G1 X109.498 Y11.367 Z0.056
G1 X109.528 Y11.327 Z0.049
G1 X109.555 Y11.286 Z0.042
G1 X109.579 Y11.242 Z0.035
G1 X109.598 Y11.196 Z0.028
G1 X109.613 Y11.148 Z0.021
G1 X109.624 Y11.100 Z0.014
G1 X109.631 Y11.050 Z0.007
G1 X109.633 Y11.001 Z0.000
G1 X109.633 Y11.001 Z-0.000
G1 X109.631 Y10.951 Z-0.007
G1 X109.624 Y10.902 Z-0.014
G1 X109.613 Y10.853 Z-0.021
G1 X109.598 Y10.806 Z-0.028
G1 X109.579 Y10.760 Z-0.035
G1 X109.555 Y10.716 Z-0.042
G1 X109.528 Y10.674 Z-0.049
G1 X109.498 Y10.635 Z-0.056
G1 X109.464 Y10.599 Z-0.063
G1 X109.427 Y10.565 Z-0.070
G1 X109.387 Y10.536 Z-0.077
G1 X109.344 Y10.509 Z-0.085
G1 X109.300 Y10.487 Z-0.092
G1 X109.253 Y10.469 Z-0.099
G1 X109.206 Y10.455 Z-0.106
G1 X109.157 Y10.445 Z-0.113
G1 X109.108 Y10.439 Z-0.120
G1 X109.058 Y10.438 Z-0.127
G1 X109.008 Y10.442 Z-0.134
G1 X108.959 Y10.449 Z-0.141
G1 X108.911 Y10.461 Z-0.148
G1 X108.864 Y10.477 Z-0.155
G1 X108.818 Y10.498 Z-0.162
G1 X108.775 Y10.522 Z-0.169
G1 X108.733 Y10.550 Z-0.176
G1 X108.695 Y10.581 Z-0.183
G1 X108.659 Y10.616 Z-0.190
G1 X108.627 Y10.654 Z-0.197
G1 X108.598 Y10.695 Z-0.204
G1 X108.573 Y10.738 Z-0.211
G1 X108.552 Y10.783 Z-0.218
G1 X108.534 Y10.829 Z-0.225
G1 X108.521 Y10.877 Z-0.232
G1 X108.513 Y10.926 Z-0.239
G1 X108.508 Y10.976 Z-0.247
G1 X108.508 Y11.026 Z-0.254
G1 X108.513 Y11.075 Z-0.261
G1 X108.521 Y11.124 Z-0.268
G1 X108.534 Y11.172 Z-0.275
G1 X108.552 Y11.219 Z-0.282
G1 X108.573 Y11.264 Z-0.289
G1 X108.598 Y11.307 Z-0.296
G1 X108.627 Y11.347 Z-0.303
G1 X108.659 Y11.385 Z-0.310
G1 X108.695 Y11.420 Z-0.317
G1 X108.733 Y11.451 Z-0.324
G1 X108.775 Y11.479 Z-0.331
G1 X108.818 Y11.504 Z-0.338
G1 X108.864 Y11.524 Z-0.345
G1 X108.911 Y11.540 Z-0.352
G1 X108.959 Y11.552 Z-0.359
G1 X109.008 Y11.560 Z-0.366
G1 X109.058 Y11.563 Z-0.373
G1 X109.108 Y11.562 Z-0.380
G1 X109.157 Y11.557 Z-0.387
G1 X109.206 Y11.547 Z-0.394
G1 X109.253 Y11.533 Z-0.401
G1 X109.300 Y11.514 Z-0.409
G1 X109.344 Y11.492 Z-0.416
G1 X109.387 Y11.466 Z-0.423
G1 X109.427 Y11.436 Z-0.430
G1 X109.464 Y11.403 Z-0.437
G1 X109.498 Y11.367 Z-0.444
G1 X109.528 Y11.327 Z-0.451
G1 X109.555 Y11.286 Z-0.458
G1 X109.579 Y11.242 Z-0.465
G1 X109.598 Y11.196 Z-0.472
G1 X109.613 Y11.148 Z-0.479
G1 X109.624 Y11.100 Z-0.486
G1 X109.631 Y11.050 Z-0.493
G1 X109.633 Y11.001 Z-0.500
G1 X109.633 Y11.001 Z-0.500
G1 X109.631 Y10.951 Z-0.507
G1 X109.624 Y10.902 Z-0.514
G1 X109.613 Y10.853 Z-0.521
G1 X109.598 Y10.806 Z-0.528
G1 X109.579 Y10.760 Z-0.535
G1 X109.555 Y10.716 Z-0.542
G1 X109.528 Y10.674 Z-0.549
G1 X109.498 Y10.635 Z-0.556
G1 X109.464 Y10.599 Z-0.563
G1 X109.427 Y10.565 Z-0.571
G1 X109.387 Y10.536 Z-0.578
G1 X109.344 Y10.509 Z-0.585
G1 X109.300 Y10.487 Z-0.592
G1 X109.253 Y10.469 Z-0.599
G1 X109.206 Y10.455 Z-0.606
G1 X109.157 Y10.445 Z-0.613
G1 X109.108 Y10.439 Z-0.620
G1 X109.058 Y10.438 Z-0.627
G1 X109.008 Y10.442 Z-0.634
G1 X108.959 Y10.449 Z-0.641
G1 X108.911 Y10.461 Z-0.648
G1 X108.864 Y10.477 Z-0.655
G1 X108.818 Y10.498 Z-0.662
G1 X108.775 Y10.522 Z-0.669
G1 X108.733 Y10.550 Z-0.676
G1 X108.695 Y10.581 Z-0.683
G1 X108.659 Y10.616 Z-0.690
G1 X108.627 Y10.654 Z-0.697
G1 X108.598 Y10.695 Z-0.704
G1 X108.573 Y10.738 Z-0.711
G1 X108.552 Y10.783 Z-0.718
G1 X108.534 Y10.829 Z-0.725
G1 X108.521 Y10.877 Z-0.732
G1 X108.513 Y10.926 Z-0.739
G1 X108.508 Y10.976 Z-0.747
G1 X108.508 Y11.026 Z-0.754
G1 X108.513 Y11.075 Z-0.761
G1 X108.521 Y11.124 Z-0.768
G1 X108.534 Y11.172 Z-0.775
G1 X108.552 Y11.219 Z-0.782
G1 X108.573 Y11.264 Z-0.789
G1 X108.598 Y11.307 Z-0.796
G1 X108.627 Y11.347 Z-0.803
G1 X108.659 Y11.385 Z-0.810
G1 X108.695 Y11.420 Z-0.817
G1 X108.733 Y11.451 Z-0.824
G1 X108.775 Y11.479 Z-0.831
G1 X108.818 Y11.504 Z-0.838
G1 X108.864 Y11.524 Z-0.845
G1 X108.911 Y11.540 Z-0.852
G1 X108.959 Y11.552 Z-0.859
G1 X109.008 Y11.560 Z-0.866
G1 X109.058 Y11.563 Z-0.873
G1 X109.108 Y11.562 Z-0.880
G1 X109.157 Y11.557 Z-0.887
G1 X109.206 Y11.547 Z-0.894
G1 X109.253 Y11.533 Z-0.901
G1 X109.300 Y11.514 Z-0.908
G1 X109.344 Y11.492 Z-0.916
G1 X109.387 Y11.466 Z-0.923
G1 X109.427 Y11.436 Z-0.930
G1 X109.464 Y11.403 Z-0.937
G1 X109.498 Y11.367 Z-0.944
G1 X109.528 Y11.327 Z-0.951
G1 X109.555 Y11.286 Z-0.958
G1 X109.579 Y11.242 Z-0.965
G1 X109.598 Y11.196 Z-0.972
G1 X109.613 Y11.148 Z-0.979
G1 X109.624 Y11.100 Z-0.986
G1 X109.631 Y11.050 Z-0.993
G1 X109.633 Y11.001 Z-1.000
G1 X109.633 Y11.001 Z-1.000
G1 X109.631 Y10.951 Z-1.007
G1 X109.624 Y10.902 Z-1.014
G1 X109.613 Y10.853 Z-1.021
G1 X109.598 Y10.806 Z-1.028
G1 X109.579 Y10.760 Z-1.035
G1 X109.555 Y10.716 Z-1.042
G1 X109.528 Y10.674 Z-1.049
G1 X109.498 Y10.635 Z-1.056
G1 X109.464 Y10.599 Z-1.063
G1 X109.427 Y10.565 Z-1.070
G1 X109.387 Y10.536 Z-1.077
G1 X109.344 Y10.509 Z-1.085
G1 X109.300 Y10.487 Z-1.092
G1 X109.253 Y10.469 Z-1.099
G1 X109.206 Y10.455 Z-1.106
G1 X109.157 Y10.445 Z-1.113
G1 X109.108 Y10.439 Z-1.120
G1 X109.058 Y10.438 Z-1.127
G1 X109.008 Y10.442 Z-1.134
G1 X108.959 Y10.449 Z-1.141
G1 X108.911 Y10.461 Z-1.148
G1 X108.864 Y10.477 Z-1.155
G1 X108.818 Y10.498 Z-1.162
G1 X108.775 Y10.522 Z-1.169
G1 X108.733 Y10.550 Z-1.176
G1 X108.695 Y10.581 Z-1.183
G1 X108.659 Y10.616 Z-1.190
G1 X108.627 Y10.654 Z-1.197
G1 X108.598 Y10.695 Z-1.204
G1 X108.573 Y10.738 Z-1.211
G1 X108.552 Y10.783 Z-1.218
G1 X108.534 Y10.829 Z-1.225
G1 X108.521 Y10.877 Z-1.232
G1 X108.513 Y10.926 Z-1.239
G1 X108.508 Y10.976 Z-1.247
G1 X108.508 Y11.026 Z-1.254
G1 X108.513 Y11.075 Z-1.261
G1 X108.521 Y11.124 Z-1.268
G1 X108.534 Y11.172 Z-1.275
G1 X108.552 Y11.219 Z-1.282
G1 X108.573 Y11.264 Z-1.289
G1 X108.598 Y11.307 Z-1.296
G1 X108.627 Y11.347 Z-1.303
G1 X108.659 Y11.385 Z-1.310
G1 X108.695 Y11.420 Z-1.317
G1 X108.733 Y11.451 Z-1.324
G1 X108.775 Y11.479 Z-1.331
G1 X108.818 Y11.504 Z-1.338
G1 X108.864 Y11.524 Z-1.345
G1 X108.911 Y11.540 Z-1.352
G1 X108.959 Y11.552 Z-1.359
G1 X109.008 Y11.560 Z-1.366
G1 X109.058 Y11.563 Z-1.373
G1 X109.108 Y11.562 Z-1.380
G1 X109.157 Y11.557 Z-1.387
G1 X109.206 Y11.547 Z-1.394
G1 X109.253 Y11.533 Z-1.401
G1 X109.300 Y11.514 Z-1.409
G1 X109.344 Y11.492 Z-1.416
G1 X109.387 Y11.466 Z-1.423
G1 X109.427 Y11.436 Z-1.430
G1 X109.464 Y11.403 Z-1.437
G1 X109.498 Y11.367 Z-1.444
G1 X109.528 Y11.327 Z-1.451
G1 X109.555 Y11.286 Z-1.458
G1 X109.579 Y11.242 Z-1.465
G1 X109.598 Y11.196 Z-1.472
G1 X109.613 Y11.148 Z-1.479
G1 X109.624 Y11.100 Z-1.486
G1 X109.631 Y11.050 Z-1.493
G1 X109.633 Y11.001 Z-1.500
G1 X109.633 Y11.001 Z-1.500
G1 X109.631 Y10.951 Z-1.507
G1 X109.624 Y10.902 Z-1.514
G1 X109.613 Y10.853 Z-1.521
G1 X109.598 Y10.806 Z-1.528
G1 X109.579 Y10.760 Z-1.535
G1 X109.555 Y10.716 Z-1.542
G1 X109.528 Y10.674 Z-1.549
G1 X109.498 Y10.635 Z-1.556
G1 X109.464 Y10.599 Z-1.563
G1 X109.427 Y10.565 Z-1.571
G1 X109.387 Y10.536 Z-1.578
G1 X109.344 Y10.509 Z-1.585
G1 X109.300 Y10.487 Z-1.592
G1 X109.253 Y10.469 Z-1.599
G1 X109.206 Y10.455 Z-1.606
G1 X109.157 Y10.445 Z-1.613
G1 X109.108 Y10.439 Z-1.620
G1 X109.058 Y10.438 Z-1.627
G1 X109.008 Y10.442 Z-1.634
G1 X108.959 Y10.449 Z-1.641
G1 X108.911 Y10.461 Z-1.648
G1 X108.864 Y10.477 Z-1.655
G1 X108.818 Y10.498 Z-1.662
G1 X108.775 Y10.522 Z-1.669
G1 X108.733 Y10.550 Z-1.676
G1 X108.695 Y10.581 Z-1.683
G1 X108.659 Y10.616 Z-1.690
G1 X108.627 Y10.654 Z-1.697
G1 X108.598 Y10.695 Z-1.704
G1 X108.573 Y10.738 Z-1.711
G1 X108.552 Y10.783 Z-1.718
G1 X108.534 Y10.829 Z-1.725
G1 X108.521 Y10.877 Z-1.732
G1 X108.513 Y10.926 Z-1.739
G1 X108.508 Y10.976 Z-1.747
G1 X108.508 Y11.026 Z-1.754
G1 X108.513 Y11.075 Z-1.761
G1 X108.521 Y11.124 Z-1.768
G1 X108.534 Y11.172 Z-1.775
G1 X108.552 Y11.219 Z-1.782
G1 X108.573 Y11.264 Z-1.789
G1 X108.598 Y11.307 Z-1.796
G1 X108.627 Y11.347 Z-1.803
G1 X108.659 Y11.385 Z-1.810
G1 X108.695 Y11.420 Z-1.817
G1 X108.733 Y11.451 Z-1.824
G1 X108.775 Y11.479 Z-1.831
G1 X108.818 Y11.504 Z-1.838
G1 X108.864 Y11.524 Z-1.845
G1 X108.911 Y11.540 Z-1.852
G1 X108.959 Y11.552 Z-1.859
G1 X109.008 Y11.560 Z-1.866
G1 X109.058 Y11.563 Z-1.873
G1 X109.108 Y11.562 Z-1.880
G1 X109.157 Y11.557 Z-1.887
G1 X109.206 Y11.547 Z-1.894
G1 X109.253 Y11.533 Z-1.901
G1 X109.300 Y11.514 Z-1.908
G1 X109.344 Y11.492 Z-1.916
G1 X109.387 Y11.466 Z-1.923
G1 X109.427 Y11.436 Z-1.930
G1 X109.464 Y11.403 Z-1.937
G1 X109.498 Y11.367 Z-1.944
G1 X109.528 Y11.327 Z-1.951
G1 X109.555 Y11.286 Z-1.958
G1 X109.579 Y11.242 Z-1.965
G1 X109.598 Y11.196 Z-1.972
G1 X109.613 Y11.148 Z-1.979
G1 X109.624 Y11.100 Z-1.986
G1 X109.631 Y11.050 Z-1.993
G1 X109.633 Y11.001 Z-2.000
G1 X109.633 Y11.001 Z-2.000
G1 X109.631 Y10.951 Z-2.000
G1 X109.624 Y10.902 Z-2.000
G1 X109.613 Y10.853 Z-2.000
G1 X109.598 Y10.806 Z-2.000
G1 X109.579 Y10.760 Z-2.000
G1 X109.555 Y10.716 Z-2.000
G1 X109.528 Y10.674 Z-2.000
G1 X109.498 Y10.635 Z-2.000
G1 X109.464 Y10.599 Z-2.000
G1 X109.427 Y10.565 Z-2.000
G1 X109.387 Y10.536 Z-2.000
G1 X109.344 Y10.509 Z-2.000
G1 X109.300 Y10.487 Z-2.000
G1 X109.253 Y10.469 Z-2.000
G1 X109.206 Y10.455 Z-2.000
G1 X109.157 Y10.445 Z-2.000
G1 X109.108 Y10.439 Z-2.000
G1 X109.058 Y10.438 Z-2.000
G1 X109.008 Y10.442 Z-2.000
G1 X108.959 Y10.449 Z-2.000
G1 X108.911 Y10.461 Z-2.000
G1 X108.864 Y10.477 Z-2.000
G1 X108.818 Y10.498 Z-2.000
G1 X108.775 Y10.522 Z-2.000
G1 X108.733 Y10.550 Z-2.000
G1 X108.695 Y10.581 Z-2.000
G1 X108.659 Y10.616 Z-2.000
G1 X108.627 Y10.654 Z-2.000
G1 X108.598 Y10.695 Z-2.000
G1 X108.573 Y10.738 Z-2.000
G1 X108.552 Y10.783 Z-2.000
G1 X108.534 Y10.829 Z-2.000
G1 X108.521 Y10.877 Z-2.000
G1 X108.513 Y10.926 Z-2.000
G1 X108.508 Y10.976 Z-2.000
G1 X108.508 Y11.026 Z-2.000
G1 X108.513 Y11.075 Z-2.000
G1 X108.521 Y11.124 Z-2.000
G1 X108.534 Y11.172 Z-2.000
G1 X108.552 Y11.219 Z-2.000
G1 X108.573 Y11.264 Z-2.000
G1 X108.598 Y11.307 Z-2.000
G1 X108.627 Y11.347 Z-2.000
G1 X108.659 Y11.385 Z-2.000
G1 X108.695 Y11.420 Z-2.000
G1 X108.733 Y11.451 Z-2.000
G1 X108.775 Y11.479 Z-2.000
G1 X108.818 Y11.504 Z-2.000
G1 X108.864 Y11.524 Z-2.000
G1 X108.911 Y11.540 Z-2.000
G1 X108.959 Y11.552 Z-2.000
G1 X109.008 Y11.560 Z-2.000
G1 X109.058 Y11.563 Z-2.000
G1 X109.108 Y11.562 Z-2.000
G1 X109.157 Y11.557 Z-2.000
G1 X109.206 Y11.547 Z-2.000
G1 X109.253 Y11.533 Z-2.000
G1 X109.300 Y11.514 Z-2.000
G1 X109.344 Y11.492 Z-2.000
G1 X109.387 Y11.466 Z-2.000
G1 X109.427 Y11.436 Z-2.000
G1 X109.464 Y11.403 Z-2.000
G1 X109.498 Y11.367 Z-2.000
G1 X109.528 Y11.327 Z-2.000
G1 X109.555 Y11.286 Z-2.000
G1 X109.579 Y11.242 Z-2.000
G1 X109.598 Y11.196 Z-2.000
G1 X109.613 Y11.148 Z-2.000
G1 X109.624 Y11.100 Z-2.000
G1 X109.631 Y11.050 Z-2.000
G1 X109.633 Y11.001 Z-2.000
G1 Z2.0000 F49.9999

G0 X198.6318 Y11.0007
G1 Z0.5001 F49.9999
G1 F100.0001
G1 X198.632 Y11.001 Z0.500
G1 X198.630 Y10.951 Z0.493
G1 X198.623 Y10.902 Z0.486
G1 X198.612 Y10.853 Z0.479
G1 X198.597 Y10.806 Z0.472
G1 X198.578 Y10.760 Z0.465
G1 X198.554 Y10.716 Z0.458
G1 X198.527 Y10.674 Z0.451
G1 X198.497 Y10.635 Z0.444
G1 X198.463 Y10.599 Z0.437
G1 X198.426 Y10.565 Z0.430
G1 X198.386 Y10.536 Z0.423
G1 X198.343 Y10.509 Z0.416
G1 X198.299 Y10.487 Z0.409
G1 X198.252 Y10.469 Z0.401
G1 X198.205 Y10.455 Z0.394
G1 X198.156 Y10.445 Z0.387
G1 X198.107 Y10.439 Z0.380
G1 X198.057 Y10.438 Z0.373
G1 X198.007 Y10.442 Z0.366
G1 X197.958 Y10.449 Z0.359
G1 X197.910 Y10.461 Z0.352
G1 X197.863 Y10.477 Z0.345
G1 X197.817 Y10.498 Z0.338
G1 X197.774 Y10.522 Z0.331
G1 X197.732 Y10.550 Z0.324
G1 X197.694 Y10.581 Z0.317
G1 X197.658 Y10.616 Z0.310
G1 X197.626 Y10.654 Z0.303
G1 X197.597 Y10.695 Z0.296
G1 X197.572 Y10.738 Z0.289
G1 X197.551 Y10.783 Z0.282
G1 X197.533 Y10.829 Z0.275
G1 X197.520 Y10.877 Z0.268
G1 X197.512 Y10.926 Z0.261
G1 X197.507 Y10.976 Z0.254
G1 X197.507 Y11.026 Z0.247
G1 X197.512 Y11.075 Z0.239
G1 X197.520 Y11.124 Z0.232
G1 X197.533 Y11.172 Z0.225
G1 X197.551 Y11.219 Z0.218
G1 X197.572 Y11.264 Z0.211
G1 X197.597 Y11.307 Z0.204
G1 X197.626 Y11.347 Z0.197
G1 X197.658 Y11.385 Z0.190
G1 X197.694 Y11.420 Z0.183
G1 X197.732 Y11.451 Z0.176
G1 X197.774 Y11.479 Z0.169
G1 X197.817 Y11.504 Z0.162
G1 X197.863 Y11.524 Z0.155
G1 X197.910 Y11.540 Z0.148
G1 X197.958 Y11.552 Z0.141
G1 X198.007 Y11.560 Z0.134
G1 X198.057 Y11.563 Z0.127
G1 X198.107 Y11.562 Z0.120
G1 X198.156 Y11.557 Z0.113
G1 X198.205 Y11.547 Z0.106
G1 X198.252 Y11.533 Z0.099
G1 X198.299 Y11.514 Z0.092
G1 X198.343 Y11.492 Z0.085
G1 X198.386 Y11.466 Z0.077
G1 X198.426 Y11.436 Z0.070
G1 X198.463 Y11.403 Z0.063
G1 X198.497 Y11.367 Z0.056
G1 X198.527 Y11.327 Z0.049
G1 X198.554 Y11.286 Z0.042
G1 X198.578 Y11.242 Z0.035
G1 X198.597 Y11.196 Z0.028
G1 X198.612 Y11.148 Z0.021
G1 X198.623 Y11.100 Z0.014
G1 X198.630 Y11.050 Z0.007
G1 X198.632 Y11.001 Z0.000
G1 X198.632 Y11.001 Z-0.000
G1 X198.630 Y10.951 Z-0.007
G1 X198.623 Y10.902 Z-0.014
G1 X198.612 Y10.853 Z-0.021
G1 X198.597 Y10.806 Z-0.028
G1 X198.578 Y10.760 Z-0.035
G1 X198.554 Y10.716 Z-0.042
G1 X198.527 Y10.674 Z-0.049
G1 X198.497 Y10.635 Z-0.056
G1 X198.463 Y10.599 Z-0.063
G1 X198.426 Y10.565 Z-0.070
G1 X198.386 Y10.536 Z-0.077
G1 X198.343 Y10.509 Z-0.085
G1 X198.299 Y10.487 Z-0.092
G1 X198.252 Y10.469 Z-0.099
G1 X198.205 Y10.455 Z-0.106
G1 X198.156 Y10.445 Z-0.113
G1 X198.107 Y10.439 Z-0.120
G1 X198.057 Y10.438 Z-0.127
G1 X198.007 Y10.442 Z-0.134
G1 X197.958 Y10.449 Z-0.141
G1 X197.910 Y10.461 Z-0.148
G1 X197.863 Y10.477 Z-0.155
G1 X197.817 Y10.498 Z-0.162
G1 X197.774 Y10.522 Z-0.169
G1 X197.732 Y10.550 Z-0.176
G1 X197.694 Y10.581 Z-0.183
G1 X197.658 Y10.616 Z-0.190
G1 X197.626 Y10.654 Z-0.197
G1 X197.597 Y10.695 Z-0.204
G1 X197.572 Y10.738 Z-0.211
G1 X197.551 Y10.783 Z-0.218
G1 X197.533 Y10.829 Z-0.225
G1 X197.520 Y10.877 Z-0.232
G1 X197.512 Y10.926 Z-0.239
G1 X197.507 Y10.976 Z-0.247
G1 X197.507 Y11.026 Z-0.254
G1 X197.512 Y11.075 Z-0.261
G1 X197.520 Y11.124 Z-0.268
G1 X197.533 Y11.172 Z-0.275
G1 X197.551 Y11.219 Z-0.282
G1 X197.572 Y11.264 Z-0.289
G1 X197.597 Y11.307 Z-0.296
G1 X197.626 Y11.347 Z-0.303
G1 X197.658 Y11.385 Z-0.310
G1 X197.694 Y11.420 Z-0.317
G1 X197.732 Y11.451 Z-0.324
G1 X197.774 Y11.479 Z-0.331
G1 X197.817 Y11.504 Z-0.338
G1 X197.863 Y11.524 Z-0.345
G1 X197.910 Y11.540 Z-0.352
G1 X197.958 Y11.552 Z-0.359
G1 X198.007 Y11.560 Z-0.366
G1 X198.057 Y11.563 Z-0.373
G1 X198.107 Y11.562 Z-0.380
G1 X198.156 Y11.557 Z-0.387
G1 X198.205 Y11.547 Z-0.394
G1 X198.252 Y11.533 Z-0.401
G1 X198.299 Y11.514 Z-0.409
G1 X198.343 Y11.492 Z-0.416
G1 X198.386 Y11.466 Z-0.423
G1 X198.426 Y11.436 Z-0.430
G1 X198.463 Y11.403 Z-0.437
G1 X198.497 Y11.367 Z-0.444
G1 X198.527 Y11.327 Z-0.451
G1 X198.554 Y11.286 Z-0.458
G1 X198.578 Y11.242 Z-0.465
G1 X198.597 Y11.196 Z-0.472
G1 X198.612 Y11.148 Z-0.479
G1 X198.623 Y11.100 Z-0.486
G1 X198.630 Y11.050 Z-0.493
G1 X198.632 Y11.001 Z-0.500
G1 X198.632 Y11.001 Z-0.500
G1 X198.630 Y10.951 Z-0.507
G1 X198.623 Y10.902 Z-0.514
G1 X198.612 Y10.853 Z-0.521
G1 X198.597 Y10.806 Z-0.528
G1 X198.578 Y10.760 Z-0.535
G1 X198.554 Y10.716 Z-0.542
G1 X198.527 Y10.674 Z-0.549
G1 X198.497 Y10.635 Z-0.556
G1 X198.463 Y10.599 Z-0.563
G1 X198.426 Y10.565 Z-0.571
G1 X198.386 Y10.536 Z-0.578
G1 X198.343 Y10.509 Z-0.585
G1 X198.299 Y10.487 Z-0.592
G1 X198.252 Y10.469 Z-0.599
G1 X198.205 Y10.455 Z-0.606
G1 X198.156 Y10.445 Z-0.613
G1 X198.107 Y10.439 Z-0.620
G1 X198.057 Y10.438 Z-0.627
G1 X198.007 Y10.442 Z-0.634
G1 X197.958 Y10.449 Z-0.641
G1 X197.910 Y10.461 Z-0.648
G1 X197.863 Y10.477 Z-0.655
G1 X197.817 Y10.498 Z-0.662
G1 X197.774 Y10.522 Z-0.669
G1 X197.732 Y10.550 Z-0.676
G1 X197.694 Y10.581 Z-0.683
G1 X197.658 Y10.616 Z-0.690
G1 X197.626 Y10.654 Z-0.697
G1 X197.597 Y10.695 Z-0.704
G1 X197.572 Y10.738 Z-0.711
G1 X197.551 Y10.783 Z-0.718
G1 X197.533 Y10.829 Z-0.725
G1 X197.520 Y10.877 Z-0.732
G1 X197.512 Y10.926 Z-0.739
G1 X197.507 Y10.976 Z-0.747
G1 X197.507 Y11.026 Z-0.754
G1 X197.512 Y11.075 Z-0.761
G1 X197.520 Y11.124 Z-0.768
G1 X197.533 Y11.172 Z-0.775
G1 X197.551 Y11.219 Z-0.782
G1 X197.572 Y11.264 Z-0.789
G1 X197.597 Y11.307 Z-0.796
G1 X197.626 Y11.347 Z-0.803
G1 X197.658 Y11.385 Z-0.810
G1 X197.694 Y11.420 Z-0.817
G1 X197.732 Y11.451 Z-0.824
G1 X197.774 Y11.479 Z-0.831
G1 X197.817 Y11.504 Z-0.838
G1 X197.863 Y11.524 Z-0.845
G1 X197.910 Y11.540 Z-0.852
G1 X197.958 Y11.552 Z-0.859
G1 X198.007 Y11.560 Z-0.866
G1 X198.057 Y11.563 Z-0.873
G1 X198.107 Y11.562 Z-0.880
G1 X198.156 Y11.557 Z-0.887
G1 X198.205 Y11.547 Z-0.894
G1 X198.252 Y11.533 Z-0.901
G1 X198.299 Y11.514 Z-0.908
G1 X198.343 Y11.492 Z-0.916
G1 X198.386 Y11.466 Z-0.923
G1 X198.426 Y11.436 Z-0.930
G1 X198.463 Y11.403 Z-0.937
G1 X198.497 Y11.367 Z-0.944
G1 X198.527 Y11.327 Z-0.951
G1 X198.554 Y11.286 Z-0.958
G1 X198.578 Y11.242 Z-0.965
G1 X198.597 Y11.196 Z-0.972
G1 X198.612 Y11.148 Z-0.979
G1 X198.623 Y11.100 Z-0.986
G1 X198.630 Y11.050 Z-0.993
G1 X198.632 Y11.001 Z-1.000
G1 X198.632 Y11.001 Z-1.000
G1 X198.630 Y10.951 Z-1.007
G1 X198.623 Y10.902 Z-1.014
G1 X198.612 Y10.853 Z-1.021
G1 X198.597 Y10.806 Z-1.028
G1 X198.578 Y10.760 Z-1.035
G1 X198.554 Y10.716 Z-1.042
G1 X198.527 Y10.674 Z-1.049
G1 X198.497 Y10.635 Z-1.056
G1 X198.463 Y10.599 Z-1.063
G1 X198.426 Y10.565 Z-1.070
G1 X198.386 Y10.536 Z-1.077
G1 X198.343 Y10.509 Z-1.085
G1 X198.299 Y10.487 Z-1.092
G1 X198.252 Y10.469 Z-1.099
G1 X198.205 Y10.455 Z-1.106
G1 X198.156 Y10.445 Z-1.113
G1 X198.107 Y10.439 Z-1.120
G1 X198.057 Y10.438 Z-1.127
G1 X198.007 Y10.442 Z-1.134
G1 X197.958 Y10.449 Z-1.141
G1 X197.910 Y10.461 Z-1.148
G1 X197.863 Y10.477 Z-1.155
G1 X197.817 Y10.498 Z-1.162
G1 X197.774 Y10.522 Z-1.169
G1 X197.732 Y10.550 Z-1.176
G1 X197.694 Y10.581 Z-1.183
G1 X197.658 Y10.616 Z-1.190
G1 X197.626 Y10.654 Z-1.197
G1 X197.597 Y10.695 Z-1.204
G1 X197.572 Y10.738 Z-1.211
G1 X197.551 Y10.783 Z-1.218
G1 X197.533 Y10.829 Z-1.225
G1 X197.520 Y10.877 Z-1.232
G1 X197.512 Y10.926 Z-1.239
G1 X197.507 Y10.976 Z-1.247
G1 X197.507 Y11.026 Z-1.254
G1 X197.512 Y11.075 Z-1.261
G1 X197.520 Y11.124 Z-1.268
G1 X197.533 Y11.172 Z-1.275
G1 X197.551 Y11.219 Z-1.282
G1 X197.572 Y11.264 Z-1.289
G1 X197.597 Y11.307 Z-1.296
G1 X197.626 Y11.347 Z-1.303
G1 X197.658 Y11.385 Z-1.310
G1 X197.694 Y11.420 Z-1.317
G1 X197.732 Y11.451 Z-1.324
G1 X197.774 Y11.479 Z-1.331
G1 X197.817 Y11.504 Z-1.338
G1 X197.863 Y11.524 Z-1.345
G1 X197.910 Y11.540 Z-1.352
G1 X197.958 Y11.552 Z-1.359
G1 X198.007 Y11.560 Z-1.366
G1 X198.057 Y11.563 Z-1.373
G1 X198.107 Y11.562 Z-1.380
G1 X198.156 Y11.557 Z-1.387
G1 X198.205 Y11.547 Z-1.394
G1 X198.252 Y11.533 Z-1.401
G1 X198.299 Y11.514 Z-1.409
G1 X198.343 Y11.492 Z-1.416
G1 X198.386 Y11.466 Z-1.423
G1 X198.426 Y11.436 Z-1.430
G1 X198.463 Y11.403 Z-1.437
G1 X198.497 Y11.367 Z-1.444
G1 X198.527 Y11.327 Z-1.451
G1 X198.554 Y11.286 Z-1.458
G1 X198.578 Y11.242 Z-1.465
G1 X198.597 Y11.196 Z-1.472
G1 X198.612 Y11.148 Z-1.479
G1 X198.623 Y11.100 Z-1.486
G1 X198.630 Y11.050 Z-1.493
G1 X198.632 Y11.001 Z-1.500
G1 X198.632 Y11.001 Z-1.500
G1 X198.630 Y10.951 Z-1.507
G1 X198.623 Y10.902 Z-1.514
G1 X198.612 Y10.853 Z-1.521
G1 X198.597 Y10.806 Z-1.528
G1 X198.578 Y10.760 Z-1.535
G1 X198.554 Y10.716 Z-1.542
G1 X198.527 Y10.674 Z-1.549
G1 X198.497 Y10.635 Z-1.556
G1 X198.463 Y10.599 Z-1.563
G1 X198.426 Y10.565 Z-1.571
G1 X198.386 Y10.536 Z-1.578
G1 X198.343 Y10.509 Z-1.585
G1 X198.299 Y10.487 Z-1.592
G1 X198.252 Y10.469 Z-1.599
G1 X198.205 Y10.455 Z-1.606
G1 X198.156 Y10.445 Z-1.613
G1 X198.107 Y10.439 Z-1.620
G1 X198.057 Y10.438 Z-1.627
G1 X198.007 Y10.442 Z-1.634
G1 X197.958 Y10.449 Z-1.641
G1 X197.910 Y10.461 Z-1.648
G1 X197.863 Y10.477 Z-1.655
G1 X197.817 Y10.498 Z-1.662
G1 X197.774 Y10.522 Z-1.669
G1 X197.732 Y10.550 Z-1.676
G1 X197.694 Y10.581 Z-1.683
G1 X197.658 Y10.616 Z-1.690
G1 X197.626 Y10.654 Z-1.697
G1 X197.597 Y10.695 Z-1.704
G1 X197.572 Y10.738 Z-1.711
G1 X197.551 Y10.783 Z-1.718
G1 X197.533 Y10.829 Z-1.725
G1 X197.520 Y10.877 Z-1.732
G1 X197.512 Y10.926 Z-1.739
G1 X197.507 Y10.976 Z-1.747
G1 X197.507 Y11.026 Z-1.754
G1 X197.512 Y11.075 Z-1.761
G1 X197.520 Y11.124 Z-1.768
G1 X197.533 Y11.172 Z-1.775
G1 X197.551 Y11.219 Z-1.782
G1 X197.572 Y11.264 Z-1.789
G1 X197.597 Y11.307 Z-1.796
G1 X197.626 Y11.347 Z-1.803
G1 X197.658 Y11.385 Z-1.810
G1 X197.694 Y11.420 Z-1.817
G1 X197.732 Y11.451 Z-1.824
G1 X197.774 Y11.479 Z-1.831
G1 X197.817 Y11.504 Z-1.838
G1 X197.863 Y11.524 Z-1.845
G1 X197.910 Y11.540 Z-1.852
G1 X197.958 Y11.552 Z-1.859
G1 X198.007 Y11.560 Z-1.866
G1 X198.057 Y11.563 Z-1.873
G1 X198.107 Y11.562 Z-1.880
G1 X198.156 Y11.557 Z-1.887
G1 X198.205 Y11.547 Z-1.894
G1 X198.252 Y11.533 Z-1.901
G1 X198.299 Y11.514 Z-1.908
G1 X198.343 Y11.492 Z-1.916
G1 X198.386 Y11.466 Z-1.923
G1 X198.426 Y11.436 Z-1.930
G1 X198.463 Y11.403 Z-1.937
G1 X198.497 Y11.367 Z-1.944
G1 X198.527 Y11.327 Z-1.951
G1 X198.554 Y11.286 Z-1.958
G1 X198.578 Y11.242 Z-1.965
G1 X198.597 Y11.196 Z-1.972
G1 X198.612 Y11.148 Z-1.979
G1 X198.623 Y11.100 Z-1.986
G1 X198.630 Y11.050 Z-1.993
G1 X198.632 Y11.001 Z-2.000
G1 X198.632 Y11.001 Z-2.000
G1 X198.630 Y10.951 Z-2.000
G1 X198.623 Y10.902 Z-2.000
G1 X198.612 Y10.853 Z-2.000
G1 X198.597 Y10.806 Z-2.000
G1 X198.578 Y10.760 Z-2.000
G1 X198.554 Y10.716 Z-2.000
G1 X198.527 Y10.674 Z-2.000
G1 X198.497 Y10.635 Z-2.000
G1 X198.463 Y10.599 Z-2.000
G1 X198.426 Y10.565 Z-2.000
G1 X198.386 Y10.536 Z-2.000
G1 X198.343 Y10.509 Z-2.000
G1 X198.299 Y10.487 Z-2.000
G1 X198.252 Y10.469 Z-2.000
G1 X198.205 Y10.455 Z-2.000
G1 X198.156 Y10.445 Z-2.000
G1 X198.107 Y10.439 Z-2.000
G1 X198.057 Y10.438 Z-2.000
G1 X198.007 Y10.442 Z-2.000
G1 X197.958 Y10.449 Z-2.000
G1 X197.910 Y10.461 Z-2.000
G1 X197.863 Y10.477 Z-2.000
G1 X197.817 Y10.498 Z-2.000
G1 X197.774 Y10.522 Z-2.000
G1 X197.732 Y10.550 Z-2.000
G1 X197.694 Y10.581 Z-2.000
G1 X197.658 Y10.616 Z-2.000
G1 X197.626 Y10.654 Z-2.000
G1 X197.597 Y10.695 Z-2.000
G1 X197.572 Y10.738 Z-2.000
G1 X197.551 Y10.783 Z-2.000
G1 X197.533 Y10.829 Z-2.000
G1 X197.520 Y10.877 Z-2.000
G1 X197.512 Y10.926 Z-2.000
G1 X197.507 Y10.976 Z-2.000
G1 X197.507 Y11.026 Z-2.000
G1 X197.512 Y11.075 Z-2.000
G1 X197.520 Y11.124 Z-2.000
G1 X197.533 Y11.172 Z-2.000
G1 X197.551 Y11.219 Z-2.000
G1 X197.572 Y11.264 Z-2.000
G1 X197.597 Y11.307 Z-2.000
G1 X197.626 Y11.347 Z-2.000
G1 X197.658 Y11.385 Z-2.000
G1 X197.694 Y11.420 Z-2.000
G1 X197.732 Y11.451 Z-2.000
G1 X197.774 Y11.479 Z-2.000
G1 X197.817 Y11.504 Z-2.000
G1 X197.863 Y11.524 Z-2.000
G1 X197.910 Y11.540 Z-2.000
G1 X197.958 Y11.552 Z-2.000
G1 X198.007 Y11.560 Z-2.000
G1 X198.057 Y11.563 Z-2.000
G1 X198.107 Y11.562 Z-2.000
G1 X198.156 Y11.557 Z-2.000
G1 X198.205 Y11.547 Z-2.000
G1 X198.252 Y11.533 Z-2.000
G1 X198.299 Y11.514 Z-2.000
G1 X198.343 Y11.492 Z-2.000
G1 X198.386 Y11.466 Z-2.000
G1 X198.426 Y11.436 Z-2.000
G1 X198.463 Y11.403 Z-2.000
G1 X198.497 Y11.367 Z-2.000
G1 X198.527 Y11.327 Z-2.000
G1 X198.554 Y11.286 Z-2.000
G1 X198.578 Y11.242 Z-2.000
G1 X198.597 Y11.196 Z-2.000
G1 X198.612 Y11.148 Z-2.000
G1 X198.623 Y11.100 Z-2.000
G1 X198.630 Y11.050 Z-2.000
G1 X198.632 Y11.001 Z-2.000
G1 Z2.0000 F49.9999

G0 X28.8328 Y11.0007
G1 Z0.5001 F49.9999
G1 F100.0001
G1 X28.833 Y11.001 Z0.500
G1 X28.830 Y10.951 Z0.490
G1 X28.821 Y10.902 Z0.481
G1 X28.806 Y10.854 Z0.471
G1 X28.786 Y10.809 Z0.462
G1 X28.760 Y10.766 Z0.452
G1 X28.729 Y10.727 Z0.442
G1 X28.694 Y10.692 Z0.433
G1 X28.654 Y10.661 Z0.423
G1 X28.612 Y10.635 Z0.414
G1 X28.566 Y10.615 Z0.404
G1 X28.519 Y10.600 Z0.394
G1 X28.470 Y10.591 Z0.385
G1 X28.420 Y10.588 Z0.375
G1 X28.370 Y10.591 Z0.365
G1 X28.321 Y10.600 Z0.356
G1 X28.274 Y10.615 Z0.346
G1 X28.228 Y10.635 Z0.337
G1 X28.186 Y10.661 Z0.327
G1 X28.146 Y10.692 Z0.317
G1 X28.111 Y10.727 Z0.308
G1 X28.080 Y10.766 Z0.298
G1 X28.054 Y10.809 Z0.289
G1 X28.034 Y10.854 Z0.279
G1 X28.019 Y10.902 Z0.269
G1 X28.010 Y10.951 Z0.260
G1 X28.007 Y11.001 Z0.250
G1 X28.010 Y11.050 Z0.240
G1 X28.019 Y11.099 Z0.231
G1 X28.034 Y11.147 Z0.221
G1 X28.054 Y11.193 Z0.212
G1 X28.080 Y11.235 Z0.202
G1 X28.111 Y11.274 Z0.192
G1 X28.146 Y11.310 Z0.183
G1 X28.186 Y11.340 Z0.173
G1 X28.228 Y11.366 Z0.163
G1 X28.274 Y11.387 Z0.154
G1 X28.321 Y11.402 Z0.144
G1 X28.370 Y11.410 Z0.135
G1 X28.420 Y11.414 Z0.125
G1 X28.470 Y11.410 Z0.115
G1 X28.519 Y11.402 Z0.106
G1 X28.566 Y11.387 Z0.096
G1 X28.612 Y11.366 Z0.087
G1 X28.654 Y11.340 Z0.077
G1 X28.694 Y11.310 Z0.067
G1 X28.729 Y11.274 Z0.058
G1 X28.760 Y11.235 Z0.048
G1 X28.786 Y11.193 Z0.038
G1 X28.806 Y11.147 Z0.029
G1 X28.821 Y11.099 Z0.019
G1 X28.830 Y11.050 Z0.010
G1 X28.833 Y11.001 Z0.000
G1 X28.833 Y11.001 Z-0.000
G1 X28.830 Y10.951 Z-0.010
G1 X28.821 Y10.902 Z-0.019
G1 X28.806 Y10.854 Z-0.029
G1 X28.786 Y10.809 Z-0.038
G1 X28.760 Y10.766 Z-0.048
G1 X28.729 Y10.727 Z-0.058
G1 X28.694 Y10.692 Z-0.067
G1 X28.654 Y10.661 Z-0.077
G1 X28.612 Y10.635 Z-0.087
G1 X28.566 Y10.615 Z-0.096
G1 X28.519 Y10.600 Z-0.106
G1 X28.470 Y10.591 Z-0.115
G1 X28.420 Y10.588 Z-0.125
G1 X28.370 Y10.591 Z-0.135
G1 X28.321 Y10.600 Z-0.144
G1 X28.274 Y10.615 Z-0.154
G1 X28.228 Y10.635 Z-0.163
G1 X28.186 Y10.661 Z-0.173
G1 X28.146 Y10.692 Z-0.183
G1 X28.111 Y10.727 Z-0.192
G1 X28.080 Y10.766 Z-0.202
G1 X28.054 Y10.809 Z-0.212
G1 X28.034 Y10.854 Z-0.221
G1 X28.019 Y10.902 Z-0.231
G1 X28.010 Y10.951 Z-0.240
G1 X28.007 Y11.001 Z-0.250
G1 X28.010 Y11.050 Z-0.260
G1 X28.019 Y11.099 Z-0.269
G1 X28.034 Y11.147 Z-0.279
G1 X28.054 Y11.193 Z-0.289
G1 X28.080 Y11.235 Z-0.298
G1 X28.111 Y11.274 Z-0.308
G1 X28.146 Y11.310 Z-0.317
G1 X28.186 Y11.340 Z-0.327
G1 X28.228 Y11.366 Z-0.337
G1 X28.274 Y11.387 Z-0.346
G1 X28.321 Y11.402 Z-0.356
G1 X28.370 Y11.410 Z-0.365
G1 X28.420 Y11.414 Z-0.375
G1 X28.470 Y11.410 Z-0.385
G1 X28.519 Y11.402 Z-0.394
G1 X28.566 Y11.387 Z-0.404
G1 X28.612 Y11.366 Z-0.414
G1 X28.654 Y11.340 Z-0.423
G1 X28.694 Y11.310 Z-0.433
G1 X28.729 Y11.274 Z-0.442
G1 X28.760 Y11.235 Z-0.452
G1 X28.786 Y11.193 Z-0.462
G1 X28.806 Y11.147 Z-0.471
G1 X28.821 Y11.099 Z-0.481
G1 X28.830 Y11.050 Z-0.490
G1 X28.833 Y11.001 Z-0.500
G1 X28.833 Y11.001 Z-0.500
G1 X28.830 Y10.951 Z-0.510
G1 X28.821 Y10.902 Z-0.519
G1 X28.806 Y10.854 Z-0.529
G1 X28.786 Y10.809 Z-0.539
G1 X28.760 Y10.766 Z-0.548
G1 X28.729 Y10.727 Z-0.558
G1 X28.694 Y10.692 Z-0.567
G1 X28.654 Y10.661 Z-0.577
G1 X28.612 Y10.635 Z-0.587
G1 X28.566 Y10.615 Z-0.596
G1 X28.519 Y10.600 Z-0.606
G1 X28.470 Y10.591 Z-0.615
G1 X28.420 Y10.588 Z-0.625
G1 X28.370 Y10.591 Z-0.635
G1 X28.321 Y10.600 Z-0.644
G1 X28.274 Y10.615 Z-0.654
G1 X28.228 Y10.635 Z-0.664
G1 X28.186 Y10.661 Z-0.673
G1 X28.146 Y10.692 Z-0.683
G1 X28.111 Y10.727 Z-0.692
G1 X28.080 Y10.766 Z-0.702
G1 X28.054 Y10.809 Z-0.712
G1 X28.034 Y10.854 Z-0.721
G1 X28.019 Y10.902 Z-0.731
G1 X28.010 Y10.951 Z-0.740
G1 X28.007 Y11.001 Z-0.750
G1 X28.010 Y11.050 Z-0.760
G1 X28.019 Y11.099 Z-0.769
G1 X28.034 Y11.147 Z-0.779
G1 X28.054 Y11.193 Z-0.789
G1 X28.080 Y11.235 Z-0.798
G1 X28.111 Y11.274 Z-0.808
G1 X28.146 Y11.310 Z-0.817
G1 X28.186 Y11.340 Z-0.827
G1 X28.228 Y11.366 Z-0.837
G1 X28.274 Y11.387 Z-0.846
G1 X28.321 Y11.402 Z-0.856
G1 X28.370 Y11.410 Z-0.865
G1 X28.420 Y11.414 Z-0.875
G1 X28.470 Y11.410 Z-0.885
G1 X28.519 Y11.402 Z-0.894
G1 X28.566 Y11.387 Z-0.904
G1 X28.612 Y11.366 Z-0.913
G1 X28.654 Y11.340 Z-0.923
G1 X28.694 Y11.310 Z-0.933
G1 X28.729 Y11.274 Z-0.942
G1 X28.760 Y11.235 Z-0.952
G1 X28.786 Y11.193 Z-0.962
G1 X28.806 Y11.147 Z-0.971
G1 X28.821 Y11.099 Z-0.981
G1 X28.830 Y11.050 Z-0.990
G1 X28.833 Y11.001 Z-1.000
G1 X28.833 Y11.001 Z-1.000
G1 X28.830 Y10.951 Z-1.010
G1 X28.821 Y10.902 Z-1.019
G1 X28.806 Y10.854 Z-1.029
G1 X28.786 Y10.809 Z-1.038
G1 X28.760 Y10.766 Z-1.048
G1 X28.729 Y10.727 Z-1.058
G1 X28.694 Y10.692 Z-1.067
G1 X28.654 Y10.661 Z-1.077
G1 X28.612 Y10.635 Z-1.087
G1 X28.566 Y10.615 Z-1.096
G1 X28.519 Y10.600 Z-1.106
G1 X28.470 Y10.591 Z-1.115
G1 X28.420 Y10.588 Z-1.125
G1 X28.370 Y10.591 Z-1.135
G1 X28.321 Y10.600 Z-1.144
G1 X28.274 Y10.615 Z-1.154
G1 X28.228 Y10.635 Z-1.163
G1 X28.186 Y10.661 Z-1.173
G1 X28.146 Y10.692 Z-1.183
G1 X28.111 Y10.727 Z-1.192
G1 X28.080 Y10.766 Z-1.202
G1 X28.054 Y10.809 Z-1.212
G1 X28.034 Y10.854 Z-1.221
G1 X28.019 Y10.902 Z-1.231
G1 X28.010 Y10.951 Z-1.240
G1 X28.007 Y11.001 Z-1.250
G1 X28.010 Y11.050 Z-1.260
G1 X28.019 Y11.099 Z-1.269
G1 X28.034 Y11.147 Z-1.279
G1 X28.054 Y11.193 Z-1.289
G1 X28.080 Y11.235 Z-1.298
G1 X28.111 Y11.274 Z-1.308
G1 X28.146 Y11.310 Z-1.317
G1 X28.186 Y11.340 Z-1.327
G1 X28.228 Y11.366 Z-1.337
G1 X28.274 Y11.387 Z-1.346
G1 X28.321 Y11.402 Z-1.356
G1 X28.370 Y11.410 Z-1.365
G1 X28.420 Y11.414 Z-1.375
G1 X28.470 Y11.410 Z-1.385
G1 X28.519 Y11.402 Z-1.394
G1 X28.566 Y11.387 Z-1.404
G1 X28.612 Y11.366 Z-1.414
G1 X28.654 Y11.340 Z-1.423
G1 X28.694 Y11.310 Z-1.433
G1 X28.729 Y11.274 Z-1.442
G1 X28.760 Y11.235 Z-1.452
G1 X28.786 Y11.193 Z-1.462
G1 X28.806 Y11.147 Z-1.471
G1 X28.821 Y11.099 Z-1.481
G1 X28.830 Y11.050 Z-1.490
G1 X28.833 Y11.001 Z-1.500
G1 X28.833 Y11.001 Z-1.500
G1 X28.830 Y10.951 Z-1.510
G1 X28.821 Y10.902 Z-1.519
G1 X28.806 Y10.854 Z-1.529
G1 X28.786 Y10.809 Z-1.539
G1 X28.760 Y10.766 Z-1.548
G1 X28.729 Y10.727 Z-1.558
G1 X28.694 Y10.692 Z-1.567
G1 X28.654 Y10.661 Z-1.577
G1 X28.612 Y10.635 Z-1.587
G1 X28.566 Y10.615 Z-1.596
G1 X28.519 Y10.600 Z-1.606
G1 X28.470 Y10.591 Z-1.615
G1 X28.420 Y10.588 Z-1.625
G1 X28.370 Y10.591 Z-1.635
G1 X28.321 Y10.600 Z-1.644
G1 X28.274 Y10.615 Z-1.654
G1 X28.228 Y10.635 Z-1.664
G1 X28.186 Y10.661 Z-1.673
G1 X28.146 Y10.692 Z-1.683
G1 X28.111 Y10.727 Z-1.692
G1 X28.080 Y10.766 Z-1.702
G1 X28.054 Y10.809 Z-1.712
G1 X28.034 Y10.854 Z-1.721
G1 X28.019 Y10.902 Z-1.731
G1 X28.010 Y10.951 Z-1.740
G1 X28.007 Y11.001 Z-1.750
G1 X28.010 Y11.050 Z-1.760
G1 X28.019 Y11.099 Z-1.769
G1 X28.034 Y11.147 Z-1.779
G1 X28.054 Y11.193 Z-1.789
G1 X28.080 Y11.235 Z-1.798
G1 X28.111 Y11.274 Z-1.808
G1 X28.146 Y11.310 Z-1.817
G1 X28.186 Y11.340 Z-1.827
G1 X28.228 Y11.366 Z-1.837
G1 X28.274 Y11.387 Z-1.846
G1 X28.321 Y11.402 Z-1.856
G1 X28.370 Y11.410 Z-1.865
G1 X28.420 Y11.414 Z-1.875
G1 X28.470 Y11.410 Z-1.885
G1 X28.519 Y11.402 Z-1.894
G1 X28.566 Y11.387 Z-1.904
G1 X28.612 Y11.366 Z-1.913
G1 X28.654 Y11.340 Z-1.923
G1 X28.694 Y11.310 Z-1.933
G1 X28.729 Y11.274 Z-1.942
G1 X28.760 Y11.235 Z-1.952
G1 X28.786 Y11.193 Z-1.962
G1 X28.806 Y11.147 Z-1.971
G1 X28.821 Y11.099 Z-1.981
G1 X28.830 Y11.050 Z-1.990
G1 X28.833 Y11.001 Z-2.000
G1 X28.833 Y11.001 Z-2.000
G1 X28.830 Y10.951 Z-2.000
G1 X28.821 Y10.902 Z-2.000
G1 X28.806 Y10.854 Z-2.000
G1 X28.786 Y10.809 Z-2.000
G1 X28.760 Y10.766 Z-2.000
G1 X28.729 Y10.727 Z-2.000
G1 X28.694 Y10.692 Z-2.000
G1 X28.654 Y10.661 Z-2.000
G1 X28.612 Y10.635 Z-2.000
G1 X28.566 Y10.615 Z-2.000
G1 X28.519 Y10.600 Z-2.000
G1 X28.470 Y10.591 Z-2.000
G1 X28.420 Y10.588 Z-2.000
G1 X28.370 Y10.591 Z-2.000
G1 X28.321 Y10.600 Z-2.000
G1 X28.274 Y10.615 Z-2.000
G1 X28.228 Y10.635 Z-2.000
G1 X28.186 Y10.661 Z-2.000
G1 X28.146 Y10.692 Z-2.000
G1 X28.111 Y10.727 Z-2.000
G1 X28.080 Y10.766 Z-2.000
G1 X28.054 Y10.809 Z-2.000
G1 X28.034 Y10.854 Z-2.000
G1 X28.019 Y10.902 Z-2.000
G1 X28.010 Y10.951 Z-2.000
G1 X28.007 Y11.001 Z-2.000
G1 X28.010 Y11.050 Z-2.000
G1 X28.019 Y11.099 Z-2.000
G1 X28.034 Y11.147 Z-2.000
G1 X28.054 Y11.193 Z-2.000
G1 X28.080 Y11.235 Z-2.000
G1 X28.111 Y11.274 Z-2.000
G1 X28.146 Y11.310 Z-2.000
G1 X28.186 Y11.340 Z-2.000
G1 X28.228 Y11.366 Z-2.000
G1 X28.274 Y11.387 Z-2.000
G1 X28.321 Y11.402 Z-2.000
G1 X28.370 Y11.410 Z-2.000
G1 X28.420 Y11.414 Z-2.000
G1 X28.470 Y11.410 Z-2.000
G1 X28.519 Y11.402 Z-2.000
G1 X28.566 Y11.387 Z-2.000
G1 X28.612 Y11.366 Z-2.000
G1 X28.654 Y11.340 Z-2.000
G1 X28.694 Y11.310 Z-2.000
G1 X28.729 Y11.274 Z-2.000
G1 X28.760 Y11.235 Z-2.000
G1 X28.786 Y11.193 Z-2.000
G1 X28.806 Y11.147 Z-2.000
G1 X28.821 Y11.099 Z-2.000
G1 X28.830 Y11.050 Z-2.000
G1 X28.833 Y11.001 Z-2.000
G1 Z2.0000 F49.9999

G0 X129.5336 Y11.0007
G1 Z0.5001 F49.9999
G1 F100.0001
G1 X129.534 Y11.001 Z0.500
G1 X129.531 Y10.951 Z0.490
G1 X129.522 Y10.902 Z0.481
G1 X129.507 Y10.854 Z0.471
G1 X129.486 Y10.809 Z0.462
G1 X129.461 Y10.766 Z0.452
G1 X129.430 Y10.727 Z0.442
G1 X129.395 Y10.692 Z0.433
G1 X129.355 Y10.661 Z0.423
G1 X129.313 Y10.635 Z0.414
G1 X129.267 Y10.615 Z0.404
G1 X129.220 Y10.600 Z0.394
G1 X129.171 Y10.591 Z0.385
G1 X129.121 Y10.588 Z0.375
G1 X129.071 Y10.591 Z0.365
G1 X129.022 Y10.600 Z0.356
G1 X128.974 Y10.615 Z0.346
G1 X128.929 Y10.635 Z0.337
G1 X128.886 Y10.661 Z0.327
G1 X128.847 Y10.692 Z0.317
G1 X128.812 Y10.727 Z0.308
G1 X128.781 Y10.766 Z0.298
G1 X128.755 Y10.809 Z0.289
G1 X128.735 Y10.854 Z0.279
G1 X128.720 Y10.902 Z0.269
G1 X128.711 Y10.951 Z0.260
G1 X128.708 Y11.001 Z0.250
G1 X128.711 Y11.050 Z0.240
G1 X128.720 Y11.099 Z0.231
G1 X128.735 Y11.147 Z0.221
G1 X128.755 Y11.193 Z0.212
G1 X128.781 Y11.235 Z0.202
G1 X128.812 Y11.274 Z0.192
G1 X128.847 Y11.310 Z0.183
G1 X128.886 Y11.340 Z0.173
G1 X128.929 Y11.366 Z0.163
G1 X128.974 Y11.387 Z0.154
G1 X129.022 Y11.402 Z0.144
G1 X129.071 Y11.410 Z0.135
G1 X129.121 Y11.414 Z0.125
G1 X129.171 Y11.410 Z0.115
G1 X129.220 Y11.402 Z0.106
G1 X129.267 Y11.387 Z0.096
G1 X129.313 Y11.366 Z0.087
G1 X129.355 Y11.340 Z0.077
G1 X129.395 Y11.310 Z0.067
G1 X129.430 Y11.274 Z0.058
G1 X129.461 Y11.235 Z0.048
G1 X129.486 Y11.193 Z0.038
G1 X129.507 Y11.147 Z0.029
G1 X129.522 Y11.099 Z0.019
G1 X129.531 Y11.050 Z0.010
G1 X129.534 Y11.001 Z0.000
G1 X129.534 Y11.001 Z-0.000
G1 X129.531 Y10.951 Z-0.010
G1 X129.522 Y10.902 Z-0.019
G1 X129.507 Y10.854 Z-0.029
G1 X129.486 Y10.809 Z-0.038
G1 X129.461 Y10.766 Z-0.048
G1 X129.430 Y10.727 Z-0.058
G1 X129.395 Y10.692 Z-0.067
G1 X129.355 Y10.661 Z-0.077
G1 X129.313 Y10.635 Z-0.087
G1 X129.267 Y10.615 Z-0.096
G1 X129.220 Y10.600 Z-0.106
G1 X129.171 Y10.591 Z-0.115
G1 X129.121 Y10.588 Z-0.125
G1 X129.071 Y10.591 Z-0.135
G1 X129.022 Y10.600 Z-0.144
G1 X128.974 Y10.615 Z-0.154
G1 X128.929 Y10.635 Z-0.163
G1 X128.886 Y10.661 Z-0.173
G1 X128.847 Y10.692 Z-0.183
G1 X128.812 Y10.727 Z-0.192
G1 X128.781 Y10.766 Z-0.202
G1 X128.755 Y10.809 Z-0.212
G1 X128.735 Y10.854 Z-0.221
G1 X128.720 Y10.902 Z-0.231
G1 X128.711 Y10.951 Z-0.240
G1 X128.708 Y11.001 Z-0.250
G1 X128.711 Y11.050 Z-0.260
G1 X128.720 Y11.099 Z-0.269
G1 X128.735 Y11.147 Z-0.279
G1 X128.755 Y11.193 Z-0.289
G1 X128.781 Y11.235 Z-0.298
G1 X128.812 Y11.274 Z-0.308
G1 X128.847 Y11.310 Z-0.317
G1 X128.886 Y11.340 Z-0.327
G1 X128.929 Y11.366 Z-0.337
G1 X128.974 Y11.387 Z-0.346
G1 X129.022 Y11.402 Z-0.356
G1 X129.071 Y11.410 Z-0.365
G1 X129.121 Y11.414 Z-0.375
G1 X129.171 Y11.410 Z-0.385
G1 X129.220 Y11.402 Z-0.394
G1 X129.267 Y11.387 Z-0.404
G1 X129.313 Y11.366 Z-0.414
G1 X129.355 Y11.340 Z-0.423
G1 X129.395 Y11.310 Z-0.433
G1 X129.430 Y11.274 Z-0.442
G1 X129.461 Y11.235 Z-0.452
G1 X129.486 Y11.193 Z-0.462
G1 X129.507 Y11.147 Z-0.471
G1 X129.522 Y11.099 Z-0.481
G1 X129.531 Y11.050 Z-0.490
G1 X129.534 Y11.001 Z-0.500
G1 X129.534 Y11.001 Z-0.500
G1 X129.531 Y10.951 Z-0.510
G1 X129.522 Y10.902 Z-0.519
G1 X129.507 Y10.854 Z-0.529
G1 X129.486 Y10.809 Z-0.539
G1 X129.461 Y10.766 Z-0.548
G1 X129.430 Y10.727 Z-0.558
G1 X129.395 Y10.692 Z-0.567
G1 X129.355 Y10.661 Z-0.577
G1 X129.313 Y10.635 Z-0.587
G1 X129.267 Y10.615 Z-0.596
G1 X129.220 Y10.600 Z-0.606
G1 X129.171 Y10.591 Z-0.615
G1 X129.121 Y10.588 Z-0.625
G1 X129.071 Y10.591 Z-0.635
G1 X129.022 Y10.600 Z-0.644
G1 X128.974 Y10.615 Z-0.654
G1 X128.929 Y10.635 Z-0.664
G1 X128.886 Y10.661 Z-0.673
G1 X128.847 Y10.692 Z-0.683
G1 X128.812 Y10.727 Z-0.692
G1 X128.781 Y10.766 Z-0.702
G1 X128.755 Y10.809 Z-0.712
G1 X128.735 Y10.854 Z-0.721
G1 X128.720 Y10.902 Z-0.731
G1 X128.711 Y10.951 Z-0.740
G1 X128.708 Y11.001 Z-0.750
G1 X128.711 Y11.050 Z-0.760
G1 X128.720 Y11.099 Z-0.769
G1 X128.735 Y11.147 Z-0.779
G1 X128.755 Y11.193 Z-0.789
G1 X128.781 Y11.235 Z-0.798
G1 X128.812 Y11.274 Z-0.808
G1 X128.847 Y11.310 Z-0.817
G1 X128.886 Y11.340 Z-0.827
G1 X128.929 Y11.366 Z-0.837
G1 X128.974 Y11.387 Z-0.846
G1 X129.022 Y11.402 Z-0.856
G1 X129.071 Y11.410 Z-0.865
G1 X129.121 Y11.414 Z-0.875
G1 X129.171 Y11.410 Z-0.885
G1 X129.220 Y11.402 Z-0.894
G1 X129.267 Y11.387 Z-0.904
G1 X129.313 Y11.366 Z-0.913
G1 X129.355 Y11.340 Z-0.923
G1 X129.395 Y11.310 Z-0.933
G1 X129.430 Y11.274 Z-0.942
G1 X129.461 Y11.235 Z-0.952
G1 X129.486 Y11.193 Z-0.962
G1 X129.507 Y11.147 Z-0.971
G1 X129.522 Y11.099 Z-0.981
G1 X129.531 Y11.050 Z-0.990
G1 X129.534 Y11.001 Z-1.000
G1 X129.534 Y11.001 Z-1.000
G1 X129.531 Y10.951 Z-1.010
G1 X129.522 Y10.902 Z-1.019
G1 X129.507 Y10.854 Z-1.029
G1 X129.486 Y10.809 Z-1.038
G1 X129.461 Y10.766 Z-1.048
G1 X129.430 Y10.727 Z-1.058
G1 X129.395 Y10.692 Z-1.067
G1 X129.355 Y10.661 Z-1.077
G1 X129.313 Y10.635 Z-1.087
G1 X129.267 Y10.615 Z-1.096
G1 X129.220 Y10.600 Z-1.106
G1 X129.171 Y10.591 Z-1.115
G1 X129.121 Y10.588 Z-1.125
G1 X129.071 Y10.591 Z-1.135
G1 X129.022 Y10.600 Z-1.144
G1 X128.974 Y10.615 Z-1.154
G1 X128.929 Y10.635 Z-1.163
G1 X128.886 Y10.661 Z-1.173
G1 X128.847 Y10.692 Z-1.183
G1 X128.812 Y10.727 Z-1.192
G1 X128.781 Y10.766 Z-1.202
G1 X128.755 Y10.809 Z-1.212
G1 X128.735 Y10.854 Z-1.221
G1 X128.720 Y10.902 Z-1.231
G1 X128.711 Y10.951 Z-1.240
G1 X128.708 Y11.001 Z-1.250
G1 X128.711 Y11.050 Z-1.260
G1 X128.720 Y11.099 Z-1.269
G1 X128.735 Y11.147 Z-1.279
G1 X128.755 Y11.193 Z-1.289
G1 X128.781 Y11.235 Z-1.298
G1 X128.812 Y11.274 Z-1.308
G1 X128.847 Y11.310 Z-1.317
G1 X128.886 Y11.340 Z-1.327
G1 X128.929 Y11.366 Z-1.337
G1 X128.974 Y11.387 Z-1.346
G1 X129.022 Y11.402 Z-1.356
G1 X129.071 Y11.410 Z-1.365
G1 X129.121 Y11.414 Z-1.375
G1 X129.171 Y11.410 Z-1.385
G1 X129.220 Y11.402 Z-1.394
G1 X129.267 Y11.387 Z-1.404
G1 X129.313 Y11.366 Z-1.414
G1 X129.355 Y11.340 Z-1.423
G1 X129.395 Y11.310 Z-1.433
G1 X129.430 Y11.274 Z-1.442
G1 X129.461 Y11.235 Z-1.452
G1 X129.486 Y11.193 Z-1.462
G1 X129.507 Y11.147 Z-1.471
G1 X129.522 Y11.099 Z-1.481
G1 X129.531 Y11.050 Z-1.490
G1 X129.534 Y11.001 Z-1.500
G1 X129.534 Y11.001 Z-1.500
G1 X129.531 Y10.951 Z-1.510
G1 X129.522 Y10.902 Z-1.519
G1 X129.507 Y10.854 Z-1.529
G1 X129.486 Y10.809 Z-1.539
G1 X129.461 Y10.766 Z-1.548
G1 X129.430 Y10.727 Z-1.558
G1 X129.395 Y10.692 Z-1.567
G1 X129.355 Y10.661 Z-1.577
G1 X129.313 Y10.635 Z-1.587
G1 X129.267 Y10.615 Z-1.596
G1 X129.220 Y10.600 Z-1.606
G1 X129.171 Y10.591 Z-1.615
G1 X129.121 Y10.588 Z-1.625
G1 X129.071 Y10.591 Z-1.635
G1 X129.022 Y10.600 Z-1.644
G1 X128.974 Y10.615 Z-1.654
G1 X128.929 Y10.635 Z-1.664
G1 X128.886 Y10.661 Z-1.673
G1 X128.847 Y10.692 Z-1.683
G1 X128.812 Y10.727 Z-1.692
G1 X128.781 Y10.766 Z-1.702
G1 X128.755 Y10.809 Z-1.712
G1 X128.735 Y10.854 Z-1.721
G1 X128.720 Y10.902 Z-1.731
G1 X128.711 Y10.951 Z-1.740
G1 X128.708 Y11.001 Z-1.750
G1 X128.711 Y11.050 Z-1.760
G1 X128.720 Y11.099 Z-1.769
G1 X128.735 Y11.147 Z-1.779
G1 X128.755 Y11.193 Z-1.789
G1 X128.781 Y11.235 Z-1.798
G1 X128.812 Y11.274 Z-1.808
G1 X128.847 Y11.310 Z-1.817
G1 X128.886 Y11.340 Z-1.827
G1 X128.929 Y11.366 Z-1.837
G1 X128.974 Y11.387 Z-1.846
G1 X129.022 Y11.402 Z-1.856
G1 X129.071 Y11.410 Z-1.865
G1 X129.121 Y11.414 Z-1.875
G1 X129.171 Y11.410 Z-1.885
G1 X129.220 Y11.402 Z-1.894
G1 X129.267 Y11.387 Z-1.904
G1 X129.313 Y11.366 Z-1.913
G1 X129.355 Y11.340 Z-1.923
G1 X129.395 Y11.310 Z-1.933
G1 X129.430 Y11.274 Z-1.942
G1 X129.461 Y11.235 Z-1.952
G1 X129.486 Y11.193 Z-1.962
G1 X129.507 Y11.147 Z-1.971
G1 X129.522 Y11.099 Z-1.981
G1 X129.531 Y11.050 Z-1.990
G1 X129.534 Y11.001 Z-2.000
G1 X129.534 Y11.001 Z-2.000
G1 X129.531 Y10.951 Z-2.000
G1 X129.522 Y10.902 Z-2.000
G1 X129.507 Y10.854 Z-2.000
G1 X129.486 Y10.809 Z-2.000
G1 X129.461 Y10.766 Z-2.000
G1 X129.430 Y10.727 Z-2.000
G1 X129.395 Y10.692 Z-2.000
G1 X129.355 Y10.661 Z-2.000
G1 X129.313 Y10.635 Z-2.000
G1 X129.267 Y10.615 Z-2.000
G1 X129.220 Y10.600 Z-2.000
G1 X129.171 Y10.591 Z-2.000
G1 X129.121 Y10.588 Z-2.000
G1 X129.071 Y10.591 Z-2.000
G1 X129.022 Y10.600 Z-2.000
G1 X128.974 Y10.615 Z-2.000
G1 X128.929 Y10.635 Z-2.000
G1 X128.886 Y10.661 Z-2.000
G1 X128.847 Y10.692 Z-2.000
G1 X128.812 Y10.727 Z-2.000
G1 X128.781 Y10.766 Z-2.000
G1 X128.755 Y10.809 Z-2.000
G1 X128.735 Y10.854 Z-2.000
G1 X128.720 Y10.902 Z-2.000
G1 X128.711 Y10.951 Z-2.000
G1 X128.708 Y11.001 Z-2.000
G1 X128.711 Y11.050 Z-2.000
G1 X128.720 Y11.099 Z-2.000
G1 X128.735 Y11.147 Z-2.000
G1 X128.755 Y11.193 Z-2.000
G1 X128.781 Y11.235 Z-2.000
G1 X128.812 Y11.274 Z-2.000
G1 X128.847 Y11.310 Z-2.000
G1 X128.886 Y11.340 Z-2.000
G1 X128.929 Y11.366 Z-2.000
G1 X128.974 Y11.387 Z-2.000
G1 X129.022 Y11.402 Z-2.000
G1 X129.071 Y11.410 Z-2.000
G1 X129.121 Y11.414 Z-2.000
G1 X129.171 Y11.410 Z-2.000
G1 X129.220 Y11.402 Z-2.000
G1 X129.267 Y11.387 Z-2.000
G1 X129.313 Y11.366 Z-2.000
G1 X129.355 Y11.340 Z-2.000
G1 X129.395 Y11.310 Z-2.000
G1 X129.430 Y11.274 Z-2.000
G1 X129.461 Y11.235 Z-2.000
G1 X129.486 Y11.193 Z-2.000
G1 X129.507 Y11.147 Z-2.000
G1 X129.522 Y11.099 Z-2.000
G1 X129.531 Y11.050 Z-2.000
G1 X129.534 Y11.001 Z-2.000
G1 Z2.0000 F49.9999

G0 X153.8338 Y11.0007
G1 Z0.5001 F49.9999
G1 F100.0001
G1 X153.834 Y11.001 Z0.500
G1 X153.831 Y10.951 Z0.490
G1 X153.822 Y10.902 Z0.481
G1 X153.807 Y10.854 Z0.471
G1 X153.787 Y10.809 Z0.462
G1 X153.761 Y10.766 Z0.452
G1 X153.730 Y10.727 Z0.442
G1 X153.695 Y10.692 Z0.433
G1 X153.655 Y10.661 Z0.423
G1 X153.613 Y10.635 Z0.414
G1 X153.567 Y10.615 Z0.404
G1 X153.520 Y10.600 Z0.394
G1 X153.471 Y10.591 Z0.385
G1 X153.421 Y10.588 Z0.375
G1 X153.371 Y10.591 Z0.365
G1 X153.322 Y10.600 Z0.356
G1 X153.275 Y10.615 Z0.346
G1 X153.229 Y10.635 Z0.337
G1 X153.187 Y10.661 Z0.327
G1 X153.147 Y10.692 Z0.317
G1 X153.112 Y10.727 Z0.308
G1 X153.081 Y10.766 Z0.298
G1 X153.055 Y10.809 Z0.289
G1 X153.035 Y10.854 Z0.279
G1 X153.020 Y10.902 Z0.269
G1 X153.011 Y10.951 Z0.260
G1 X153.008 Y11.001 Z0.250
G1 X153.011 Y11.050 Z0.240
G1 X153.020 Y11.099 Z0.231
G1 X153.035 Y11.147 Z0.221
G1 X153.055 Y11.193 Z0.212
G1 X153.081 Y11.235 Z0.202
G1 X153.112 Y11.274 Z0.192
G1 X153.147 Y11.310 Z0.183
G1 X153.187 Y11.340 Z0.173
G1 X153.229 Y11.366 Z0.163
G1 X153.275 Y11.387 Z0.154
G1 X153.322 Y11.402 Z0.144
G1 X153.371 Y11.410 Z0.135
G1 X153.421 Y11.414 Z0.125
G1 X153.471 Y11.410 Z0.115
G1 X153.520 Y11.402 Z0.106
G1 X153.567 Y11.387 Z0.096
G1 X153.613 Y11.366 Z0.087
G1 X153.655 Y11.340 Z0.077
G1 X153.695 Y11.310 Z0.067
G1 X153.730 Y11.274 Z0.058
G1 X153.761 Y11.235 Z0.048
G1 X153.787 Y11.193 Z0.038
G1 X153.807 Y11.147 Z0.029
G1 X153.822 Y11.099 Z0.019
G1 X153.831 Y11.050 Z0.010
G1 X153.834 Y11.001 Z0.000
G1 X153.834 Y11.001 Z-0.000
G1 X153.831 Y10.951 Z-0.010
G1 X153.822 Y10.902 Z-0.019
G1 X153.807 Y10.854 Z-0.029
G1 X153.787 Y10.809 Z-0.038
G1 X153.761 Y10.766 Z-0.048
G1 X153.730 Y10.727 Z-0.058
G1 X153.695 Y10.692 Z-0.067
G1 X153.655 Y10.661 Z-0.077
G1 X153.613 Y10.635 Z-0.087
G1 X153.567 Y10.615 Z-0.096
G1 X153.520 Y10.600 Z-0.106
G1 X153.471 Y10.591 Z-0.115
G1 X153.421 Y10.588 Z-0.125
G1 X153.371 Y10.591 Z-0.135
G1 X153.322 Y10.600 Z-0.144
G1 X153.275 Y10.615 Z-0.154
G1 X153.229 Y10.635 Z-0.163
G1 X153.187 Y10.661 Z-0.173
G1 X153.147 Y10.692 Z-0.183
G1 X153.112 Y10.727 Z-0.192
G1 X153.081 Y10.766 Z-0.202
G1 X153.055 Y10.809 Z-0.212
G1 X153.035 Y10.854 Z-0.221
G1 X153.020 Y10.902 Z-0.231
G1 X153.011 Y10.951 Z-0.240
G1 X153.008 Y11.001 Z-0.250
G1 X153.011 Y11.050 Z-0.260
G1 X153.020 Y11.099 Z-0.269
G1 X153.035 Y11.147 Z-0.279
G1 X153.055 Y11.193 Z-0.289
G1 X153.081 Y11.235 Z-0.298
G1 X153.112 Y11.274 Z-0.308
G1 X153.147 Y11.310 Z-0.317
G1 X153.187 Y11.340 Z-0.327
G1 X153.229 Y11.366 Z-0.337
G1 X153.275 Y11.387 Z-0.346
G1 X153.322 Y11.402 Z-0.356
G1 X153.371 Y11.410 Z-0.365
G1 X153.421 Y11.414 Z-0.375
G1 X153.471 Y11.410 Z-0.385
G1 X153.520 Y11.402 Z-0.394
G1 X153.567 Y11.387 Z-0.404
G1 X153.613 Y11.366 Z-0.414
G1 X153.655 Y11.340 Z-0.423
G1 X153.695 Y11.310 Z-0.433
G1 X153.730 Y11.274 Z-0.442
G1 X153.761 Y11.235 Z-0.452
G1 X153.787 Y11.193 Z-0.462
G1 X153.807 Y11.147 Z-0.471
G1 X153.822 Y11.099 Z-0.481
G1 X153.831 Y11.050 Z-0.490
G1 X153.834 Y11.001 Z-0.500
G1 X153.834 Y11.001 Z-0.500
G1 X153.831 Y10.951 Z-0.510
G1 X153.822 Y10.902 Z-0.519
G1 X153.807 Y10.854 Z-0.529
G1 X153.787 Y10.809 Z-0.539
G1 X153.761 Y10.766 Z-0.548
G1 X153.730 Y10.727 Z-0.558
G1 X153.695 Y10.692 Z-0.567
G1 X153.655 Y10.661 Z-0.577
G1 X153.613 Y10.635 Z-0.587
G1 X153.567 Y10.615 Z-0.596
G1 X153.520 Y10.600 Z-0.606
G1 X153.471 Y10.591 Z-0.615
G1 X153.421 Y10.588 Z-0.625
G1 X153.371 Y10.591 Z-0.635
G1 X153.322 Y10.600 Z-0.644
G1 X153.275 Y10.615 Z-0.654
G1 X153.229 Y10.635 Z-0.664
G1 X153.187 Y10.661 Z-0.673
G1 X153.147 Y10.692 Z-0.683
G1 X153.112 Y10.727 Z-0.692
G1 X153.081 Y10.766 Z-0.702
G1 X153.055 Y10.809 Z-0.712
G1 X153.035 Y10.854 Z-0.721
G1 X153.020 Y10.902 Z-0.731
G1 X153.011 Y10.951 Z-0.740
G1 X153.008 Y11.001 Z-0.750
G1 X153.011 Y11.050 Z-0.760
G1 X153.020 Y11.099 Z-0.769
G1 X153.035 Y11.147 Z-0.779
G1 X153.055 Y11.193 Z-0.789
G1 X153.081 Y11.235 Z-0.798
G1 X153.112 Y11.274 Z-0.808
G1 X153.147 Y11.310 Z-0.817
G1 X153.187 Y11.340 Z-0.827
G1 X153.229 Y11.366 Z-0.837
G1 X153.275 Y11.387 Z-0.846
G1 X153.322 Y11.402 Z-0.856
G1 X153.371 Y11.410 Z-0.865
G1 X153.421 Y11.414 Z-0.875
G1 X153.471 Y11.410 Z-0.885
G1 X153.520 Y11.402 Z-0.894
G1 X153.567 Y11.387 Z-0.904
G1 X153.613 Y11.366 Z-0.913
G1 X153.655 Y11.340 Z-0.923
G1 X153.695 Y11.310 Z-0.933
G1 X153.730 Y11.274 Z-0.942
G1 X153.761 Y11.235 Z-0.952
G1 X153.787 Y11.193 Z-0.962
G1 X153.807 Y11.147 Z-0.971
G1 X153.822 Y11.099 Z-0.981
G1 X153.831 Y11.050 Z-0.990
G1 X153.834 Y11.001 Z-1.000
G1 X153.834 Y11.001 Z-1.000
G1 X153.831 Y10.951 Z-1.010
G1 X153.822 Y10.902 Z-1.019
G1 X153.807 Y10.854 Z-1.029
G1 X153.787 Y10.809 Z-1.038
G1 X153.761 Y10.766 Z-1.048
G1 X153.730 Y10.727 Z-1.058
G1 X153.695 Y10.692 Z-1.067
G1 X153.655 Y10.661 Z-1.077
G1 X153.613 Y10.635 Z-1.087
G1 X153.567 Y10.615 Z-1.096
G1 X153.520 Y10.600 Z-1.106
G1 X153.471 Y10.591 Z-1.115
G1 X153.421 Y10.588 Z-1.125
G1 X153.371 Y10.591 Z-1.135
G1 X153.322 Y10.600 Z-1.144
G1 X153.275 Y10.615 Z-1.154
G1 X153.229 Y10.635 Z-1.163
G1 X153.187 Y10.661 Z-1.173
G1 X153.147 Y10.692 Z-1.183
G1 X153.112 Y10.727 Z-1.192
G1 X153.081 Y10.766 Z-1.202
G1 X153.055 Y10.809 Z-1.212
G1 X153.035 Y10.854 Z-1.221
G1 X153.020 Y10.902 Z-1.231
G1 X153.011 Y10.951 Z-1.240
G1 X153.008 Y11.001 Z-1.250
G1 X153.011 Y11.050 Z-1.260
G1 X153.020 Y11.099 Z-1.269
G1 X153.035 Y11.147 Z-1.279
G1 X153.055 Y11.193 Z-1.289
G1 X153.081 Y11.235 Z-1.298
G1 X153.112 Y11.274 Z-1.308
G1 X153.147 Y11.310 Z-1.317
G1 X153.187 Y11.340 Z-1.327
G1 X153.229 Y11.366 Z-1.337
G1 X153.275 Y11.387 Z-1.346
G1 X153.322 Y11.402 Z-1.356
G1 X153.371 Y11.410 Z-1.365
G1 X153.421 Y11.414 Z-1.375
G1 X153.471 Y11.410 Z-1.385
G1 X153.520 Y11.402 Z-1.394
G1 X153.567 Y11.387 Z-1.404
G1 X153.613 Y11.366 Z-1.414
G1 X153.655 Y11.340 Z-1.423
G1 X153.695 Y11.310 Z-1.433
G1 X153.730 Y11.274 Z-1.442
G1 X153.761 Y11.235 Z-1.452
G1 X153.787 Y11.193 Z-1.462
G1 X153.807 Y11.147 Z-1.471
G1 X153.822 Y11.099 Z-1.481
G1 X153.831 Y11.050 Z-1.490
G1 X153.834 Y11.001 Z-1.500
G1 X153.834 Y11.001 Z-1.500
G1 X153.831 Y10.951 Z-1.510
G1 X153.822 Y10.902 Z-1.519
G1 X153.807 Y10.854 Z-1.529
G1 X153.787 Y10.809 Z-1.539
G1 X153.761 Y10.766 Z-1.548
G1 X153.730 Y10.727 Z-1.558
G1 X153.695 Y10.692 Z-1.567
G1 X153.655 Y10.661 Z-1.577
G1 X153.613 Y10.635 Z-1.587
G1 X153.567 Y10.615 Z-1.596
G1 X153.520 Y10.600 Z-1.606
G1 X153.471 Y10.591 Z-1.615
G1 X153.421 Y10.588 Z-1.625
G1 X153.371 Y10.591 Z-1.635
G1 X153.322 Y10.600 Z-1.644
G1 X153.275 Y10.615 Z-1.654
G1 X153.229 Y10.635 Z-1.664
G1 X153.187 Y10.661 Z-1.673
G1 X153.147 Y10.692 Z-1.683
G1 X153.112 Y10.727 Z-1.692
G1 X153.081 Y10.766 Z-1.702
G1 X153.055 Y10.809 Z-1.712
G1 X153.035 Y10.854 Z-1.721
G1 X153.020 Y10.902 Z-1.731
G1 X153.011 Y10.951 Z-1.740
G1 X153.008 Y11.001 Z-1.750
G1 X153.011 Y11.050 Z-1.760
G1 X153.020 Y11.099 Z-1.769
G1 X153.035 Y11.147 Z-1.779
G1 X153.055 Y11.193 Z-1.789
G1 X153.081 Y11.235 Z-1.798
G1 X153.112 Y11.274 Z-1.808
G1 X153.147 Y11.310 Z-1.817
G1 X153.187 Y11.340 Z-1.827
G1 X153.229 Y11.366 Z-1.837
G1 X153.275 Y11.387 Z-1.846
G1 X153.322 Y11.402 Z-1.856
G1 X153.371 Y11.410 Z-1.865
G1 X153.421 Y11.414 Z-1.875
G1 X153.471 Y11.410 Z-1.885
G1 X153.520 Y11.402 Z-1.894
G1 X153.567 Y11.387 Z-1.904
G1 X153.613 Y11.366 Z-1.913
G1 X153.655 Y11.340 Z-1.923
G1 X153.695 Y11.310 Z-1.933
G1 X153.730 Y11.274 Z-1.942
G1 X153.761 Y11.235 Z-1.952
G1 X153.787 Y11.193 Z-1.962
G1 X153.807 Y11.147 Z-1.971
G1 X153.822 Y11.099 Z-1.981
G1 X153.831 Y11.050 Z-1.990
G1 X153.834 Y11.001 Z-2.000
G1 X153.834 Y11.001 Z-2.000
G1 X153.831 Y10.951 Z-2.000
G1 X153.822 Y10.902 Z-2.000
G1 X153.807 Y10.854 Z-2.000
G1 X153.787 Y10.809 Z-2.000
G1 X153.761 Y10.766 Z-2.000
G1 X153.730 Y10.727 Z-2.000
G1 X153.695 Y10.692 Z-2.000
G1 X153.655 Y10.661 Z-2.000
G1 X153.613 Y10.635 Z-2.000
G1 X153.567 Y10.615 Z-2.000
G1 X153.520 Y10.600 Z-2.000
G1 X153.471 Y10.591 Z-2.000
G1 X153.421 Y10.588 Z-2.000
G1 X153.371 Y10.591 Z-2.000
G1 X153.322 Y10.600 Z-2.000
G1 X153.275 Y10.615 Z-2.000
G1 X153.229 Y10.635 Z-2.000
G1 X153.187 Y10.661 Z-2.000
G1 X153.147 Y10.692 Z-2.000
G1 X153.112 Y10.727 Z-2.000
G1 X153.081 Y10.766 Z-2.000
G1 X153.055 Y10.809 Z-2.000
G1 X153.035 Y10.854 Z-2.000
G1 X153.020 Y10.902 Z-2.000
G1 X153.011 Y10.951 Z-2.000
G1 X153.008 Y11.001 Z-2.000
G1 X153.011 Y11.050 Z-2.000
G1 X153.020 Y11.099 Z-2.000
G1 X153.035 Y11.147 Z-2.000
G1 X153.055 Y11.193 Z-2.000
G1 X153.081 Y11.235 Z-2.000
G1 X153.112 Y11.274 Z-2.000
G1 X153.147 Y11.310 Z-2.000
G1 X153.187 Y11.340 Z-2.000
G1 X153.229 Y11.366 Z-2.000
G1 X153.275 Y11.387 Z-2.000
G1 X153.322 Y11.402 Z-2.000
G1 X153.371 Y11.410 Z-2.000
G1 X153.421 Y11.414 Z-2.000
G1 X153.471 Y11.410 Z-2.000
G1 X153.520 Y11.402 Z-2.000
G1 X153.567 Y11.387 Z-2.000
G1 X153.613 Y11.366 Z-2.000
G1 X153.655 Y11.340 Z-2.000
G1 X153.695 Y11.310 Z-2.000
G1 X153.730 Y11.274 Z-2.000
G1 X153.761 Y11.235 Z-2.000
G1 X153.787 Y11.193 Z-2.000
G1 X153.807 Y11.147 Z-2.000
G1 X153.822 Y11.099 Z-2.000
G1 X153.831 Y11.050 Z-2.000
G1 X153.834 Y11.001 Z-2.000
G1 Z2.0000 F49.9999

G0 X178.1340 Y11.0007
G1 Z0.5001 F49.9999
G1 F100.0001
G1 X178.134 Y11.001 Z0.500
G1 X178.131 Y10.951 Z0.490
G1 X178.122 Y10.902 Z0.481
G1 X178.107 Y10.854 Z0.471
G1 X178.087 Y10.809 Z0.462
G1 X178.061 Y10.766 Z0.452
G1 X178.030 Y10.727 Z0.442
G1 X177.995 Y10.692 Z0.433
G1 X177.956 Y10.661 Z0.423
G1 X177.913 Y10.635 Z0.414
G1 X177.868 Y10.615 Z0.404
G1 X177.820 Y10.600 Z0.394
G1 X177.771 Y10.591 Z0.385
G1 X177.721 Y10.588 Z0.375
G1 X177.671 Y10.591 Z0.365
G1 X177.622 Y10.600 Z0.356
G1 X177.575 Y10.615 Z0.346
G1 X177.529 Y10.635 Z0.337
G1 X177.487 Y10.661 Z0.327
G1 X177.447 Y10.692 Z0.317
G1 X177.412 Y10.727 Z0.308
G1 X177.381 Y10.766 Z0.298
G1 X177.356 Y10.809 Z0.289
G1 X177.335 Y10.854 Z0.279
G1 X177.320 Y10.902 Z0.269
G1 X177.311 Y10.951 Z0.260
G1 X177.308 Y11.001 Z0.250
G1 X177.311 Y11.050 Z0.240
G1 X177.320 Y11.099 Z0.231
G1 X177.335 Y11.147 Z0.221
G1 X177.356 Y11.193 Z0.212
G1 X177.381 Y11.235 Z0.202
G1 X177.412 Y11.274 Z0.192
G1 X177.447 Y11.310 Z0.183
G1 X177.487 Y11.340 Z0.173
G1 X177.529 Y11.366 Z0.163
G1 X177.575 Y11.387 Z0.154
G1 X177.622 Y11.402 Z0.144
G1 X177.671 Y11.410 Z0.135
G1 X177.721 Y11.414 Z0.125
G1 X177.771 Y11.410 Z0.115
G1 X177.820 Y11.402 Z0.106
G1 X177.868 Y11.387 Z0.096
G1 X177.913 Y11.366 Z0.087
G1 X177.956 Y11.340 Z0.077
G1 X177.995 Y11.310 Z0.067
G1 X178.030 Y11.274 Z0.058
G1 X178.061 Y11.235 Z0.048
G1 X178.087 Y11.193 Z0.038
G1 X178.107 Y11.147 Z0.029
G1 X178.122 Y11.099 Z0.019
G1 X178.131 Y11.050 Z0.010
G1 X178.134 Y11.001 Z0.000
G1 X178.134 Y11.001 Z-0.000
G1 X178.131 Y10.951 Z-0.010
G1 X178.122 Y10.902 Z-0.019
G1 X178.107 Y10.854 Z-0.029
G1 X178.087 Y10.809 Z-0.038
G1 X178.061 Y10.766 Z-0.048
G1 X178.030 Y10.727 Z-0.058
G1 X177.995 Y10.692 Z-0.067
G1 X177.956 Y10.661 Z-0.077
G1 X177.913 Y10.635 Z-0.087
G1 X177.868 Y10.615 Z-0.096
G1 X177.820 Y10.600 Z-0.106
G1 X177.771 Y10.591 Z-0.115
G1 X177.721 Y10.588 Z-0.125
G1 X177.671 Y10.591 Z-0.135
G1 X177.622 Y10.600 Z-0.144
G1 X177.575 Y10.615 Z-0.154
G1 X177.529 Y10.635 Z-0.163
G1 X177.487 Y10.661 Z-0.173
G1 X177.447 Y10.692 Z-0.183
G1 X177.412 Y10.727 Z-0.192
G1 X177.381 Y10.766 Z-0.202
G1 X177.356 Y10.809 Z-0.212
G1 X177.335 Y10.854 Z-0.221
G1 X177.320 Y10.902 Z-0.231
G1 X177.311 Y10.951 Z-0.240
G1 X177.308 Y11.001 Z-0.250
G1 X177.311 Y11.050 Z-0.260
G1 X177.320 Y11.099 Z-0.269
G1 X177.335 Y11.147 Z-0.279
G1 X177.356 Y11.193 Z-0.289
G1 X177.381 Y11.235 Z-0.298
G1 X177.412 Y11.274 Z-0.308
G1 X177.447 Y11.310 Z-0.317
G1 X177.487 Y11.340 Z-0.327
G1 X177.529 Y11.366 Z-0.337
G1 X177.575 Y11.387 Z-0.346
G1 X177.622 Y11.402 Z-0.356
G1 X177.671 Y11.410 Z-0.365
G1 X177.721 Y11.414 Z-0.375
G1 X177.771 Y11.410 Z-0.385
G1 X177.820 Y11.402 Z-0.394
G1 X177.868 Y11.387 Z-0.404
G1 X177.913 Y11.366 Z-0.414
G1 X177.956 Y11.340 Z-0.423
G1 X177.995 Y11.310 Z-0.433
G1 X178.030 Y11.274 Z-0.442
G1 X178.061 Y11.235 Z-0.452
G1 X178.087 Y11.193 Z-0.462
G1 X178.107 Y11.147 Z-0.471
G1 X178.122 Y11.099 Z-0.481
G1 X178.131 Y11.050 Z-0.490
G1 X178.134 Y11.001 Z-0.500
G1 X178.134 Y11.001 Z-0.500
G1 X178.131 Y10.951 Z-0.510
G1 X178.122 Y10.902 Z-0.519
G1 X178.107 Y10.854 Z-0.529
G1 X178.087 Y10.809 Z-0.539
G1 X178.061 Y10.766 Z-0.548
G1 X178.030 Y10.727 Z-0.558
G1 X177.995 Y10.692 Z-0.567
G1 X177.956 Y10.661 Z-0.577
G1 X177.913 Y10.635 Z-0.587
G1 X177.868 Y10.615 Z-0.596
G1 X177.820 Y10.600 Z-0.606
G1 X177.771 Y10.591 Z-0.615
G1 X177.721 Y10.588 Z-0.625
G1 X177.671 Y10.591 Z-0.635
G1 X177.622 Y10.600 Z-0.644
G1 X177.575 Y10.615 Z-0.654
G1 X177.529 Y10.635 Z-0.664
G1 X177.487 Y10.661 Z-0.673
G1 X177.447 Y10.692 Z-0.683
G1 X177.412 Y10.727 Z-0.692
G1 X177.381 Y10.766 Z-0.702
G1 X177.356 Y10.809 Z-0.712
G1 X177.335 Y10.854 Z-0.721
G1 X177.320 Y10.902 Z-0.731
G1 X177.311 Y10.951 Z-0.740
G1 X177.308 Y11.001 Z-0.750
G1 X177.311 Y11.050 Z-0.760
G1 X177.320 Y11.099 Z-0.769
G1 X177.335 Y11.147 Z-0.779
G1 X177.356 Y11.193 Z-0.789
G1 X177.381 Y11.235 Z-0.798
G1 X177.412 Y11.274 Z-0.808
G1 X177.447 Y11.310 Z-0.817
G1 X177.487 Y11.340 Z-0.827
G1 X177.529 Y11.366 Z-0.837
G1 X177.575 Y11.387 Z-0.846
G1 X177.622 Y11.402 Z-0.856
G1 X177.671 Y11.410 Z-0.865
G1 X177.721 Y11.414 Z-0.875
G1 X177.771 Y11.410 Z-0.885
G1 X177.820 Y11.402 Z-0.894
G1 X177.868 Y11.387 Z-0.904
G1 X177.913 Y11.366 Z-0.913
G1 X177.956 Y11.340 Z-0.923
G1 X177.995 Y11.310 Z-0.933
G1 X178.030 Y11.274 Z-0.942
G1 X178.061 Y11.235 Z-0.952
G1 X178.087 Y11.193 Z-0.962
G1 X178.107 Y11.147 Z-0.971
G1 X178.122 Y11.099 Z-0.981
G1 X178.131 Y11.050 Z-0.990
G1 X178.134 Y11.001 Z-1.000
G1 X178.134 Y11.001 Z-1.000
G1 X178.131 Y10.951 Z-1.010
G1 X178.122 Y10.902 Z-1.019
G1 X178.107 Y10.854 Z-1.029
G1 X178.087 Y10.809 Z-1.038
G1 X178.061 Y10.766 Z-1.048
G1 X178.030 Y10.727 Z-1.058
G1 X177.995 Y10.692 Z-1.067
G1 X177.956 Y10.661 Z-1.077
G1 X177.913 Y10.635 Z-1.087
G1 X177.868 Y10.615 Z-1.096
G1 X177.820 Y10.600 Z-1.106
G1 X177.771 Y10.591 Z-1.115
G1 X177.721 Y10.588 Z-1.125
G1 X177.671 Y10.591 Z-1.135
G1 X177.622 Y10.600 Z-1.144
G1 X177.575 Y10.615 Z-1.154
G1 X177.529 Y10.635 Z-1.163
G1 X177.487 Y10.661 Z-1.173
G1 X177.447 Y10.692 Z-1.183
G1 X177.412 Y10.727 Z-1.192
G1 X177.381 Y10.766 Z-1.202
G1 X177.356 Y10.809 Z-1.212
G1 X177.335 Y10.854 Z-1.221
G1 X177.320 Y10.902 Z-1.231
G1 X177.311 Y10.951 Z-1.240
G1 X177.308 Y11.001 Z-1.250
G1 X177.311 Y11.050 Z-1.260
G1 X177.320 Y11.099 Z-1.269
G1 X177.335 Y11.147 Z-1.279
G1 X177.356 Y11.193 Z-1.289
G1 X177.381 Y11.235 Z-1.298
G1 X177.412 Y11.274 Z-1.308
G1 X177.447 Y11.310 Z-1.317
G1 X177.487 Y11.340 Z-1.327
G1 X177.529 Y11.366 Z-1.337
G1 X177.575 Y11.387 Z-1.346
G1 X177.622 Y11.402 Z-1.356
G1 X177.671 Y11.410 Z-1.365
G1 X177.721 Y11.414 Z-1.375
G1 X177.771 Y11.410 Z-1.385
G1 X177.820 Y11.402 Z-1.394
G1 X177.868 Y11.387 Z-1.404
G1 X177.913 Y11.366 Z-1.414
G1 X177.956 Y11.340 Z-1.423
G1 X177.995 Y11.310 Z-1.433
G1 X178.030 Y11.274 Z-1.442
G1 X178.061 Y11.235 Z-1.452
G1 X178.087 Y11.193 Z-1.462
G1 X178.107 Y11.147 Z-1.471
G1 X178.122 Y11.099 Z-1.481
G1 X178.131 Y11.050 Z-1.490
G1 X178.134 Y11.001 Z-1.500
G1 X178.134 Y11.001 Z-1.500
G1 X178.131 Y10.951 Z-1.510
G1 X178.122 Y10.902 Z-1.519
G1 X178.107 Y10.854 Z-1.529
G1 X178.087 Y10.809 Z-1.539
G1 X178.061 Y10.766 Z-1.548
G1 X178.030 Y10.727 Z-1.558
G1 X177.995 Y10.692 Z-1.567
G1 X177.956 Y10.661 Z-1.577
G1 X177.913 Y10.635 Z-1.587
G1 X177.868 Y10.615 Z-1.596
G1 X177.820 Y10.600 Z-1.606
G1 X177.771 Y10.591 Z-1.615
G1 X177.721 Y10.588 Z-1.625
G1 X177.671 Y10.591 Z-1.635
G1 X177.622 Y10.600 Z-1.644
G1 X177.575 Y10.615 Z-1.654
G1 X177.529 Y10.635 Z-1.664
G1 X177.487 Y10.661 Z-1.673
G1 X177.447 Y10.692 Z-1.683
G1 X177.412 Y10.727 Z-1.692
G1 X177.381 Y10.766 Z-1.702
G1 X177.356 Y10.809 Z-1.712
G1 X177.335 Y10.854 Z-1.721
G1 X177.320 Y10.902 Z-1.731
G1 X177.311 Y10.951 Z-1.740
G1 X177.308 Y11.001 Z-1.750
G1 X177.311 Y11.050 Z-1.760
G1 X177.320 Y11.099 Z-1.769
G1 X177.335 Y11.147 Z-1.779
G1 X177.356 Y11.193 Z-1.789
G1 X177.381 Y11.235 Z-1.798
G1 X177.412 Y11.274 Z-1.808
G1 X177.447 Y11.310 Z-1.817
G1 X177.487 Y11.340 Z-1.827
G1 X177.529 Y11.366 Z-1.837
G1 X177.575 Y11.387 Z-1.846
G1 X177.622 Y11.402 Z-1.856
G1 X177.671 Y11.410 Z-1.865
G1 X177.721 Y11.414 Z-1.875
G1 X177.771 Y11.410 Z-1.885
G1 X177.820 Y11.402 Z-1.894
G1 X177.868 Y11.387 Z-1.904
G1 X177.913 Y11.366 Z-1.913
G1 X177.956 Y11.340 Z-1.923
G1 X177.995 Y11.310 Z-1.933
G1 X178.030 Y11.274 Z-1.942
G1 X178.061 Y11.235 Z-1.952
G1 X178.087 Y11.193 Z-1.962
G1 X178.107 Y11.147 Z-1.971
G1 X178.122 Y11.099 Z-1.981
G1 X178.131 Y11.050 Z-1.990
G1 X178.134 Y11.001 Z-2.000
G1 X178.134 Y11.001 Z-2.000
G1 X178.131 Y10.951 Z-2.000
G1 X178.122 Y10.902 Z-2.000
G1 X178.107 Y10.854 Z-2.000
G1 X178.087 Y10.809 Z-2.000
G1 X178.061 Y10.766 Z-2.000
G1 X178.030 Y10.727 Z-2.000
G1 X177.995 Y10.692 Z-2.000
G1 X177.956 Y10.661 Z-2.000
G1 X177.913 Y10.635 Z-2.000
G1 X177.868 Y10.615 Z-2.000
G1 X177.820 Y10.600 Z-2.000
G1 X177.771 Y10.591 Z-2.000
G1 X177.721 Y10.588 Z-2.000
G1 X177.671 Y10.591 Z-2.000
G1 X177.622 Y10.600 Z-2.000
G1 X177.575 Y10.615 Z-2.000
G1 X177.529 Y10.635 Z-2.000
G1 X177.487 Y10.661 Z-2.000
G1 X177.447 Y10.692 Z-2.000
G1 X177.412 Y10.727 Z-2.000
G1 X177.381 Y10.766 Z-2.000
G1 X177.356 Y10.809 Z-2.000
G1 X177.335 Y10.854 Z-2.000
G1 X177.320 Y10.902 Z-2.000
G1 X177.311 Y10.951 Z-2.000
G1 X177.308 Y11.001 Z-2.000
G1 X177.311 Y11.050 Z-2.000
G1 X177.320 Y11.099 Z-2.000
G1 X177.335 Y11.147 Z-2.000
G1 X177.356 Y11.193 Z-2.000
G1 X177.381 Y11.235 Z-2.000
G1 X177.412 Y11.274 Z-2.000
G1 X177.447 Y11.310 Z-2.000
G1 X177.487 Y11.340 Z-2.000
G1 X177.529 Y11.366 Z-2.000
G1 X177.575 Y11.387 Z-2.000
G1 X177.622 Y11.402 Z-2.000
G1 X177.671 Y11.410 Z-2.000
G1 X177.721 Y11.414 Z-2.000
G1 X177.771 Y11.410 Z-2.000
G1 X177.820 Y11.402 Z-2.000
G1 X177.868 Y11.387 Z-2.000
G1 X177.913 Y11.366 Z-2.000
G1 X177.956 Y11.340 Z-2.000
G1 X177.995 Y11.310 Z-2.000
G1 X178.030 Y11.274 Z-2.000
G1 X178.061 Y11.235 Z-2.000
G1 X178.087 Y11.193 Z-2.000
G1 X178.107 Y11.147 Z-2.000
G1 X178.122 Y11.099 Z-2.000
G1 X178.131 Y11.050 Z-2.000
G1 X178.134 Y11.001 Z-2.000
G1 Z2.0000 F49.9999

G00 Z10.0000 ( All done -- retract )

M5      (Spindle off.)
M9      (Coolant off.)
M2      (Program end.)

