( pcb2gcode 2.5.0 )
( Software-independent Gcode )
( This file uses a mill head of 0.12500inch to drill the 2 hole sizes. )
( Hole sizes: [0.1693inch] [0.1575inch] )

G94       (Inches per minute feed rate.)
G20       (Units == INCHES.)
G91.1     (Incremental arc distance mode.)
G90       (Absolute coordinates.)
S10000    (RPM spindle speed.)

G01 F3.93701 (Feedrate)
G00 Z0.39370 (Retract to tool change height)
T2
M5        (Spindle stop.)
G04 P1.00000
(MSG, Change tool bit to drill size 0.12500inch)
M6        (Tool change.)
M0        (Temporary machine stop.)
M3        (Spindle on clockwise.)
G04 P1.00000
G00 Z0.07874

G0 X0.33985 Y0.43310
G1 Z0.01969 F1.96850
G1 F3.93701
G2 X0.33985 Y0.43310 Z-0.00000 I-0.02215 J0.00000
G2 X0.33985 Y0.43310 Z-0.01969 I-0.02215 J0.00000
G2 X0.33985 Y0.43310 Z-0.03937 I-0.02215 J0.00000
G2 X0.33985 Y0.43310 Z-0.05906 I-0.02215 J0.00000
G2 X0.33985 Y0.43310 Z-0.07874 I-0.02215 J0.00000
G2 X0.33985 Y0.43310 I-0.02215 J0.00000
G1 Z0.07874 F1.96850

G0 X1.93435 Y0.43310
G1 Z0.01969 F1.96850
G1 F3.93701
G2 X1.93435 Y0.43310 Z-0.00000 I-0.02215 J0.00000
G2 X1.93435 Y0.43310 Z-0.01969 I-0.02215 J0.00000
G2 X1.93435 Y0.43310 Z-0.03937 I-0.02215 J0.00000
G2 X1.93435 Y0.43310 Z-0.05906 I-0.02215 J0.00000
G2 X1.93435 Y0.43310 Z-0.07874 I-0.02215 J0.00000
G2 X1.93435 Y0.43310 I-0.02215 J0.00000
G1 Z0.07874 F1.96850

G0 X4.31625 Y0.43310
G1 Z0.01969 F1.96850
G1 F3.93701
G2 X4.31625 Y0.43310 Z-0.00000 I-0.02215 J0.00000
G2 X4.31625 Y0.43310 Z-0.01969 I-0.02215 J0.00000
G2 X4.31625 Y0.43310 Z-0.03937 I-0.02215 J0.00000
G2 X4.31625 Y0.43310 Z-0.05906 I-0.02215 J0.00000
G2 X4.31625 Y0.43310 Z-0.07874 I-0.02215 J0.00000
G2 X4.31625 Y0.43310 I-0.02215 J0.00000
G1 Z0.07874 F1.96850

G0 X7.82015 Y0.43310
G1 Z0.01969 F1.96850
G1 F3.93701
G2 X7.82015 Y0.43310 Z-0.00000 I-0.02215 J0.00000
G2 X7.82015 Y0.43310 Z-0.01969 I-0.02215 J0.00000
G2 X7.82015 Y0.43310 Z-0.03937 I-0.02215 J0.00000
G2 X7.82015 Y0.43310 Z-0.05906 I-0.02215 J0.00000
G2 X7.82015 Y0.43310 Z-0.07874 I-0.02215 J0.00000
G2 X7.82015 Y0.43310 I-0.02215 J0.00000
G1 Z0.07874 F1.96850

G0 X1.13515 Y0.43310
G1 Z0.01969 F1.96850
G1 F3.93701
G2 X1.13515 Y0.43310 Z-0.00000 I-0.01625 J0.00000
G2 X1.13515 Y0.43310 Z-0.01969 I-0.01625 J0.00000
G2 X1.13515 Y0.43310 Z-0.03937 I-0.01625 J0.00000
G2 X1.13515 Y0.43310 Z-0.05906 I-0.01625 J0.00000
G2 X1.13515 Y0.43310 Z-0.07874 I-0.01625 J0.00000
G2 X1.13515 Y0.43310 I-0.01625 J0.00000
G1 Z0.07874 F1.96850

G0 X5.09975 Y0.43310
G1 Z0.01969 F1.96850
G1 F3.93701
G2 X5.09975 Y0.43310 Z-0.00000 I-0.01625 J0.00000
G2 X5.09975 Y0.43310 Z-0.01969 I-0.01625 J0.00000
G2 X5.09975 Y0.43310 Z-0.03937 I-0.01625 J0.00000
G2 X5.09975 Y0.43310 Z-0.05906 I-0.01625 J0.00000
G2 X5.09975 Y0.43310 Z-0.07874 I-0.01625 J0.00000
G2 X5.09975 Y0.43310 I-0.01625 J0.00000
G1 Z0.07874 F1.96850

G0 X6.05645 Y0.43310
G1 Z0.01969 F1.96850
G1 F3.93701
G2 X6.05645 Y0.43310 Z-0.00000 I-0.01625 J0.00000
G2 X6.05645 Y0.43310 Z-0.01969 I-0.01625 J0.00000
G2 X6.05645 Y0.43310 Z-0.03937 I-0.01625 J0.00000
G2 X6.05645 Y0.43310 Z-0.05906 I-0.01625 J0.00000
G2 X6.05645 Y0.43310 Z-0.07874 I-0.01625 J0.00000
G2 X6.05645 Y0.43310 I-0.01625 J0.00000
G1 Z0.07874 F1.96850

G0 X7.01315 Y0.43310
G1 Z0.01969 F1.96850
G1 F3.93701
G2 X7.01315 Y0.43310 Z-0.00000 I-0.01625 J0.00000
G2 X7.01315 Y0.43310 Z-0.01969 I-0.01625 J0.00000
G2 X7.01315 Y0.43310 Z-0.03937 I-0.01625 J0.00000
G2 X7.01315 Y0.43310 Z-0.05906 I-0.01625 J0.00000
G2 X7.01315 Y0.43310 Z-0.07874 I-0.01625 J0.00000
G2 X7.01315 Y0.43310 I-0.01625 J0.00000
G1 Z0.07874 F1.96850

G00 Z0.393701 ( All done -- retract )

M5      (Spindle off.)
G04 P1.000000
M9      (Coolant off.)
M2      (Program end.)

