( pcb2gcode 2.5.0 )
( Software-independent Gcode )
( This file uses a mill head of 0.12500inch to drill the 2 hole sizes. )
( Hole sizes: [0.1693inch] [0.1575inch] )

G94       (Inches per minute feed rate.)
G21       (Units == MM.)
G91.1     (Incremental arc distance mode.)
G90       (Absolute coordinates.)
S10000    (RPM spindle speed.)

G01 F100.0001 (Feedrate)
G00 Z10.0000 (Retract to tool change height)
T2
M5        (Spindle stop.)
(MSG, Change tool bit to drill size 0.12500inch)
M6        (Tool change.)
M0        (Temporary machine stop.)
M3        (Spindle on clockwise.)
G00 Z2.0000

G0 X8.6322 Y11.0007
G1 Z0.5001 F49.9999
G1 F100.0001
G2 X8.6322 Y11.0007 Z-0.0000 I-0.5626 J0.0000
G2 X8.6322 Y11.0007 Z-0.5001 I-0.5626 J0.0000
G2 X8.6322 Y11.0007 Z-1.0000 I-0.5626 J0.0000
G2 X8.6322 Y11.0007 Z-1.5001 I-0.5626 J0.0000
G2 X8.6322 Y11.0007 Z-2.0000 I-0.5626 J0.0000
G2 X8.6322 Y11.0007 I-0.5626 J0.0000
G1 Z2.0000 F49.9999

G0 X49.1325 Y11.0007
G1 Z0.5001 F49.9999
G1 F100.0001
G2 X49.1325 Y11.0007 Z-0.0000 I-0.5626 J0.0000
G2 X49.1325 Y11.0007 Z-0.5001 I-0.5626 J0.0000
G2 X49.1325 Y11.0007 Z-1.0000 I-0.5626 J0.0000
G2 X49.1325 Y11.0007 Z-1.5001 I-0.5626 J0.0000
G2 X49.1325 Y11.0007 Z-2.0000 I-0.5626 J0.0000
G2 X49.1325 Y11.0007 I-0.5626 J0.0000
G1 Z2.0000 F49.9999

G0 X109.6328 Y11.0007
G1 Z0.5001 F49.9999
G1 F100.0001
G2 X109.6328 Y11.0007 Z-0.0000 I-0.5626 J0.0000
G2 X109.6328 Y11.0007 Z-0.5001 I-0.5626 J0.0000
G2 X109.6328 Y11.0007 Z-1.0000 I-0.5626 J0.0000
G2 X109.6328 Y11.0007 Z-1.5001 I-0.5626 J0.0000
G2 X109.6328 Y11.0007 Z-2.0000 I-0.5626 J0.0000
G2 X109.6328 Y11.0007 I-0.5626 J0.0000
G1 Z2.0000 F49.9999

G0 X198.6318 Y11.0007
G1 Z0.5001 F49.9999
G1 F100.0001
G2 X198.6318 Y11.0007 Z-0.0000 I-0.5626 J0.0000
G2 X198.6318 Y11.0007 Z-0.5001 I-0.5626 J0.0000
G2 X198.6318 Y11.0007 Z-1.0000 I-0.5626 J0.0000
G2 X198.6318 Y11.0007 Z-1.5001 I-0.5626 J0.0000
G2 X198.6318 Y11.0007 Z-2.0000 I-0.5626 J0.0000
G2 X198.6318 Y11.0007 I-0.5626 J0.0000
G1 Z2.0000 F49.9999

G0 X28.8328 Y11.0007
G1 Z0.5001 F49.9999
G1 F100.0001
G2 X28.8328 Y11.0007 Z-0.0000 I-0.4128 J0.0000
G2 X28.8328 Y11.0007 Z-0.5001 I-0.4128 J0.0000
G2 X28.8328 Y11.0007 Z-1.0000 I-0.4128 J0.0000
G2 X28.8328 Y11.0007 Z-1.5001 I-0.4128 J0.0000
G2 X28.8328 Y11.0007 Z-2.0000 I-0.4128 J0.0000
G2 X28.8328 Y11.0007 I-0.4128 J0.0000
G1 Z2.0000 F49.9999

G0 X129.5336 Y11.0007
G1 Z0.5001 F49.9999
G1 F100.0001
G2 X129.5336 Y11.0007 Z-0.0000 I-0.4128 J0.0000
G2 X129.5336 Y11.0007 Z-0.5001 I-0.4128 J0.0000
G2 X129.5336 Y11.0007 Z-1.0000 I-0.4128 J0.0000
G2 X129.5336 Y11.0007 Z-1.5001 I-0.4128 J0.0000
G2 X129.5336 Y11.0007 Z-2.0000 I-0.4128 J0.0000
G2 X129.5336 Y11.0007 I-0.4128 J0.0000
G1 Z2.0000 F49.9999

G0 X153.8338 Y11.0007
G1 Z0.5001 F49.9999
G1 F100.0001
G2 X153.8338 Y11.0007 Z-0.0000 I-0.4128 J0.0000
G2 X153.8338 Y11.0007 Z-0.5001 I-0.4128 J0.0000
G2 X153.8338 Y11.0007 Z-1.0000 I-0.4128 J0.0000
G2 X153.8338 Y11.0007 Z-1.5001 I-0.4128 J0.0000
G2 X153.8338 Y11.0007 Z-2.0000 I-0.4128 J0.0000
G2 X153.8338 Y11.0007 I-0.4128 J0.0000
G1 Z2.0000 F49.9999

G0 X178.1340 Y11.0007
G1 Z0.5001 F49.9999
G1 F100.0001
G2 X178.1340 Y11.0007 Z-0.0000 I-0.4128 J0.0000
G2 X178.1340 Y11.0007 Z-0.5001 I-0.4128 J0.0000
G2 X178.1340 Y11.0007 Z-1.0000 I-0.4128 J0.0000
G2 X178.1340 Y11.0007 Z-1.5001 I-0.4128 J0.0000
G2 X178.1340 Y11.0007 Z-2.0000 I-0.4128 J0.0000
G2 X178.1340 Y11.0007 I-0.4128 J0.0000
G1 Z2.0000 F49.9999

G00 Z10.0000 ( All done -- retract )

M5      (Spindle off.)
M9      (Coolant off.)
M2      (Program end.)

