( pcb2gcode 2.5.0 )
( Software-independent Gcode )

G94 ( Inches per minute feed rate. )
G21 ( Units == MM. )

G90 ( Absolute coordinates. )
G00 S10000 ( RPM spindle speed. )
G64 P0.00040 ( set maximum deviation from commanded toolpath )
G01 F100.0001 ( Feedrate. )


G00 Z10.0000 (Retract to tool change height)
T0
M5      (Spindle stop.)
(MSG, Change tool bit to cutter diameter 0.12500in)
M6      (Tool change.)
M0      (Temporary machine stop.)
M3 ( Spindle on clockwise. )
G00 Z2.0000 ( retract )

G00 X204.6300 Y10.4772 ( rapid move to begin. )
G01 Z-0.4501 F49.9999 ( plunge. )
G01 F100.0001
G01 X204.6300 Y11.5227
G01 X204.6214 Y11.6886
G01 X204.5955 Y11.8527
G01 X204.3781 Y12.8750
G01 X204.3351 Y13.0355
G01 X204.2754 Y13.1907
G01 X203.8505 Y14.1458
G01 X203.7751 Y14.2938
G01 X203.6844 Y14.4330
G01 X203.0700 Y15.2786
G01 X202.9656 Y15.4079
G01 X202.8480 Y15.5252
G01 X202.0712 Y16.2248
G01 X201.9422 Y16.3294
G01 X201.8027 Y16.4198
G01 X200.8975 Y16.9426
G01 X200.7494 Y17.0180
G01 X200.5942 Y17.0774
G01 X199.6001 Y17.4005
G01 X199.4395 Y17.4434
G01 X199.2754 Y17.4696
G01 X198.2361 Y17.5788
G01 X198.0700 Y17.5875
G01 X196.1479 Y17.5875
G01 X195.7959 Y17.6220
G01 X195.5325 Y17.7020
G01 X195.2894 Y17.8318
G01 X195.0766 Y18.0066
G01 X194.9021 Y18.2194
G01 X194.7720 Y18.4622
G01 X194.6923 Y18.7259
G01 X194.6115 Y19.5458
G01 X194.5886 Y19.6997
G01 X194.5508 Y19.8509
G01 X194.4370 Y20.2263
G01 X194.3844 Y20.3728
G01 X194.3179 Y20.5138
G01 X194.1330 Y20.8595
G01 X193.9602 Y21.1181
G01 X193.7113 Y21.4213
G01 X193.6067 Y21.5367
G01 X193.4914 Y21.6413
G01 X193.1883 Y21.8900
G01 X193.0631 Y21.9829
G01 X192.9295 Y22.0629
G01 X192.5838 Y22.2479
G01 X192.2963 Y22.3667
G01 X191.9211 Y22.4808
G01 X191.7700 Y22.5186
G01 X191.6158 Y22.5415
G01 X191.2257 Y22.5798
G01 X191.0700 Y22.5875
G01 X15.0701 Y22.5875
G01 X14.9144 Y22.5798
G01 X14.5242 Y22.5415
G01 X14.3700 Y22.5186
G01 X14.2189 Y22.4808
G01 X13.8438 Y22.3667
G01 X13.5562 Y22.2479
G01 X13.2105 Y22.0629
G01 X13.0769 Y21.9829
G01 X12.9517 Y21.8900
G01 X12.6487 Y21.6413
G01 X12.4287 Y21.4213
G01 X12.1801 Y21.1183
G01 X12.0871 Y20.9931
G01 X12.0071 Y20.8595
G01 X11.8222 Y20.5138
G01 X11.7030 Y20.2263
G01 X11.5893 Y19.8509
G01 X11.5514 Y19.6997
G01 X11.5286 Y19.5458
G01 X11.4478 Y18.7259
G01 X11.3680 Y18.4622
G01 X11.2380 Y18.2194
G01 X11.0635 Y18.0066
G01 X10.8506 Y17.8318
G01 X10.6075 Y17.7020
G01 X10.3441 Y17.6220
G01 X9.9921 Y17.5875
G01 X8.0701 Y17.5875
G01 X7.9040 Y17.5788
G01 X6.8646 Y17.4696
G01 X6.7005 Y17.4434
G01 X6.5400 Y17.4005
G01 X5.5458 Y17.0774
G01 X5.3906 Y17.0180
G01 X5.2426 Y16.9426
G01 X4.3373 Y16.4198
G01 X4.1981 Y16.3294
G01 X4.0688 Y16.2248
G01 X3.2921 Y15.5252
G01 X3.1745 Y15.4079
G01 X3.0701 Y15.2786
G01 X2.4557 Y14.4330
G01 X2.3650 Y14.2938
G01 X2.2896 Y14.1458
G01 X1.8646 Y13.1907
G01 X1.8049 Y13.0355
G01 X1.7620 Y12.8750
G01 X1.5446 Y11.8527
G01 X1.5187 Y11.6886
G01 X1.5100 Y11.5227
G01 X1.5100 Y10.4772
G01 X1.5187 Y10.3114
G01 X1.5446 Y10.1473
G01 X1.7620 Y9.1247
G01 X1.8049 Y8.9644
G01 X1.8646 Y8.8092
G01 X2.2896 Y7.8542
G01 X2.3650 Y7.7061
G01 X2.4557 Y7.5669
G01 X3.0701 Y6.7211
G01 X3.1745 Y6.5921
G01 X3.2921 Y6.4747
G01 X4.0688 Y5.7752
G01 X4.1981 Y5.6705
G01 X4.3373 Y5.5801
G01 X5.2426 Y5.0574
G01 X5.3906 Y4.9820
G01 X5.5458 Y4.9225
G01 X6.5400 Y4.5994
G01 X6.7005 Y4.5565
G01 X6.8646 Y4.5303
G01 X7.9040 Y4.4211
G01 X8.0701 Y4.4125
G01 X9.9921 Y4.4125
G01 X10.3441 Y4.3779
G01 X10.6075 Y4.2979
G01 X10.8506 Y4.1681
G01 X11.0635 Y3.9934
G01 X11.2382 Y3.7805
G01 X11.3680 Y3.5375
G01 X11.4478 Y3.2741
G01 X11.5286 Y2.4541
G01 X11.5514 Y2.3000
G01 X11.5893 Y2.1488
G01 X11.7030 Y1.7737
G01 X11.8222 Y1.4862
G01 X12.0071 Y1.1405
G01 X12.0871 Y1.0069
G01 X12.1801 Y0.8816
G01 X12.4287 Y0.5786
G01 X12.6487 Y0.3586
G01 X12.9517 Y0.1100
G01 X13.2105 Y-0.0630
G01 X13.5562 Y-0.2476
G01 X13.6972 Y-0.3145
G01 X13.8440 Y-0.3670
G01 X14.2192 Y-0.4808
G01 X14.5242 Y-0.5415
G01 X14.9144 Y-0.5799
G01 X15.0701 Y-0.5875
G01 X191.0700 Y-0.5875
G01 X191.2257 Y-0.5799
G01 X191.6158 Y-0.5415
G01 X191.9209 Y-0.4808
G01 X192.2963 Y-0.3670
G01 X192.4428 Y-0.3145
G01 X192.5838 Y-0.2476
G01 X192.9295 Y-0.0630
G01 X193.1883 Y0.1100
G01 X193.4914 Y0.3586
G01 X193.6067 Y0.4633
G01 X193.7113 Y0.5786
G01 X193.9602 Y0.8819
G01 X194.1330 Y1.1405
G01 X194.3179 Y1.4862
G01 X194.3844 Y1.6271
G01 X194.4370 Y1.7737
G01 X194.5508 Y2.1488
G01 X194.5886 Y2.3000
G01 X194.6115 Y2.4541
G01 X194.6923 Y3.2741
G01 X194.7720 Y3.5375
G01 X194.9021 Y3.7805
G01 X195.0766 Y3.9934
G01 X195.2894 Y4.1681
G01 X195.5325 Y4.2979
G01 X195.7959 Y4.3779
G01 X196.1479 Y4.4125
G01 X198.0700 Y4.4125
G01 X198.2361 Y4.4211
G01 X199.2754 Y4.5303
G01 X199.4395 Y4.5565
G01 X199.6001 Y4.5994
G01 X200.5942 Y4.9225
G01 X200.7494 Y4.9820
G01 X200.8975 Y5.0574
G01 X201.8027 Y5.5801
G01 X201.9422 Y5.6705
G01 X202.0712 Y5.7752
G01 X202.8480 Y6.4747
G01 X202.9656 Y6.5921
G01 X203.0700 Y6.7211
G01 X203.6844 Y7.5669
G01 X203.7751 Y7.7061
G01 X203.8505 Y7.8542
G01 X204.2754 Y8.8092
G01 X204.3351 Y8.9644
G01 X204.3781 Y9.1247
G01 X204.5955 Y10.1473
G01 X204.6214 Y10.3114
G01 X204.6300 Y10.4772
G01 Z-0.8999 F49.9999 ( plunge. )
G01 F100.0001
G01 X204.6300 Y11.5227
G01 X204.6214 Y11.6886
G01 X204.5955 Y11.8527
G01 X204.3781 Y12.8750
G01 X204.3351 Y13.0355
G01 X204.2754 Y13.1907
G01 X203.8505 Y14.1458
G01 X203.7751 Y14.2938
G01 X203.6844 Y14.4330
G01 X203.0700 Y15.2786
G01 X202.9656 Y15.4079
G01 X202.8480 Y15.5252
G01 X202.0712 Y16.2248
G01 X201.9422 Y16.3294
G01 X201.8027 Y16.4198
G01 X200.8975 Y16.9426
G01 X200.7494 Y17.0180
G01 X200.5942 Y17.0774
G01 X199.6001 Y17.4005
G01 X199.4395 Y17.4434
G01 X199.2754 Y17.4696
G01 X198.2361 Y17.5788
G01 X198.0700 Y17.5875
G01 X196.1479 Y17.5875
G01 X195.7959 Y17.6220
G01 X195.5325 Y17.7020
G01 X195.2894 Y17.8318
G01 X195.0766 Y18.0066
G01 X194.9021 Y18.2194
G01 X194.7720 Y18.4622
G01 X194.6923 Y18.7259
G01 X194.6115 Y19.5458
G01 X194.5886 Y19.6997
G01 X194.5508 Y19.8509
G01 X194.4370 Y20.2263
G01 X194.3844 Y20.3728
G01 X194.3179 Y20.5138
G01 X194.1330 Y20.8595
G01 X193.9602 Y21.1181
G01 X193.7113 Y21.4213
G01 X193.6067 Y21.5367
G01 X193.4914 Y21.6413
G01 X193.1883 Y21.8900
G01 X193.0631 Y21.9829
G01 X192.9295 Y22.0629
G01 X192.5838 Y22.2479
G01 X192.2963 Y22.3667
G01 X191.9211 Y22.4808
G01 X191.7700 Y22.5186
G01 X191.6158 Y22.5415
G01 X191.2257 Y22.5798
G01 X191.0700 Y22.5875
G01 X15.0701 Y22.5875
G01 X14.9144 Y22.5798
G01 X14.5242 Y22.5415
G01 X14.3700 Y22.5186
G01 X14.2189 Y22.4808
G01 X13.8438 Y22.3667
G01 X13.5562 Y22.2479
G01 X13.2105 Y22.0629
G01 X13.0769 Y21.9829
G01 X12.9517 Y21.8900
G01 X12.6487 Y21.6413
G01 X12.4287 Y21.4213
G01 X12.1801 Y21.1183
G01 X12.0871 Y20.9931
G01 X12.0071 Y20.8595
G01 X11.8222 Y20.5138
G01 X11.7030 Y20.2263
G01 X11.5893 Y19.8509
G01 X11.5514 Y19.6997
G01 X11.5286 Y19.5458
G01 X11.4478 Y18.7259
G01 X11.3680 Y18.4622
G01 X11.2380 Y18.2194
G01 X11.0635 Y18.0066
G01 X10.8506 Y17.8318
G01 X10.6075 Y17.7020
G01 X10.3441 Y17.6220
G01 X9.9921 Y17.5875
G01 X8.0701 Y17.5875
G01 X7.9040 Y17.5788
G01 X6.8646 Y17.4696
G01 X6.7005 Y17.4434
G01 X6.5400 Y17.4005
G01 X5.5458 Y17.0774
G01 X5.3906 Y17.0180
G01 X5.2426 Y16.9426
G01 X4.3373 Y16.4198
G01 X4.1981 Y16.3294
G01 X4.0688 Y16.2248
G01 X3.2921 Y15.5252
G01 X3.1745 Y15.4079
G01 X3.0701 Y15.2786
G01 X2.4557 Y14.4330
G01 X2.3650 Y14.2938
G01 X2.2896 Y14.1458
G01 X1.8646 Y13.1907
G01 X1.8049 Y13.0355
G01 X1.7620 Y12.8750
G01 X1.5446 Y11.8527
G01 X1.5187 Y11.6886
G01 X1.5100 Y11.5227
G01 X1.5100 Y10.4772
G01 X1.5187 Y10.3114
G01 X1.5446 Y10.1473
G01 X1.7620 Y9.1247
G01 X1.8049 Y8.9644
G01 X1.8646 Y8.8092
G01 X2.2896 Y7.8542
G01 X2.3650 Y7.7061
G01 X2.4557 Y7.5669
G01 X3.0701 Y6.7211
G01 X3.1745 Y6.5921
G01 X3.2921 Y6.4747
G01 X4.0688 Y5.7752
G01 X4.1981 Y5.6705
G01 X4.3373 Y5.5801
G01 X5.2426 Y5.0574
G01 X5.3906 Y4.9820
G01 X5.5458 Y4.9225
G01 X6.5400 Y4.5994
G01 X6.7005 Y4.5565
G01 X6.8646 Y4.5303
G01 X7.9040 Y4.4211
G01 X8.0701 Y4.4125
G01 X9.9921 Y4.4125
G01 X10.3441 Y4.3779
G01 X10.6075 Y4.2979
G01 X10.8506 Y4.1681
G01 X11.0635 Y3.9934
G01 X11.2382 Y3.7805
G01 X11.3680 Y3.5375
G01 X11.4478 Y3.2741
G01 X11.5286 Y2.4541
G01 X11.5514 Y2.3000
G01 X11.5893 Y2.1488
G01 X11.7030 Y1.7737
G01 X11.8222 Y1.4862
G01 X12.0071 Y1.1405
G01 X12.0871 Y1.0069
G01 X12.1801 Y0.8816
G01 X12.4287 Y0.5786
G01 X12.6487 Y0.3586
G01 X12.9517 Y0.1100
G01 X13.2105 Y-0.0630
G01 X13.5562 Y-0.2476
G01 X13.6972 Y-0.3145
G01 X13.8440 Y-0.3670
G01 X14.2192 Y-0.4808
G01 X14.5242 Y-0.5415
G01 X14.9144 Y-0.5799
G01 X15.0701 Y-0.5875
G01 X191.0700 Y-0.5875
G01 X191.2257 Y-0.5799
G01 X191.6158 Y-0.5415
G01 X191.9209 Y-0.4808
G01 X192.2963 Y-0.3670
G01 X192.4428 Y-0.3145
G01 X192.5838 Y-0.2476
G01 X192.9295 Y-0.0630
G01 X193.1883 Y0.1100
G01 X193.4914 Y0.3586
G01 X193.6067 Y0.4633
G01 X193.7113 Y0.5786
G01 X193.9602 Y0.8819
G01 X194.1330 Y1.1405
G01 X194.3179 Y1.4862
G01 X194.3844 Y1.6271
G01 X194.4370 Y1.7737
G01 X194.5508 Y2.1488
G01 X194.5886 Y2.3000
G01 X194.6115 Y2.4541
G01 X194.6923 Y3.2741
G01 X194.7720 Y3.5375
G01 X194.9021 Y3.7805
G01 X195.0766 Y3.9934
G01 X195.2894 Y4.1681
G01 X195.5325 Y4.2979
G01 X195.7959 Y4.3779
G01 X196.1479 Y4.4125
G01 X198.0700 Y4.4125
G01 X198.2361 Y4.4211
G01 X199.2754 Y4.5303
G01 X199.4395 Y4.5565
G01 X199.6001 Y4.5994
G01 X200.5942 Y4.9225
G01 X200.7494 Y4.9820
G01 X200.8975 Y5.0574
G01 X201.8027 Y5.5801
G01 X201.9422 Y5.6705
G01 X202.0712 Y5.7752
G01 X202.8480 Y6.4747
G01 X202.9656 Y6.5921
G01 X203.0700 Y6.7211
G01 X203.6844 Y7.5669
G01 X203.7751 Y7.7061
G01 X203.8505 Y7.8542
G01 X204.2754 Y8.8092
G01 X204.3351 Y8.9644
G01 X204.3781 Y9.1247
G01 X204.5955 Y10.1473
G01 X204.6214 Y10.3114
G01 X204.6300 Y10.4772
G01 Z-1.3500 F49.9999 ( plunge. )
G01 F100.0001
G01 X204.6300 Y11.5227
G01 X204.6214 Y11.6886
G01 X204.5955 Y11.8527
G01 X204.3781 Y12.8750
G01 X204.3351 Y13.0355
G01 X204.2754 Y13.1907
G01 X203.8505 Y14.1458
G01 X203.7751 Y14.2938
G01 X203.6844 Y14.4330
G01 X203.0700 Y15.2786
G01 X202.9656 Y15.4079
G01 X202.8480 Y15.5252
G01 X202.0712 Y16.2248
G01 X201.9422 Y16.3294
G01 X201.8027 Y16.4198
G01 X200.8975 Y16.9426
G01 X200.7494 Y17.0180
G01 X200.5942 Y17.0774
G01 X199.6001 Y17.4005
G01 X199.4395 Y17.4434
G01 X199.2754 Y17.4696
G01 X198.2361 Y17.5788
G01 X198.0700 Y17.5875
G01 X196.1479 Y17.5875
G01 X195.7959 Y17.6220
G01 X195.5325 Y17.7020
G01 X195.2894 Y17.8318
G01 X195.0766 Y18.0066
G01 X194.9021 Y18.2194
G01 X194.7720 Y18.4622
G01 X194.6923 Y18.7259
G01 X194.6115 Y19.5458
G01 X194.5886 Y19.6997
G01 X194.5508 Y19.8509
G01 X194.4370 Y20.2263
G01 X194.3844 Y20.3728
G01 X194.3179 Y20.5138
G01 X194.1330 Y20.8595
G01 X193.9602 Y21.1181
G01 X193.7113 Y21.4213
G01 X193.6067 Y21.5367
G01 X193.4914 Y21.6413
G01 X193.1883 Y21.8900
G01 X193.0631 Y21.9829
G01 X192.9295 Y22.0629
G01 X192.5838 Y22.2479
G01 X192.2963 Y22.3667
G01 X191.9211 Y22.4808
G01 X191.7700 Y22.5186
G01 X191.6158 Y22.5415
G01 X191.2257 Y22.5798
G01 X191.0700 Y22.5875
G01 X15.0701 Y22.5875
G01 X14.9144 Y22.5798
G01 X14.5242 Y22.5415
G01 X14.3700 Y22.5186
G01 X14.2189 Y22.4808
G01 X13.8438 Y22.3667
G01 X13.5562 Y22.2479
G01 X13.2105 Y22.0629
G01 X13.0769 Y21.9829
G01 X12.9517 Y21.8900
G01 X12.6487 Y21.6413
G01 X12.4287 Y21.4213
G01 X12.1801 Y21.1183
G01 X12.0871 Y20.9931
G01 X12.0071 Y20.8595
G01 X11.8222 Y20.5138
G01 X11.7030 Y20.2263
G01 X11.5893 Y19.8509
G01 X11.5514 Y19.6997
G01 X11.5286 Y19.5458
G01 X11.4478 Y18.7259
G01 X11.3680 Y18.4622
G01 X11.2380 Y18.2194
G01 X11.0635 Y18.0066
G01 X10.8506 Y17.8318
G01 X10.6075 Y17.7020
G01 X10.3441 Y17.6220
G01 X9.9921 Y17.5875
G01 X8.0701 Y17.5875
G01 X7.9040 Y17.5788
G01 X6.8646 Y17.4696
G01 X6.7005 Y17.4434
G01 X6.5400 Y17.4005
G01 X5.5458 Y17.0774
G01 X5.3906 Y17.0180
G01 X5.2426 Y16.9426
G01 X4.3373 Y16.4198
G01 X4.1981 Y16.3294
G01 X4.0688 Y16.2248
G01 X3.2921 Y15.5252
G01 X3.1745 Y15.4079
G01 X3.0701 Y15.2786
G01 X2.4557 Y14.4330
G01 X2.3650 Y14.2938
G01 X2.2896 Y14.1458
G01 X1.8646 Y13.1907
G01 X1.8049 Y13.0355
G01 X1.7620 Y12.8750
G01 X1.5446 Y11.8527
G01 X1.5187 Y11.6886
G01 X1.5100 Y11.5227
G01 X1.5100 Y10.4772
G01 X1.5187 Y10.3114
G01 X1.5446 Y10.1473
G01 X1.7620 Y9.1247
G01 X1.8049 Y8.9644
G01 X1.8646 Y8.8092
G01 X2.2896 Y7.8542
G01 X2.3650 Y7.7061
G01 X2.4557 Y7.5669
G01 X3.0701 Y6.7211
G01 X3.1745 Y6.5921
G01 X3.2921 Y6.4747
G01 X4.0688 Y5.7752
G01 X4.1981 Y5.6705
G01 X4.3373 Y5.5801
G01 X5.2426 Y5.0574
G01 X5.3906 Y4.9820
G01 X5.5458 Y4.9225
G01 X6.5400 Y4.5994
G01 X6.7005 Y4.5565
G01 X6.8646 Y4.5303
G01 X7.9040 Y4.4211
G01 X8.0701 Y4.4125
G01 X9.9921 Y4.4125
G01 X10.3441 Y4.3779
G01 X10.6075 Y4.2979
G01 X10.8506 Y4.1681
G01 X11.0635 Y3.9934
G01 X11.2382 Y3.7805
G01 X11.3680 Y3.5375
G01 X11.4478 Y3.2741
G01 X11.5286 Y2.4541
G01 X11.5514 Y2.3000
G01 X11.5893 Y2.1488
G01 X11.7030 Y1.7737
G01 X11.8222 Y1.4862
G01 X12.0071 Y1.1405
G01 X12.0871 Y1.0069
G01 X12.1801 Y0.8816
G01 X12.4287 Y0.5786
G01 X12.6487 Y0.3586
G01 X12.9517 Y0.1100
G01 X13.2105 Y-0.0630
G01 X13.5562 Y-0.2476
G01 X13.6972 Y-0.3145
G01 X13.8440 Y-0.3670
G01 X14.2192 Y-0.4808
G01 X14.5242 Y-0.5415
G01 X14.9144 Y-0.5799
G01 X15.0701 Y-0.5875
G01 X191.0700 Y-0.5875
G01 X191.2257 Y-0.5799
G01 X191.6158 Y-0.5415
G01 X191.9209 Y-0.4808
G01 X192.2963 Y-0.3670
G01 X192.4428 Y-0.3145
G01 X192.5838 Y-0.2476
G01 X192.9295 Y-0.0630
G01 X193.1883 Y0.1100
G01 X193.4914 Y0.3586
G01 X193.6067 Y0.4633
G01 X193.7113 Y0.5786
G01 X193.9602 Y0.8819
G01 X194.1330 Y1.1405
G01 X194.3179 Y1.4862
G01 X194.3844 Y1.6271
G01 X194.4370 Y1.7737
G01 X194.5508 Y2.1488
G01 X194.5886 Y2.3000
G01 X194.6115 Y2.4541
G01 X194.6923 Y3.2741
G01 X194.7720 Y3.5375
G01 X194.9021 Y3.7805
G01 X195.0766 Y3.9934
G01 X195.2894 Y4.1681
G01 X195.5325 Y4.2979
G01 X195.7959 Y4.3779
G01 X196.1479 Y4.4125
G01 X198.0700 Y4.4125
G01 X198.2361 Y4.4211
G01 X199.2754 Y4.5303
G01 X199.4395 Y4.5565
G01 X199.6001 Y4.5994
G01 X200.5942 Y4.9225
G01 X200.7494 Y4.9820
G01 X200.8975 Y5.0574
G01 X201.8027 Y5.5801
G01 X201.9422 Y5.6705
G01 X202.0712 Y5.7752
G01 X202.8480 Y6.4747
G01 X202.9656 Y6.5921
G01 X203.0700 Y6.7211
G01 X203.6844 Y7.5669
G01 X203.7751 Y7.7061
G01 X203.8505 Y7.8542
G01 X204.2754 Y8.8092
G01 X204.3351 Y8.9644
G01 X204.3781 Y9.1247
G01 X204.5955 Y10.1473
G01 X204.6214 Y10.3114
G01 X204.6300 Y10.4772
G01 Z-1.8001 F49.9999 ( plunge. )
G01 F100.0001
G01 X204.6300 Y11.5227
G01 X204.6214 Y11.6886
G01 X204.5955 Y11.8527
G01 X204.3781 Y12.8750
G01 X204.3351 Y13.0355
G01 X204.2754 Y13.1907
G01 X203.8505 Y14.1458
G01 X203.7751 Y14.2938
G01 X203.6844 Y14.4330
G01 X203.0700 Y15.2786
G01 X202.9656 Y15.4079
G01 X202.8480 Y15.5252
G01 X202.0712 Y16.2248
G01 X201.9422 Y16.3294
G01 X201.8027 Y16.4198
G01 X200.8975 Y16.9426
G01 X200.7494 Y17.0180
G01 X200.5942 Y17.0774
G01 X199.6001 Y17.4005
G01 X199.4395 Y17.4434
G01 X199.2754 Y17.4696
G01 X198.2361 Y17.5788
G01 X198.0700 Y17.5875
G01 X196.1479 Y17.5875
G01 X195.7959 Y17.6220
G01 X195.5325 Y17.7020
G01 X195.2894 Y17.8318
G01 X195.0766 Y18.0066
G01 X194.9021 Y18.2194
G01 X194.7720 Y18.4622
G01 X194.6923 Y18.7259
G01 X194.6115 Y19.5458
G01 X194.5886 Y19.6997
G01 X194.5508 Y19.8509
G01 X194.4370 Y20.2263
G01 X194.3844 Y20.3728
G01 X194.3179 Y20.5138
G01 X194.1330 Y20.8595
G01 X193.9602 Y21.1181
G01 X193.7113 Y21.4213
G01 X193.6067 Y21.5367
G01 X193.4914 Y21.6413
G01 X193.1883 Y21.8900
G01 X193.0631 Y21.9829
G01 X192.9295 Y22.0629
G01 X192.5838 Y22.2479
G01 X192.2963 Y22.3667
G01 X191.9211 Y22.4808
G01 X191.7700 Y22.5186
G01 X191.6158 Y22.5415
G01 X191.2257 Y22.5798
G01 X191.0700 Y22.5875
G01 X15.0701 Y22.5875
G01 X14.9144 Y22.5798
G01 X14.5242 Y22.5415
G01 X14.3700 Y22.5186
G01 X14.2189 Y22.4808
G01 X13.8438 Y22.3667
G01 X13.5562 Y22.2479
G01 X13.2105 Y22.0629
G01 X13.0769 Y21.9829
G01 X12.9517 Y21.8900
G01 X12.6487 Y21.6413
G01 X12.4287 Y21.4213
G01 X12.1801 Y21.1183
G01 X12.0871 Y20.9931
G01 X12.0071 Y20.8595
G01 X11.8222 Y20.5138
G01 X11.7030 Y20.2263
G01 X11.5893 Y19.8509
G01 X11.5514 Y19.6997
G01 X11.5286 Y19.5458
G01 X11.4478 Y18.7259
G01 X11.3680 Y18.4622
G01 X11.2380 Y18.2194
G01 X11.0635 Y18.0066
G01 X10.8506 Y17.8318
G01 X10.6075 Y17.7020
G01 X10.3441 Y17.6220
G01 X9.9921 Y17.5875
G01 X8.0701 Y17.5875
G01 X7.9040 Y17.5788
G01 X6.8646 Y17.4696
G01 X6.7005 Y17.4434
G01 X6.5400 Y17.4005
G01 X5.5458 Y17.0774
G01 X5.3906 Y17.0180
G01 X5.2426 Y16.9426
G01 X4.3373 Y16.4198
G01 X4.1981 Y16.3294
G01 X4.0688 Y16.2248
G01 X3.2921 Y15.5252
G01 X3.1745 Y15.4079
G01 X3.0701 Y15.2786
G01 X2.4557 Y14.4330
G01 X2.3650 Y14.2938
G01 X2.2896 Y14.1458
G01 X1.8646 Y13.1907
G01 X1.8049 Y13.0355
G01 X1.7620 Y12.8750
G01 X1.5446 Y11.8527
G01 X1.5187 Y11.6886
G01 X1.5100 Y11.5227
G01 X1.5100 Y10.4772
G01 X1.5187 Y10.3114
G01 X1.5446 Y10.1473
G01 X1.7620 Y9.1247
G01 X1.8049 Y8.9644
G01 X1.8646 Y8.8092
G01 X2.2896 Y7.8542
G01 X2.3650 Y7.7061
G01 X2.4557 Y7.5669
G01 X3.0701 Y6.7211
G01 X3.1745 Y6.5921
G01 X3.2921 Y6.4747
G01 X4.0688 Y5.7752
G01 X4.1981 Y5.6705
G01 X4.3373 Y5.5801
G01 X5.2426 Y5.0574
G01 X5.3906 Y4.9820
G01 X5.5458 Y4.9225
G01 X6.5400 Y4.5994
G01 X6.7005 Y4.5565
G01 X6.8646 Y4.5303
G01 X7.9040 Y4.4211
G01 X8.0701 Y4.4125
G01 X9.9921 Y4.4125
G01 X10.3441 Y4.3779
G01 X10.6075 Y4.2979
G01 X10.8506 Y4.1681
G01 X11.0635 Y3.9934
G01 X11.2382 Y3.7805
G01 X11.3680 Y3.5375
G01 X11.4478 Y3.2741
G01 X11.5286 Y2.4541
G01 X11.5514 Y2.3000
G01 X11.5893 Y2.1488
G01 X11.7030 Y1.7737
G01 X11.8222 Y1.4862
G01 X12.0071 Y1.1405
G01 X12.0871 Y1.0069
G01 X12.1801 Y0.8816
G01 X12.4287 Y0.5786
G01 X12.6487 Y0.3586
G01 X12.9517 Y0.1100
G01 X13.2105 Y-0.0630
G01 X13.5562 Y-0.2476
G01 X13.6972 Y-0.3145
G01 X13.8440 Y-0.3670
G01 X14.2192 Y-0.4808
G01 X14.5242 Y-0.5415
G01 X14.9144 Y-0.5799
G01 X15.0701 Y-0.5875
G01 X191.0700 Y-0.5875
G01 X191.2257 Y-0.5799
G01 X191.6158 Y-0.5415
G01 X191.9209 Y-0.4808
G01 X192.2963 Y-0.3670
G01 X192.4428 Y-0.3145
G01 X192.5838 Y-0.2476
G01 X192.9295 Y-0.0630
G01 X193.1883 Y0.1100
G01 X193.4914 Y0.3586
G01 X193.6067 Y0.4633
G01 X193.7113 Y0.5786
G01 X193.9602 Y0.8819
G01 X194.1330 Y1.1405
G01 X194.3179 Y1.4862
G01 X194.3844 Y1.6271
G01 X194.4370 Y1.7737
G01 X194.5508 Y2.1488
G01 X194.5886 Y2.3000
G01 X194.6115 Y2.4541
G01 X194.6923 Y3.2741
G01 X194.7720 Y3.5375
G01 X194.9021 Y3.7805
G01 X195.0766 Y3.9934
G01 X195.2894 Y4.1681
G01 X195.5325 Y4.2979
G01 X195.7959 Y4.3779
G01 X196.1479 Y4.4125
G01 X198.0700 Y4.4125
G01 X198.2361 Y4.4211
G01 X199.2754 Y4.5303
G01 X199.4395 Y4.5565
G01 X199.6001 Y4.5994
G01 X200.5942 Y4.9225
G01 X200.7494 Y4.9820
G01 X200.8975 Y5.0574
G01 X201.8027 Y5.5801
G01 X201.9422 Y5.6705
G01 X202.0712 Y5.7752
G01 X202.8480 Y6.4747
G01 X202.9656 Y6.5921
G01 X203.0700 Y6.7211
G01 X203.6844 Y7.5669
G01 X203.7751 Y7.7061
G01 X203.8505 Y7.8542
G01 X204.2754 Y8.8092
G01 X204.3351 Y8.9644
G01 X204.3781 Y9.1247
G01 X204.5955 Y10.1473
G01 X204.6214 Y10.3114
G01 X204.6300 Y10.4772

G00 Z10.0000 ( retract )

M5 ( Spindle off. )
M9 ( Coolant off. )
M2 ( Program end. )

