( pcb2gcode 2.5.0 )
( Software-independent Gcode )

G94 ( Inches per minute feed rate. )
G20 ( Units == INCHES. )

G90 ( Absolute coordinates. )
G00 S10000 ( RPM spindle speed. )
G64 P0.00040 ( set maximum deviation from commanded toolpath )
G01 F3.93701 ( Feedrate. )


G00 Z0.39370 (Retract to tool change height)
T0
M5      (Spindle stop.)
G04 P1.00000 (Wait for spindle to stop)
(MSG, Change tool bit to cutter diameter 0.12500in)
M6      (Tool change.)
M0      (Temporary machine stop.)
M3 ( Spindle on clockwise. )
G04 P1.00000 (Wait for spindle to get up to speed)
G04 P0 ( dwell for no time -- G64 should not smooth over this point )
G00 Z0.07874 ( retract )

G00 X8.05630 Y0.41249 ( rapid move to begin. )
G01 Z-0.01772 F1.96850 ( plunge. )
G04 P0 ( dwell for no time -- G64 should not smooth over this point )
G01 F3.93701
G01 X8.05630 Y0.45365
G01 X8.05596 Y0.46018
G01 X8.05494 Y0.46664
G01 X8.04638 Y0.50689
G01 X8.04469 Y0.51321
G01 X8.04234 Y0.51932
G01 X8.02561 Y0.55692
G01 X8.02264 Y0.56275
G01 X8.01907 Y0.56823
G01 X7.99488 Y0.60152
G01 X7.99077 Y0.60661
G01 X7.98614 Y0.61123
G01 X7.95556 Y0.63877
G01 X7.95048 Y0.64289
G01 X7.94499 Y0.64645
G01 X7.90935 Y0.66703
G01 X7.90352 Y0.67000
G01 X7.89741 Y0.67234
G01 X7.85827 Y0.68506
G01 X7.85195 Y0.68675
G01 X7.84549 Y0.68778
G01 X7.80457 Y0.69208
G01 X7.79803 Y0.69242
G01 X7.72236 Y0.69242
G01 X7.70850 Y0.69378
G01 X7.69813 Y0.69693
G01 X7.68856 Y0.70204
G01 X7.68018 Y0.70892
G01 X7.67331 Y0.71730
G01 X7.66819 Y0.72686
G01 X7.66505 Y0.73724
G01 X7.66187 Y0.76952
G01 X7.66097 Y0.77558
G01 X7.65948 Y0.78153
G01 X7.65500 Y0.79631
G01 X7.65293 Y0.80208
G01 X7.65031 Y0.80763
G01 X7.64303 Y0.82124
G01 X7.63623 Y0.83142
G01 X7.62643 Y0.84336
G01 X7.62231 Y0.84790
G01 X7.61777 Y0.85202
G01 X7.60584 Y0.86181
G01 X7.60091 Y0.86547
G01 X7.59565 Y0.86862
G01 X7.58204 Y0.87590
G01 X7.57072 Y0.88058
G01 X7.55595 Y0.88507
G01 X7.55000 Y0.88656
G01 X7.54393 Y0.88746
G01 X7.52857 Y0.88897
G01 X7.52244 Y0.88927
G01 X0.59331 Y0.88927
G01 X0.58718 Y0.88897
G01 X0.57182 Y0.88746
G01 X0.56575 Y0.88656
G01 X0.55980 Y0.88507
G01 X0.54503 Y0.88058
G01 X0.53371 Y0.87590
G01 X0.52010 Y0.86862
G01 X0.51484 Y0.86547
G01 X0.50991 Y0.86181
G01 X0.49798 Y0.85202
G01 X0.48932 Y0.84336
G01 X0.47953 Y0.83143
G01 X0.47587 Y0.82650
G01 X0.47272 Y0.82124
G01 X0.46544 Y0.80763
G01 X0.46075 Y0.79631
G01 X0.45627 Y0.78153
G01 X0.45478 Y0.77558
G01 X0.45388 Y0.76952
G01 X0.45070 Y0.73724
G01 X0.44756 Y0.72686
G01 X0.44244 Y0.71730
G01 X0.43557 Y0.70892
G01 X0.42719 Y0.70204
G01 X0.41762 Y0.69693
G01 X0.40725 Y0.69378
G01 X0.39339 Y0.69242
G01 X0.31772 Y0.69242
G01 X0.31118 Y0.69208
G01 X0.27026 Y0.68778
G01 X0.26380 Y0.68675
G01 X0.25748 Y0.68506
G01 X0.21834 Y0.67234
G01 X0.21223 Y0.67000
G01 X0.20640 Y0.66703
G01 X0.17076 Y0.64645
G01 X0.16528 Y0.64289
G01 X0.16019 Y0.63877
G01 X0.12961 Y0.61123
G01 X0.12498 Y0.60661
G01 X0.12087 Y0.60152
G01 X0.09668 Y0.56823
G01 X0.09311 Y0.56275
G01 X0.09014 Y0.55692
G01 X0.07341 Y0.51932
G01 X0.07106 Y0.51321
G01 X0.06937 Y0.50689
G01 X0.06081 Y0.46664
G01 X0.05979 Y0.46018
G01 X0.05945 Y0.45365
G01 X0.05945 Y0.41249
G01 X0.05979 Y0.40596
G01 X0.06081 Y0.39950
G01 X0.06937 Y0.35924
G01 X0.07106 Y0.35293
G01 X0.07341 Y0.34682
G01 X0.09014 Y0.30922
G01 X0.09311 Y0.30339
G01 X0.09668 Y0.29791
G01 X0.12087 Y0.26461
G01 X0.12498 Y0.25953
G01 X0.12961 Y0.25491
G01 X0.16019 Y0.22737
G01 X0.16528 Y0.22325
G01 X0.17076 Y0.21969
G01 X0.20640 Y0.19911
G01 X0.21223 Y0.19614
G01 X0.21834 Y0.19380
G01 X0.25748 Y0.18108
G01 X0.26380 Y0.17939
G01 X0.27026 Y0.17836
G01 X0.31118 Y0.17406
G01 X0.31772 Y0.17372
G01 X0.39339 Y0.17372
G01 X0.40725 Y0.17236
G01 X0.41762 Y0.16921
G01 X0.42719 Y0.16410
G01 X0.43557 Y0.15722
G01 X0.44245 Y0.14884
G01 X0.44756 Y0.13927
G01 X0.45070 Y0.12890
G01 X0.45388 Y0.09662
G01 X0.45478 Y0.09055
G01 X0.45627 Y0.08460
G01 X0.46075 Y0.06983
G01 X0.46544 Y0.05851
G01 X0.47272 Y0.04490
G01 X0.47587 Y0.03964
G01 X0.47953 Y0.03471
G01 X0.48932 Y0.02278
G01 X0.49798 Y0.01412
G01 X0.50991 Y0.00433
G01 X0.52010 Y-0.00248
G01 X0.53371 Y-0.00975
G01 X0.53926 Y-0.01238
G01 X0.54504 Y-0.01445
G01 X0.55981 Y-0.01893
G01 X0.57182 Y-0.02132
G01 X0.58718 Y-0.02283
G01 X0.59331 Y-0.02313
G01 X7.52244 Y-0.02313
G01 X7.52857 Y-0.02283
G01 X7.54393 Y-0.02132
G01 X7.55594 Y-0.01893
G01 X7.57072 Y-0.01445
G01 X7.57649 Y-0.01238
G01 X7.58204 Y-0.00975
G01 X7.59565 Y-0.00248
G01 X7.60584 Y0.00433
G01 X7.61777 Y0.01412
G01 X7.62231 Y0.01824
G01 X7.62643 Y0.02278
G01 X7.63623 Y0.03472
G01 X7.64303 Y0.04490
G01 X7.65031 Y0.05851
G01 X7.65293 Y0.06406
G01 X7.65500 Y0.06983
G01 X7.65948 Y0.08460
G01 X7.66097 Y0.09055
G01 X7.66187 Y0.09662
G01 X7.66505 Y0.12890
G01 X7.66819 Y0.13927
G01 X7.67331 Y0.14884
G01 X7.68018 Y0.15722
G01 X7.68856 Y0.16410
G01 X7.69813 Y0.16921
G01 X7.70850 Y0.17236
G01 X7.72236 Y0.17372
G01 X7.79803 Y0.17372
G01 X7.80457 Y0.17406
G01 X7.84549 Y0.17836
G01 X7.85195 Y0.17939
G01 X7.85827 Y0.18108
G01 X7.89741 Y0.19380
G01 X7.90352 Y0.19614
G01 X7.90935 Y0.19911
G01 X7.94499 Y0.21969
G01 X7.95048 Y0.22325
G01 X7.95556 Y0.22737
G01 X7.98614 Y0.25491
G01 X7.99077 Y0.25953
G01 X7.99488 Y0.26461
G01 X8.01907 Y0.29791
G01 X8.02264 Y0.30339
G01 X8.02561 Y0.30922
G01 X8.04234 Y0.34682
G01 X8.04469 Y0.35293
G01 X8.04638 Y0.35924
G01 X8.05494 Y0.39950
G01 X8.05596 Y0.40596
G01 X8.05630 Y0.41249
G01 Z-0.03543 F1.96850 ( plunge. )
G04 P0 ( dwell for no time -- G64 should not smooth over this point )
G01 F3.93701
G01 X8.05630 Y0.45365
G01 X8.05596 Y0.46018
G01 X8.05494 Y0.46664
G01 X8.04638 Y0.50689
G01 X8.04469 Y0.51321
G01 X8.04234 Y0.51932
G01 X8.02561 Y0.55692
G01 X8.02264 Y0.56275
G01 X8.01907 Y0.56823
G01 X7.99488 Y0.60152
G01 X7.99077 Y0.60661
G01 X7.98614 Y0.61123
G01 X7.95556 Y0.63877
G01 X7.95048 Y0.64289
G01 X7.94499 Y0.64645
G01 X7.90935 Y0.66703
G01 X7.90352 Y0.67000
G01 X7.89741 Y0.67234
G01 X7.85827 Y0.68506
G01 X7.85195 Y0.68675
G01 X7.84549 Y0.68778
G01 X7.80457 Y0.69208
G01 X7.79803 Y0.69242
G01 X7.72236 Y0.69242
G01 X7.70850 Y0.69378
G01 X7.69813 Y0.69693
G01 X7.68856 Y0.70204
G01 X7.68018 Y0.70892
G01 X7.67331 Y0.71730
G01 X7.66819 Y0.72686
G01 X7.66505 Y0.73724
G01 X7.66187 Y0.76952
G01 X7.66097 Y0.77558
G01 X7.65948 Y0.78153
G01 X7.65500 Y0.79631
G01 X7.65293 Y0.80208
G01 X7.65031 Y0.80763
G01 X7.64303 Y0.82124
G01 X7.63623 Y0.83142
G01 X7.62643 Y0.84336
G01 X7.62231 Y0.84790
G01 X7.61777 Y0.85202
G01 X7.60584 Y0.86181
G01 X7.60091 Y0.86547
G01 X7.59565 Y0.86862
G01 X7.58204 Y0.87590
G01 X7.57072 Y0.88058
G01 X7.55595 Y0.88507
G01 X7.55000 Y0.88656
G01 X7.54393 Y0.88746
G01 X7.52857 Y0.88897
G01 X7.52244 Y0.88927
G01 X0.59331 Y0.88927
G01 X0.58718 Y0.88897
G01 X0.57182 Y0.88746
G01 X0.56575 Y0.88656
G01 X0.55980 Y0.88507
G01 X0.54503 Y0.88058
G01 X0.53371 Y0.87590
G01 X0.52010 Y0.86862
G01 X0.51484 Y0.86547
G01 X0.50991 Y0.86181
G01 X0.49798 Y0.85202
G01 X0.48932 Y0.84336
G01 X0.47953 Y0.83143
G01 X0.47587 Y0.82650
G01 X0.47272 Y0.82124
G01 X0.46544 Y0.80763
G01 X0.46075 Y0.79631
G01 X0.45627 Y0.78153
G01 X0.45478 Y0.77558
G01 X0.45388 Y0.76952
G01 X0.45070 Y0.73724
G01 X0.44756 Y0.72686
G01 X0.44244 Y0.71730
G01 X0.43557 Y0.70892
G01 X0.42719 Y0.70204
G01 X0.41762 Y0.69693
G01 X0.40725 Y0.69378
G01 X0.39339 Y0.69242
G01 X0.31772 Y0.69242
G01 X0.31118 Y0.69208
G01 X0.27026 Y0.68778
G01 X0.26380 Y0.68675
G01 X0.25748 Y0.68506
G01 X0.21834 Y0.67234
G01 X0.21223 Y0.67000
G01 X0.20640 Y0.66703
G01 X0.17076 Y0.64645
G01 X0.16528 Y0.64289
G01 X0.16019 Y0.63877
G01 X0.12961 Y0.61123
G01 X0.12498 Y0.60661
G01 X0.12087 Y0.60152
G01 X0.09668 Y0.56823
G01 X0.09311 Y0.56275
G01 X0.09014 Y0.55692
G01 X0.07341 Y0.51932
G01 X0.07106 Y0.51321
G01 X0.06937 Y0.50689
G01 X0.06081 Y0.46664
G01 X0.05979 Y0.46018
G01 X0.05945 Y0.45365
G01 X0.05945 Y0.41249
G01 X0.05979 Y0.40596
G01 X0.06081 Y0.39950
G01 X0.06937 Y0.35924
G01 X0.07106 Y0.35293
G01 X0.07341 Y0.34682
G01 X0.09014 Y0.30922
G01 X0.09311 Y0.30339
G01 X0.09668 Y0.29791
G01 X0.12087 Y0.26461
G01 X0.12498 Y0.25953
G01 X0.12961 Y0.25491
G01 X0.16019 Y0.22737
G01 X0.16528 Y0.22325
G01 X0.17076 Y0.21969
G01 X0.20640 Y0.19911
G01 X0.21223 Y0.19614
G01 X0.21834 Y0.19380
G01 X0.25748 Y0.18108
G01 X0.26380 Y0.17939
G01 X0.27026 Y0.17836
G01 X0.31118 Y0.17406
G01 X0.31772 Y0.17372
G01 X0.39339 Y0.17372
G01 X0.40725 Y0.17236
G01 X0.41762 Y0.16921
G01 X0.42719 Y0.16410
G01 X0.43557 Y0.15722
G01 X0.44245 Y0.14884
G01 X0.44756 Y0.13927
G01 X0.45070 Y0.12890
G01 X0.45388 Y0.09662
G01 X0.45478 Y0.09055
G01 X0.45627 Y0.08460
G01 X0.46075 Y0.06983
G01 X0.46544 Y0.05851
G01 X0.47272 Y0.04490
G01 X0.47587 Y0.03964
G01 X0.47953 Y0.03471
G01 X0.48932 Y0.02278
G01 X0.49798 Y0.01412
G01 X0.50991 Y0.00433
G01 X0.52010 Y-0.00248
G01 X0.53371 Y-0.00975
G01 X0.53926 Y-0.01238
G01 X0.54504 Y-0.01445
G01 X0.55981 Y-0.01893
G01 X0.57182 Y-0.02132
G01 X0.58718 Y-0.02283
G01 X0.59331 Y-0.02313
G01 X7.52244 Y-0.02313
G01 X7.52857 Y-0.02283
G01 X7.54393 Y-0.02132
G01 X7.55594 Y-0.01893
G01 X7.57072 Y-0.01445
G01 X7.57649 Y-0.01238
G01 X7.58204 Y-0.00975
G01 X7.59565 Y-0.00248
G01 X7.60584 Y0.00433
G01 X7.61777 Y0.01412
G01 X7.62231 Y0.01824
G01 X7.62643 Y0.02278
G01 X7.63623 Y0.03472
G01 X7.64303 Y0.04490
G01 X7.65031 Y0.05851
G01 X7.65293 Y0.06406
G01 X7.65500 Y0.06983
G01 X7.65948 Y0.08460
G01 X7.66097 Y0.09055
G01 X7.66187 Y0.09662
G01 X7.66505 Y0.12890
G01 X7.66819 Y0.13927
G01 X7.67331 Y0.14884
G01 X7.68018 Y0.15722
G01 X7.68856 Y0.16410
G01 X7.69813 Y0.16921
G01 X7.70850 Y0.17236
G01 X7.72236 Y0.17372
G01 X7.79803 Y0.17372
G01 X7.80457 Y0.17406
G01 X7.84549 Y0.17836
G01 X7.85195 Y0.17939
G01 X7.85827 Y0.18108
G01 X7.89741 Y0.19380
G01 X7.90352 Y0.19614
G01 X7.90935 Y0.19911
G01 X7.94499 Y0.21969
G01 X7.95048 Y0.22325
G01 X7.95556 Y0.22737
G01 X7.98614 Y0.25491
G01 X7.99077 Y0.25953
G01 X7.99488 Y0.26461
G01 X8.01907 Y0.29791
G01 X8.02264 Y0.30339
G01 X8.02561 Y0.30922
G01 X8.04234 Y0.34682
G01 X8.04469 Y0.35293
G01 X8.04638 Y0.35924
G01 X8.05494 Y0.39950
G01 X8.05596 Y0.40596
G01 X8.05630 Y0.41249
G01 Z-0.05315 F1.96850 ( plunge. )
G04 P0 ( dwell for no time -- G64 should not smooth over this point )
G01 F3.93701
G01 X8.05630 Y0.45365
G01 X8.05596 Y0.46018
G01 X8.05494 Y0.46664
G01 X8.04638 Y0.50689
G01 X8.04469 Y0.51321
G01 X8.04234 Y0.51932
G01 X8.02561 Y0.55692
G01 X8.02264 Y0.56275
G01 X8.01907 Y0.56823
G01 X7.99488 Y0.60152
G01 X7.99077 Y0.60661
G01 X7.98614 Y0.61123
G01 X7.95556 Y0.63877
G01 X7.95048 Y0.64289
G01 X7.94499 Y0.64645
G01 X7.90935 Y0.66703
G01 X7.90352 Y0.67000
G01 X7.89741 Y0.67234
G01 X7.85827 Y0.68506
G01 X7.85195 Y0.68675
G01 X7.84549 Y0.68778
G01 X7.80457 Y0.69208
G01 X7.79803 Y0.69242
G01 X7.72236 Y0.69242
G01 X7.70850 Y0.69378
G01 X7.69813 Y0.69693
G01 X7.68856 Y0.70204
G01 X7.68018 Y0.70892
G01 X7.67331 Y0.71730
G01 X7.66819 Y0.72686
G01 X7.66505 Y0.73724
G01 X7.66187 Y0.76952
G01 X7.66097 Y0.77558
G01 X7.65948 Y0.78153
G01 X7.65500 Y0.79631
G01 X7.65293 Y0.80208
G01 X7.65031 Y0.80763
G01 X7.64303 Y0.82124
G01 X7.63623 Y0.83142
G01 X7.62643 Y0.84336
G01 X7.62231 Y0.84790
G01 X7.61777 Y0.85202
G01 X7.60584 Y0.86181
G01 X7.60091 Y0.86547
G01 X7.59565 Y0.86862
G01 X7.58204 Y0.87590
G01 X7.57072 Y0.88058
G01 X7.55595 Y0.88507
G01 X7.55000 Y0.88656
G01 X7.54393 Y0.88746
G01 X7.52857 Y0.88897
G01 X7.52244 Y0.88927
G01 X0.59331 Y0.88927
G01 X0.58718 Y0.88897
G01 X0.57182 Y0.88746
G01 X0.56575 Y0.88656
G01 X0.55980 Y0.88507
G01 X0.54503 Y0.88058
G01 X0.53371 Y0.87590
G01 X0.52010 Y0.86862
G01 X0.51484 Y0.86547
G01 X0.50991 Y0.86181
G01 X0.49798 Y0.85202
G01 X0.48932 Y0.84336
G01 X0.47953 Y0.83143
G01 X0.47587 Y0.82650
G01 X0.47272 Y0.82124
G01 X0.46544 Y0.80763
G01 X0.46075 Y0.79631
G01 X0.45627 Y0.78153
G01 X0.45478 Y0.77558
G01 X0.45388 Y0.76952
G01 X0.45070 Y0.73724
G01 X0.44756 Y0.72686
G01 X0.44244 Y0.71730
G01 X0.43557 Y0.70892
G01 X0.42719 Y0.70204
G01 X0.41762 Y0.69693
G01 X0.40725 Y0.69378
G01 X0.39339 Y0.69242
G01 X0.31772 Y0.69242
G01 X0.31118 Y0.69208
G01 X0.27026 Y0.68778
G01 X0.26380 Y0.68675
G01 X0.25748 Y0.68506
G01 X0.21834 Y0.67234
G01 X0.21223 Y0.67000
G01 X0.20640 Y0.66703
G01 X0.17076 Y0.64645
G01 X0.16528 Y0.64289
G01 X0.16019 Y0.63877
G01 X0.12961 Y0.61123
G01 X0.12498 Y0.60661
G01 X0.12087 Y0.60152
G01 X0.09668 Y0.56823
G01 X0.09311 Y0.56275
G01 X0.09014 Y0.55692
G01 X0.07341 Y0.51932
G01 X0.07106 Y0.51321
G01 X0.06937 Y0.50689
G01 X0.06081 Y0.46664
G01 X0.05979 Y0.46018
G01 X0.05945 Y0.45365
G01 X0.05945 Y0.41249
G01 X0.05979 Y0.40596
G01 X0.06081 Y0.39950
G01 X0.06937 Y0.35924
G01 X0.07106 Y0.35293
G01 X0.07341 Y0.34682
G01 X0.09014 Y0.30922
G01 X0.09311 Y0.30339
G01 X0.09668 Y0.29791
G01 X0.12087 Y0.26461
G01 X0.12498 Y0.25953
G01 X0.12961 Y0.25491
G01 X0.16019 Y0.22737
G01 X0.16528 Y0.22325
G01 X0.17076 Y0.21969
G01 X0.20640 Y0.19911
G01 X0.21223 Y0.19614
G01 X0.21834 Y0.19380
G01 X0.25748 Y0.18108
G01 X0.26380 Y0.17939
G01 X0.27026 Y0.17836
G01 X0.31118 Y0.17406
G01 X0.31772 Y0.17372
G01 X0.39339 Y0.17372
G01 X0.40725 Y0.17236
G01 X0.41762 Y0.16921
G01 X0.42719 Y0.16410
G01 X0.43557 Y0.15722
G01 X0.44245 Y0.14884
G01 X0.44756 Y0.13927
G01 X0.45070 Y0.12890
G01 X0.45388 Y0.09662
G01 X0.45478 Y0.09055
G01 X0.45627 Y0.08460
G01 X0.46075 Y0.06983
G01 X0.46544 Y0.05851
G01 X0.47272 Y0.04490
G01 X0.47587 Y0.03964
G01 X0.47953 Y0.03471
G01 X0.48932 Y0.02278
G01 X0.49798 Y0.01412
G01 X0.50991 Y0.00433
G01 X0.52010 Y-0.00248
G01 X0.53371 Y-0.00975
G01 X0.53926 Y-0.01238
G01 X0.54504 Y-0.01445
G01 X0.55981 Y-0.01893
G01 X0.57182 Y-0.02132
G01 X0.58718 Y-0.02283
G01 X0.59331 Y-0.02313
G01 X7.52244 Y-0.02313
G01 X7.52857 Y-0.02283
G01 X7.54393 Y-0.02132
G01 X7.55594 Y-0.01893
G01 X7.57072 Y-0.01445
G01 X7.57649 Y-0.01238
G01 X7.58204 Y-0.00975
G01 X7.59565 Y-0.00248
G01 X7.60584 Y0.00433
G01 X7.61777 Y0.01412
G01 X7.62231 Y0.01824
G01 X7.62643 Y0.02278
G01 X7.63623 Y0.03472
G01 X7.64303 Y0.04490
G01 X7.65031 Y0.05851
G01 X7.65293 Y0.06406
G01 X7.65500 Y0.06983
G01 X7.65948 Y0.08460
G01 X7.66097 Y0.09055
G01 X7.66187 Y0.09662
G01 X7.66505 Y0.12890
G01 X7.66819 Y0.13927
G01 X7.67331 Y0.14884
G01 X7.68018 Y0.15722
G01 X7.68856 Y0.16410
G01 X7.69813 Y0.16921
G01 X7.70850 Y0.17236
G01 X7.72236 Y0.17372
G01 X7.79803 Y0.17372
G01 X7.80457 Y0.17406
G01 X7.84549 Y0.17836
G01 X7.85195 Y0.17939
G01 X7.85827 Y0.18108
G01 X7.89741 Y0.19380
G01 X7.90352 Y0.19614
G01 X7.90935 Y0.19911
G01 X7.94499 Y0.21969
G01 X7.95048 Y0.22325
G01 X7.95556 Y0.22737
G01 X7.98614 Y0.25491
G01 X7.99077 Y0.25953
G01 X7.99488 Y0.26461
G01 X8.01907 Y0.29791
G01 X8.02264 Y0.30339
G01 X8.02561 Y0.30922
G01 X8.04234 Y0.34682
G01 X8.04469 Y0.35293
G01 X8.04638 Y0.35924
G01 X8.05494 Y0.39950
G01 X8.05596 Y0.40596
G01 X8.05630 Y0.41249
G01 Z-0.07087 F1.96850 ( plunge. )
G04 P0 ( dwell for no time -- G64 should not smooth over this point )
G01 F3.93701
G01 X8.05630 Y0.45365
G01 X8.05596 Y0.46018
G01 X8.05494 Y0.46664
G01 X8.04638 Y0.50689
G01 X8.04469 Y0.51321
G01 X8.04234 Y0.51932
G01 X8.02561 Y0.55692
G01 X8.02264 Y0.56275
G01 X8.01907 Y0.56823
G01 X7.99488 Y0.60152
G01 X7.99077 Y0.60661
G01 X7.98614 Y0.61123
G01 X7.95556 Y0.63877
G01 X7.95048 Y0.64289
G01 X7.94499 Y0.64645
G01 X7.90935 Y0.66703
G01 X7.90352 Y0.67000
G01 X7.89741 Y0.67234
G01 X7.85827 Y0.68506
G01 X7.85195 Y0.68675
G01 X7.84549 Y0.68778
G01 X7.80457 Y0.69208
G01 X7.79803 Y0.69242
G01 X7.72236 Y0.69242
G01 X7.70850 Y0.69378
G01 X7.69813 Y0.69693
G01 X7.68856 Y0.70204
G01 X7.68018 Y0.70892
G01 X7.67331 Y0.71730
G01 X7.66819 Y0.72686
G01 X7.66505 Y0.73724
G01 X7.66187 Y0.76952
G01 X7.66097 Y0.77558
G01 X7.65948 Y0.78153
G01 X7.65500 Y0.79631
G01 X7.65293 Y0.80208
G01 X7.65031 Y0.80763
G01 X7.64303 Y0.82124
G01 X7.63623 Y0.83142
G01 X7.62643 Y0.84336
G01 X7.62231 Y0.84790
G01 X7.61777 Y0.85202
G01 X7.60584 Y0.86181
G01 X7.60091 Y0.86547
G01 X7.59565 Y0.86862
G01 X7.58204 Y0.87590
G01 X7.57072 Y0.88058
G01 X7.55595 Y0.88507
G01 X7.55000 Y0.88656
G01 X7.54393 Y0.88746
G01 X7.52857 Y0.88897
G01 X7.52244 Y0.88927
G01 X0.59331 Y0.88927
G01 X0.58718 Y0.88897
G01 X0.57182 Y0.88746
G01 X0.56575 Y0.88656
G01 X0.55980 Y0.88507
G01 X0.54503 Y0.88058
G01 X0.53371 Y0.87590
G01 X0.52010 Y0.86862
G01 X0.51484 Y0.86547
G01 X0.50991 Y0.86181
G01 X0.49798 Y0.85202
G01 X0.48932 Y0.84336
G01 X0.47953 Y0.83143
G01 X0.47587 Y0.82650
G01 X0.47272 Y0.82124
G01 X0.46544 Y0.80763
G01 X0.46075 Y0.79631
G01 X0.45627 Y0.78153
G01 X0.45478 Y0.77558
G01 X0.45388 Y0.76952
G01 X0.45070 Y0.73724
G01 X0.44756 Y0.72686
G01 X0.44244 Y0.71730
G01 X0.43557 Y0.70892
G01 X0.42719 Y0.70204
G01 X0.41762 Y0.69693
G01 X0.40725 Y0.69378
G01 X0.39339 Y0.69242
G01 X0.31772 Y0.69242
G01 X0.31118 Y0.69208
G01 X0.27026 Y0.68778
G01 X0.26380 Y0.68675
G01 X0.25748 Y0.68506
G01 X0.21834 Y0.67234
G01 X0.21223 Y0.67000
G01 X0.20640 Y0.66703
G01 X0.17076 Y0.64645
G01 X0.16528 Y0.64289
G01 X0.16019 Y0.63877
G01 X0.12961 Y0.61123
G01 X0.12498 Y0.60661
G01 X0.12087 Y0.60152
G01 X0.09668 Y0.56823
G01 X0.09311 Y0.56275
G01 X0.09014 Y0.55692
G01 X0.07341 Y0.51932
G01 X0.07106 Y0.51321
G01 X0.06937 Y0.50689
G01 X0.06081 Y0.46664
G01 X0.05979 Y0.46018
G01 X0.05945 Y0.45365
G01 X0.05945 Y0.41249
G01 X0.05979 Y0.40596
G01 X0.06081 Y0.39950
G01 X0.06937 Y0.35924
G01 X0.07106 Y0.35293
G01 X0.07341 Y0.34682
G01 X0.09014 Y0.30922
G01 X0.09311 Y0.30339
G01 X0.09668 Y0.29791
G01 X0.12087 Y0.26461
G01 X0.12498 Y0.25953
G01 X0.12961 Y0.25491
G01 X0.16019 Y0.22737
G01 X0.16528 Y0.22325
G01 X0.17076 Y0.21969
G01 X0.20640 Y0.19911
G01 X0.21223 Y0.19614
G01 X0.21834 Y0.19380
G01 X0.25748 Y0.18108
G01 X0.26380 Y0.17939
G01 X0.27026 Y0.17836
G01 X0.31118 Y0.17406
G01 X0.31772 Y0.17372
G01 X0.39339 Y0.17372
G01 X0.40725 Y0.17236
G01 X0.41762 Y0.16921
G01 X0.42719 Y0.16410
G01 X0.43557 Y0.15722
G01 X0.44245 Y0.14884
G01 X0.44756 Y0.13927
G01 X0.45070 Y0.12890
G01 X0.45388 Y0.09662
G01 X0.45478 Y0.09055
G01 X0.45627 Y0.08460
G01 X0.46075 Y0.06983
G01 X0.46544 Y0.05851
G01 X0.47272 Y0.04490
G01 X0.47587 Y0.03964
G01 X0.47953 Y0.03471
G01 X0.48932 Y0.02278
G01 X0.49798 Y0.01412
G01 X0.50991 Y0.00433
G01 X0.52010 Y-0.00248
G01 X0.53371 Y-0.00975
G01 X0.53926 Y-0.01238
G01 X0.54504 Y-0.01445
G01 X0.55981 Y-0.01893
G01 X0.57182 Y-0.02132
G01 X0.58718 Y-0.02283
G01 X0.59331 Y-0.02313
G01 X7.52244 Y-0.02313
G01 X7.52857 Y-0.02283
G01 X7.54393 Y-0.02132
G01 X7.55594 Y-0.01893
G01 X7.57072 Y-0.01445
G01 X7.57649 Y-0.01238
G01 X7.58204 Y-0.00975
G01 X7.59565 Y-0.00248
G01 X7.60584 Y0.00433
G01 X7.61777 Y0.01412
G01 X7.62231 Y0.01824
G01 X7.62643 Y0.02278
G01 X7.63623 Y0.03472
G01 X7.64303 Y0.04490
G01 X7.65031 Y0.05851
G01 X7.65293 Y0.06406
G01 X7.65500 Y0.06983
G01 X7.65948 Y0.08460
G01 X7.66097 Y0.09055
G01 X7.66187 Y0.09662
G01 X7.66505 Y0.12890
G01 X7.66819 Y0.13927
G01 X7.67331 Y0.14884
G01 X7.68018 Y0.15722
G01 X7.68856 Y0.16410
G01 X7.69813 Y0.16921
G01 X7.70850 Y0.17236
G01 X7.72236 Y0.17372
G01 X7.79803 Y0.17372
G01 X7.80457 Y0.17406
G01 X7.84549 Y0.17836
G01 X7.85195 Y0.17939
G01 X7.85827 Y0.18108
G01 X7.89741 Y0.19380
G01 X7.90352 Y0.19614
G01 X7.90935 Y0.19911
G01 X7.94499 Y0.21969
G01 X7.95048 Y0.22325
G01 X7.95556 Y0.22737
G01 X7.98614 Y0.25491
G01 X7.99077 Y0.25953
G01 X7.99488 Y0.26461
G01 X8.01907 Y0.29791
G01 X8.02264 Y0.30339
G01 X8.02561 Y0.30922
G01 X8.04234 Y0.34682
G01 X8.04469 Y0.35293
G01 X8.04638 Y0.35924
G01 X8.05494 Y0.39950
G01 X8.05596 Y0.40596
G01 X8.05630 Y0.41249

G04 P0 ( dwell for no time -- G64 should not smooth over this point )
G00 Z0.393701 ( retract )

M5 ( Spindle off. )
G04 P1.000000
M9 ( Coolant off. )
M2 ( Program end. )

