(PLATE)
(T1 D=3.175 CR=0. - ZMIN=-2.3 - FLAT END MILL)
(T2 D=1. CR=0. - ZMIN=-2.3 - FLAT END MILL)
G0 G90 G94 G17
G21
(-ATTENTION- PROPERTY SAFE RETRACTS IS SET TO CLEARANCE HEIGHT.)
(ENSURE THE CLEARANCE HEIGHT WILL CLEAR THE PART AND OR FIXTURES.)
(RAISE THE Z-AXIS TO A SAFE HEIGHT BEFORE STARTING THE PROGRAM.)
M5

(2D CONTOUR1)
T1 M6
M3 S5000
G90 G94 G17
G54
G0 X68.41 Y9.682
Z13.
G0 Z3.
G1 Z0.635 F333.
Z-0.083
X68.418 Z-0.153 F350.
X68.441 Z-0.22
X68.479 Z-0.28
X68.53 Z-0.331
X68.59 Z-0.369
X68.657 Z-0.392
X68.728 Z-0.4
X69.045
G3 X69.363 Y10. I0. J0.318
G1 Y15.413
X58.537
Y4.588
X69.363
Y10.
G3 X69.045 Y10.318 I-0.318 J0.
G1 X68.728
X68.657 Z-0.392
X68.59 Z-0.369
X68.53 Z-0.331
X68.479 Z-0.28
X68.441 Z-0.22
X68.418 Z-0.153
X68.41 Z-0.083
G0 Z3.
Y9.682
G1 Z0.235 F333.
Z-0.483
X68.418 Z-0.553 F350.
X68.441 Z-0.62
X68.479 Z-0.68
X68.53 Z-0.731
X68.59 Z-0.769
X68.657 Z-0.792
X68.728 Z-0.8
X69.045
G3 X69.363 Y10. I0. J0.318
G1 Y15.413
X58.537
Y4.588
X69.363
Y10.
G3 X69.045 Y10.318 I-0.318 J0.
G1 X68.728
X68.657 Z-0.792
X68.59 Z-0.769
X68.53 Z-0.731
X68.479 Z-0.68
X68.441 Z-0.62
X68.418 Z-0.553
X68.41 Z-0.483
G0 Z3.
Y9.682
G1 Z-0.165 F333.
Z-0.883
X68.418 Z-0.953 F350.
X68.441 Z-1.02
X68.479 Z-1.08
X68.53 Z-1.131
X68.59 Z-1.169
X68.657 Z-1.192
X68.728 Z-1.2
X69.045
G3 X69.363 Y10. I0. J0.318
G1 Y15.413
X58.537
Y4.588
X69.363
Y10.
G3 X69.045 Y10.318 I-0.318 J0.
G1 X68.728
X68.657 Z-1.192
X68.59 Z-1.169
X68.53 Z-1.131
X68.479 Z-1.08
X68.441 Z-1.02
X68.418 Z-0.953
X68.41 Z-0.883
G0 Z3.
Y9.682
G1 Z-0.565 F333.
Z-1.283
X68.418 Z-1.353 F350.
X68.441 Z-1.42
X68.479 Z-1.48
X68.53 Z-1.531
X68.59 Z-1.569
X68.657 Z-1.592
X68.728 Z-1.6
X69.045
G3 X69.363 Y10. I0. J0.318
G1 Y15.413
X58.537
Y4.588
X69.363
Y10.
G3 X69.045 Y10.318 I-0.318 J0.
G1 X68.728
X68.657 Z-1.592
X68.59 Z-1.569
X68.53 Z-1.531
X68.479 Z-1.48
X68.441 Z-1.42
X68.418 Z-1.353
X68.41 Z-1.283
G0 Z3.
Y9.682
G1 Z-0.965 F333.
Z-1.683
X68.418 Z-1.753 F350.
X68.441 Z-1.82
X68.479 Z-1.88
X68.53 Z-1.931
X68.59 Z-1.969
X68.657 Z-1.992
X68.728 Z-2.
X69.045
G3 X69.363 Y10. I0. J0.318
G1 Y15.413
X58.537
Y4.588
X69.363
Y10.
G3 X69.045 Y10.318 I-0.318 J0.
G1 X68.728
X68.657 Z-1.992
X68.59 Z-1.969
X68.53 Z-1.931
X68.479 Z-1.88
X68.441 Z-1.82
X68.418 Z-1.753
X68.41 Z-1.683
G0 Z3.
Y9.682
G1 Z-1.365 F333.
Z-1.983
X68.418 Z-2.053 F350.
X68.441 Z-2.12
X68.479 Z-2.18
X68.53 Z-2.231
X68.59 Z-2.269
X68.657 Z-2.292
X68.728 Z-2.3
X69.045
G3 X69.363 Y10. I0. J0.318
G1 Y15.413
X58.537
Y4.588
X69.363
Y10.
G3 X69.045 Y10.318 I-0.318 J0.
G1 X68.728
X68.657 Z-2.292
X68.59 Z-2.269
X68.53 Z-2.231
X68.479 Z-2.18
X68.441 Z-2.12
X68.418 Z-2.053
X68.41 Z-1.983
G0 Z3.
X44.11 Y9.682
G1 Z0.635 F333.
Z-0.083
X44.118 Z-0.153 F350.
X44.141 Z-0.22
X44.179 Z-0.28
X44.23 Z-0.331
X44.29 Z-0.369
X44.357 Z-0.392
X44.428 Z-0.4
X44.745
G3 X45.063 Y10. I0. J0.318
G1 Y15.413
X34.237
Y4.588
X45.063
Y10.
G3 X44.745 Y10.318 I-0.318 J0.
G1 X44.428
X44.357 Z-0.392
X44.29 Z-0.369
X44.23 Z-0.331
X44.179 Z-0.28
X44.141 Z-0.22
X44.118 Z-0.153
X44.11 Z-0.083
G0 Z3.
Y9.682
G1 Z0.235 F333.
Z-0.483
X44.118 Z-0.553 F350.
X44.141 Z-0.62
X44.179 Z-0.68
X44.23 Z-0.731
X44.29 Z-0.769
X44.357 Z-0.792
X44.428 Z-0.8
X44.745
G3 X45.063 Y10. I0. J0.318
G1 Y15.413
X34.237
Y4.588
X45.063
Y10.
G3 X44.745 Y10.318 I-0.318 J0.
G1 X44.428
X44.357 Z-0.792
X44.29 Z-0.769
X44.23 Z-0.731
X44.179 Z-0.68
X44.141 Z-0.62
X44.118 Z-0.553
X44.11 Z-0.483
G0 Z3.
Y9.682
G1 Z-0.165 F333.
Z-0.883
X44.118 Z-0.953 F350.
X44.141 Z-1.02
X44.179 Z-1.08
X44.23 Z-1.131
X44.29 Z-1.169
X44.357 Z-1.192
X44.428 Z-1.2
X44.745
G3 X45.063 Y10. I0. J0.318
G1 Y15.413
X34.237
Y4.588
X45.063
Y10.
G3 X44.745 Y10.318 I-0.318 J0.
G1 X44.428
X44.357 Z-1.192
X44.29 Z-1.169
X44.23 Z-1.131
X44.179 Z-1.08
X44.141 Z-1.02
X44.118 Z-0.953
X44.11 Z-0.883
G0 Z3.
Y9.682
G1 Z-0.565 F333.
Z-1.283
X44.118 Z-1.353 F350.
X44.141 Z-1.42
X44.179 Z-1.48
X44.23 Z-1.531
X44.29 Z-1.569
X44.357 Z-1.592
X44.428 Z-1.6
X44.745
G3 X45.063 Y10. I0. J0.318
G1 Y15.413
X34.237
Y4.588
X45.063
Y10.
G3 X44.745 Y10.318 I-0.318 J0.
G1 X44.428
X44.357 Z-1.592
X44.29 Z-1.569
X44.23 Z-1.531
X44.179 Z-1.48
X44.141 Z-1.42
X44.118 Z-1.353
X44.11 Z-1.283
G0 Z3.
Y9.682
G1 Z-0.965 F333.
Z-1.683
X44.118 Z-1.753 F350.
X44.141 Z-1.82
X44.179 Z-1.88
X44.23 Z-1.931
X44.29 Z-1.969
X44.357 Z-1.992
X44.428 Z-2.
X44.745
G3 X45.063 Y10. I0. J0.318
G1 Y15.413
X34.237
Y4.588
X45.063
Y10.
G3 X44.745 Y10.318 I-0.318 J0.
G1 X44.428
X44.357 Z-1.992
X44.29 Z-1.969
X44.23 Z-1.931
X44.179 Z-1.88
X44.141 Z-1.82
X44.118 Z-1.753
X44.11 Z-1.683
G0 Z3.
Y9.682
G1 Z-1.365 F333.
Z-1.983
X44.118 Z-2.053 F350.
X44.141 Z-2.12
X44.179 Z-2.18
X44.23 Z-2.231
X44.29 Z-2.269
X44.357 Z-2.292
X44.428 Z-2.3
X44.745
G3 X45.063 Y10. I0. J0.318
G1 Y15.413
X34.237
Y4.588
X45.063
Y10.
G3 X44.745 Y10.318 I-0.318 J0.
G1 X44.428
X44.357 Z-2.292
X44.29 Z-2.269
X44.23 Z-2.231
X44.179 Z-2.18
X44.141 Z-2.12
X44.118 Z-2.053
X44.11 Z-1.983
G0 Z3.
X19.81 Y9.682
G1 Z0.635 F333.
Z-0.083
X19.818 Z-0.153 F350.
X19.841 Z-0.22
X19.879 Z-0.28
X19.93 Z-0.331
X19.99 Z-0.369
X20.057 Z-0.392
X20.128 Z-0.4
X20.445
G3 X20.763 Y10. I0. J0.318
G1 Y15.413
X9.938
Y4.588
X20.763
Y10.
G3 X20.445 Y10.318 I-0.318 J0.
G1 X20.128
X20.057 Z-0.392
X19.99 Z-0.369
X19.93 Z-0.331
X19.879 Z-0.28
X19.841 Z-0.22
X19.818 Z-0.153
X19.81 Z-0.083
G0 Z3.
Y9.682
G1 Z0.235 F333.
Z-0.483
X19.818 Z-0.553 F350.
X19.841 Z-0.62
X19.879 Z-0.68
X19.93 Z-0.731
X19.99 Z-0.769
X20.057 Z-0.792
X20.128 Z-0.8
X20.445
G3 X20.763 Y10. I0. J0.318
G1 Y15.413
X9.938
Y4.588
X20.763
Y10.
G3 X20.445 Y10.318 I-0.318 J0.
G1 X20.128
X20.057 Z-0.792
X19.99 Z-0.769
X19.93 Z-0.731
X19.879 Z-0.68
X19.841 Z-0.62
X19.818 Z-0.553
X19.81 Z-0.483
G0 Z3.
Y9.682
G1 Z-0.165 F333.
Z-0.883
X19.818 Z-0.953 F350.
X19.841 Z-1.02
X19.879 Z-1.08
X19.93 Z-1.131
X19.99 Z-1.169
X20.057 Z-1.192
X20.128 Z-1.2
X20.445
G3 X20.763 Y10. I0. J0.318
G1 Y15.413
X9.938
Y4.588
X20.763
Y10.
G3 X20.445 Y10.318 I-0.318 J0.
G1 X20.128
X20.057 Z-1.192
X19.99 Z-1.169
X19.93 Z-1.131
X19.879 Z-1.08
X19.841 Z-1.02
X19.818 Z-0.953
X19.81 Z-0.883
G0 Z3.
Y9.682
G1 Z-0.565 F333.
Z-1.283
X19.818 Z-1.353 F350.
X19.841 Z-1.42
X19.879 Z-1.48
X19.93 Z-1.531
X19.99 Z-1.569
X20.057 Z-1.592
X20.128 Z-1.6
X20.445
G3 X20.763 Y10. I0. J0.318
G1 Y15.413
X9.938
Y4.588
X20.763
Y10.
G3 X20.445 Y10.318 I-0.318 J0.
G1 X20.128
X20.057 Z-1.592
X19.99 Z-1.569
X19.93 Z-1.531
X19.879 Z-1.48
X19.841 Z-1.42
X19.818 Z-1.353
X19.81 Z-1.283
G0 Z3.
Y9.682
G1 Z-0.965 F333.
Z-1.683
X19.818 Z-1.753 F350.
X19.841 Z-1.82
X19.879 Z-1.88
X19.93 Z-1.931
X19.99 Z-1.969
X20.057 Z-1.992
X20.128 Z-2.
X20.445
G3 X20.763 Y10. I0. J0.318
G1 Y15.413
X9.938
Y4.588
X20.763
Y10.
G3 X20.445 Y10.318 I-0.318 J0.
G1 X20.128
X20.057 Z-1.992
X19.99 Z-1.969
X19.93 Z-1.931
X19.879 Z-1.88
X19.841 Z-1.82
X19.818 Z-1.753
X19.81 Z-1.683
G0 Z3.
Y9.682
G1 Z-1.365 F333.
Z-1.983
X19.818 Z-2.053 F350.
X19.841 Z-2.12
X19.879 Z-2.18
X19.93 Z-2.231
X19.99 Z-2.269
X20.057 Z-2.292
X20.128 Z-2.3
X20.445
G3 X20.763 Y10. I0. J0.318
G1 Y15.413
X9.938
Y4.588
X20.763
Y10.
G3 X20.445 Y10.318 I-0.318 J0.
G1 X20.128
X20.057 Z-2.292
X19.99 Z-2.269
X19.93 Z-2.231
X19.879 Z-2.18
X19.841 Z-2.12
X19.818 Z-2.053
X19.81 Z-1.983
G0 Z3.
X169.11 Y9.682
G1 Z0.635 F333.
Z-0.083
X169.118 Z-0.153 F350.
X169.141 Z-0.22
X169.179 Z-0.28
X169.23 Z-0.331
X169.29 Z-0.369
X169.357 Z-0.392
X169.428 Z-0.4
X169.745
G3 X170.063 Y10. I0. J0.318
G1 Y15.413
X159.238
Y4.588
X170.063
Y10.
G3 X169.745 Y10.318 I-0.318 J0.
G1 X169.428
X169.357 Z-0.392
X169.29 Z-0.369
X169.23 Z-0.331
X169.179 Z-0.28
X169.141 Z-0.22
X169.118 Z-0.153
X169.11 Z-0.083
G0 Z3.
Y9.682
G1 Z0.235 F333.
Z-0.483
X169.118 Z-0.553 F350.
X169.141 Z-0.62
X169.179 Z-0.68
X169.23 Z-0.731
X169.29 Z-0.769
X169.357 Z-0.792
X169.428 Z-0.8
X169.745
G3 X170.063 Y10. I0. J0.318
G1 Y15.413
X159.238
Y4.588
X170.063
Y10.
G3 X169.745 Y10.318 I-0.318 J0.
G1 X169.428
X169.357 Z-0.792
X169.29 Z-0.769
X169.23 Z-0.731
X169.179 Z-0.68
X169.141 Z-0.62
X169.118 Z-0.553
X169.11 Z-0.483
G0 Z3.
Y9.682
G1 Z-0.165 F333.
Z-0.883
X169.118 Z-0.953 F350.
X169.141 Z-1.02
X169.179 Z-1.08
X169.23 Z-1.131
X169.29 Z-1.169
X169.357 Z-1.192
X169.428 Z-1.2
X169.745
G3 X170.063 Y10. I0. J0.318
G1 Y15.413
X159.238
Y4.588
X170.063
Y10.
G3 X169.745 Y10.318 I-0.318 J0.
G1 X169.428
X169.357 Z-1.192
X169.29 Z-1.169
X169.23 Z-1.131
X169.179 Z-1.08
X169.141 Z-1.02
X169.118 Z-0.953
X169.11 Z-0.883
G0 Z3.
Y9.682
G1 Z-0.565 F333.
Z-1.283
X169.118 Z-1.353 F350.
X169.141 Z-1.42
X169.179 Z-1.48
X169.23 Z-1.531
X169.29 Z-1.569
X169.357 Z-1.592
X169.428 Z-1.6
X169.745
G3 X170.063 Y10. I0. J0.318
G1 Y15.413
X159.238
Y4.588
X170.063
Y10.
G3 X169.745 Y10.318 I-0.318 J0.
G1 X169.428
X169.357 Z-1.592
X169.29 Z-1.569
X169.23 Z-1.531
X169.179 Z-1.48
X169.141 Z-1.42
X169.118 Z-1.353
X169.11 Z-1.283
G0 Z3.
Y9.682
G1 Z-0.965 F333.
Z-1.683
X169.118 Z-1.753 F350.
X169.141 Z-1.82
X169.179 Z-1.88
X169.23 Z-1.931
X169.29 Z-1.969
X169.357 Z-1.992
X169.428 Z-2.
X169.745
G3 X170.063 Y10. I0. J0.318
G1 Y15.413
X159.238
Y4.588
X170.063
Y10.
G3 X169.745 Y10.318 I-0.318 J0.
G1 X169.428
X169.357 Z-1.992
X169.29 Z-1.969
X169.23 Z-1.931
X169.179 Z-1.88
X169.141 Z-1.82
X169.118 Z-1.753
X169.11 Z-1.683
G0 Z3.
Y9.682
G1 Z-1.365 F333.
Z-1.983
X169.118 Z-2.053 F350.
X169.141 Z-2.12
X169.179 Z-2.18
X169.23 Z-2.231
X169.29 Z-2.269
X169.357 Z-2.292
X169.428 Z-2.3
X169.745
G3 X170.063 Y10. I0. J0.318
G1 Y15.413
X159.238
Y4.588
X170.063
Y10.
G3 X169.745 Y10.318 I-0.318 J0.
G1 X169.428
X169.357 Z-2.292
X169.29 Z-2.269
X169.23 Z-2.231
X169.179 Z-2.18
X169.141 Z-2.12
X169.118 Z-2.053
X169.11 Z-1.983
G0 Z13.
M5

(2D CONTOUR1 2)
M1
T2 M6
M3 S5000
G90 G94 G17
G54
M8
G0 X70.15 Y15.309
Z13.
G0 Z3.
G1 Z0.2 F333.
Z-0.9
X70.158 Z-0.938 F200.
X70.179 Z-0.971
X70.212 Z-0.992
X70.25 Z-1.
X70.35
X70.388 Y15.316
X70.421 Y15.338
X70.442 Y15.37
X70.45 Y15.409
Y16.5
X69.568
X69.359
X69.32 Y16.492
X69.288 Y16.471
X69.266 Y16.438
X69.259 Y16.4
Y16.3
Y16.262 Z-0.992
Y16.229 Z-0.971
Y16.208 Z-0.938
Y16.2 Z-0.9
G0 Z3.
X70.15 Y15.309
G1 Z-0.8 F333.
Z-1.9
X70.158 Z-1.938 F200.
X70.179 Z-1.971
X70.212 Z-1.992
X70.25 Z-2.
X70.35
X70.388 Y15.316
X70.421 Y15.338
X70.442 Y15.37
X70.45 Y15.409
Y16.5
X69.568
X69.359
X69.32 Y16.492
X69.288 Y16.471
X69.266 Y16.438
X69.259 Y16.4
Y16.3
Y16.262 Z-1.992
Y16.229 Z-1.971
Y16.208 Z-1.938
Y16.2 Z-1.9
G0 Z3.
X70.15 Y15.309
G1 Z-1.8 F333.
Z-2.2
X70.158 Z-2.238 F200.
X70.179 Z-2.271
X70.212 Z-2.292
X70.25 Z-2.3
X70.35
X70.388 Y15.316
X70.421 Y15.338
X70.442 Y15.37
X70.45 Y15.409
Y16.5
X69.568
X69.359
X69.32 Y16.492
X69.288 Y16.471
X69.266 Y16.438
X69.259 Y16.4
Y16.3
Y16.262 Z-2.292
Y16.229 Z-2.271
Y16.208 Z-2.238
Y16.2 Z-2.2
G0 Z3.
X58.641
G1 Z0.2 F333.
Z-0.9
Y16.208 Z-0.938 F200.
Y16.229 Z-0.971
Y16.262 Z-0.992
Y16.3 Z-1.
Y16.4
X58.634 Y16.438
X58.612 Y16.471
X58.58 Y16.492
X58.541 Y16.5
X57.45
Y15.618
Y15.409
X57.458 Y15.37
X57.479 Y15.338
X57.512 Y15.316
X57.55 Y15.309
X57.65
X57.688 Z-0.992
X57.721 Z-0.971
X57.742 Z-0.938
X57.75 Z-0.9
G0 Z3.
X58.641 Y16.2
G1 Z-0.8 F333.
Z-1.9
Y16.208 Z-1.938 F200.
Y16.229 Z-1.971
Y16.262 Z-1.992
Y16.3 Z-2.
Y16.4
X58.634 Y16.438
X58.612 Y16.471
X58.58 Y16.492
X58.541 Y16.5
X57.45
Y15.618
Y15.409
X57.458 Y15.37
X57.479 Y15.338
X57.512 Y15.316
X57.55 Y15.309
X57.65
X57.688 Z-1.992
X57.721 Z-1.971
X57.742 Z-1.938
X57.75 Z-1.9
G0 Z3.
X58.641 Y16.2
G1 Z-1.8 F333.
Z-2.2
Y16.208 Z-2.238 F200.
Y16.229 Z-2.271
Y16.262 Z-2.292
Y16.3 Z-2.3
Y16.4
X58.634 Y16.438
X58.612 Y16.471
X58.58 Y16.492
X58.541 Y16.5
X57.45
Y15.618
Y15.409
X57.458 Y15.37
X57.479 Y15.338
X57.512 Y15.316
X57.55 Y15.309
X57.65
X57.688 Z-2.292
X57.721 Z-2.271
X57.742 Z-2.238
X57.75 Z-2.2
G0 Z3.
Y4.691
G1 Z0.2 F333.
Z-0.9
X57.742 Z-0.938 F200.
X57.721 Z-0.971
X57.688 Z-0.992
X57.65 Z-1.
X57.55
X57.512 Y4.684
X57.479 Y4.662
X57.458 Y4.63
X57.45 Y4.591
Y3.5
X58.332
X58.541
X58.58 Y3.508
X58.612 Y3.529
X58.634 Y3.562
X58.641 Y3.6
Y3.7
Y3.738 Z-0.992
Y3.771 Z-0.971
Y3.792 Z-0.938
Y3.8 Z-0.9
G0 Z3.
X57.75 Y4.691
G1 Z-0.8 F333.
Z-1.9
X57.742 Z-1.938 F200.
X57.721 Z-1.971
X57.688 Z-1.992
X57.65 Z-2.
X57.55
X57.512 Y4.684
X57.479 Y4.662
X57.458 Y4.63
X57.45 Y4.591
Y3.5
X58.332
X58.541
X58.58 Y3.508
X58.612 Y3.529
X58.634 Y3.562
X58.641 Y3.6
Y3.7
Y3.738 Z-1.992
Y3.771 Z-1.971
Y3.792 Z-1.938
Y3.8 Z-1.9
G0 Z3.
X57.75 Y4.691
G1 Z-1.8 F333.
Z-2.2
X57.742 Z-2.238 F200.
X57.721 Z-2.271
X57.688 Z-2.292
X57.65 Z-2.3
X57.55
X57.512 Y4.684
X57.479 Y4.662
X57.458 Y4.63
X57.45 Y4.591
Y3.5
X58.332
X58.541
X58.58 Y3.508
X58.612 Y3.529
X58.634 Y3.562
X58.641 Y3.6
Y3.7
Y3.738 Z-2.292
Y3.771 Z-2.271
Y3.792 Z-2.238
Y3.8 Z-2.2
G0 Z3.
X69.259
G1 Z0.2 F333.
Z-0.9
Y3.792 Z-0.938 F200.
Y3.771 Z-0.971
Y3.738 Z-0.992
Y3.7 Z-1.
Y3.6
X69.266 Y3.562
X69.288 Y3.529
X69.32 Y3.508
X69.359 Y3.5
X70.45
Y4.382
Y4.591
X70.442 Y4.63
X70.421 Y4.662
X70.388 Y4.684
X70.35 Y4.691
X70.25
X70.212 Z-0.992
X70.179 Z-0.971
X70.158 Z-0.938
X70.15 Z-0.9
G0 Z3.
X69.259 Y3.8
G1 Z-0.8 F333.
Z-1.9
Y3.792 Z-1.938 F200.
Y3.771 Z-1.971
Y3.738 Z-1.992
Y3.7 Z-2.
Y3.6
X69.266 Y3.562
X69.288 Y3.529
X69.32 Y3.508
X69.359 Y3.5
X70.45
Y4.382
Y4.591
X70.442 Y4.63
X70.421 Y4.662
X70.388 Y4.684
X70.35 Y4.691
X70.25
X70.212 Z-1.992
X70.179 Z-1.971
X70.158 Z-1.938
X70.15 Z-1.9
G0 Z3.
X69.259 Y3.8
G1 Z-1.8 F333.
Z-2.2
Y3.792 Z-2.238 F200.
Y3.771 Z-2.271
Y3.738 Z-2.292
Y3.7 Z-2.3
Y3.6
X69.266 Y3.562
X69.288 Y3.529
X69.32 Y3.508
X69.359 Y3.5
X70.45
Y4.382
Y4.591
X70.442 Y4.63
X70.421 Y4.662
X70.388 Y4.684
X70.35 Y4.691
X70.25
X70.212 Z-2.292
X70.179 Z-2.271
X70.158 Z-2.238
X70.15 Z-2.2
G0 Z3.
X44.959 Y3.8
G1 Z0.2 F333.
Z-0.9
Y3.792 Z-0.938 F200.
Y3.771 Z-0.971
Y3.738 Z-0.992
Y3.7 Z-1.
Y3.6
X44.966 Y3.562
X44.988 Y3.529
X45.02 Y3.508
X45.059 Y3.5
X46.15
Y4.382
Y4.591
X46.142 Y4.63
X46.121 Y4.662
X46.088 Y4.684
X46.05 Y4.691
X45.95
X45.912 Z-0.992
X45.879 Z-0.971
X45.858 Z-0.938
X45.85 Z-0.9
G0 Z3.
X44.959 Y3.8
G1 Z-0.8 F333.
Z-1.9
Y3.792 Z-1.938 F200.
Y3.771 Z-1.971
Y3.738 Z-1.992
Y3.7 Z-2.
Y3.6
X44.966 Y3.562
X44.988 Y3.529
X45.02 Y3.508
X45.059 Y3.5
X46.15
Y4.382
Y4.591
X46.142 Y4.63
X46.121 Y4.662
X46.088 Y4.684
X46.05 Y4.691
X45.95
X45.912 Z-1.992
X45.879 Z-1.971
X45.858 Z-1.938
X45.85 Z-1.9
G0 Z3.
X44.959 Y3.8
G1 Z-1.8 F333.
Z-2.2
Y3.792 Z-2.238 F200.
Y3.771 Z-2.271
Y3.738 Z-2.292
Y3.7 Z-2.3
Y3.6
X44.966 Y3.562
X44.988 Y3.529
X45.02 Y3.508
X45.059 Y3.5
X46.15
Y4.382
Y4.591
X46.142 Y4.63
X46.121 Y4.662
X46.088 Y4.684
X46.05 Y4.691
X45.95
X45.912 Z-2.292
X45.879 Z-2.271
X45.858 Z-2.238
X45.85 Z-2.2
G0 Z3.
Y15.309
G1 Z0.2 F333.
Z-0.9
X45.858 Z-0.938 F200.
X45.879 Z-0.971
X45.912 Z-0.992
X45.95 Z-1.
X46.05
X46.088 Y15.316
X46.121 Y15.338
X46.142 Y15.37
X46.15 Y15.409
Y16.5
X45.268
X45.059
X45.02 Y16.492
X44.988 Y16.471
X44.966 Y16.438
X44.959 Y16.4
Y16.3
Y16.262 Z-0.992
Y16.229 Z-0.971
Y16.208 Z-0.938
Y16.2 Z-0.9
G0 Z3.
X45.85 Y15.309
G1 Z-0.8 F333.
Z-1.9
X45.858 Z-1.938 F200.
X45.879 Z-1.971
X45.912 Z-1.992
X45.95 Z-2.
X46.05
X46.088 Y15.316
X46.121 Y15.338
X46.142 Y15.37
X46.15 Y15.409
Y16.5
X45.268
X45.059
X45.02 Y16.492
X44.988 Y16.471
X44.966 Y16.438
X44.959 Y16.4
Y16.3
Y16.262 Z-1.992
Y16.229 Z-1.971
Y16.208 Z-1.938
Y16.2 Z-1.9
G0 Z3.
X45.85 Y15.309
G1 Z-1.8 F333.
Z-2.2
X45.858 Z-2.238 F200.
X45.879 Z-2.271
X45.912 Z-2.292
X45.95 Z-2.3
X46.05
X46.088 Y15.316
X46.121 Y15.338
X46.142 Y15.37
X46.15 Y15.409
Y16.5
X45.268
X45.059
X45.02 Y16.492
X44.988 Y16.471
X44.966 Y16.438
X44.959 Y16.4
Y16.3
Y16.262 Z-2.292
Y16.229 Z-2.271
Y16.208 Z-2.238
Y16.2 Z-2.2
G0 Z3.
X34.341
G1 Z0.2 F333.
Z-0.9
Y16.208 Z-0.938 F200.
Y16.229 Z-0.971
Y16.262 Z-0.992
Y16.3 Z-1.
Y16.4
X34.334 Y16.438
X34.312 Y16.471
X34.28 Y16.492
X34.241 Y16.5
X33.15
Y15.618
Y15.409
X33.158 Y15.37
X33.179 Y15.338
X33.212 Y15.316
X33.25 Y15.309
X33.35
X33.388 Z-0.992
X33.421 Z-0.971
X33.442 Z-0.938
X33.45 Z-0.9
G0 Z3.
X34.341 Y16.2
G1 Z-0.8 F333.
Z-1.9
Y16.208 Z-1.938 F200.
Y16.229 Z-1.971
Y16.262 Z-1.992
Y16.3 Z-2.
Y16.4
X34.334 Y16.438
X34.312 Y16.471
X34.28 Y16.492
X34.241 Y16.5
X33.15
Y15.618
Y15.409
X33.158 Y15.37
X33.179 Y15.338
X33.212 Y15.316
X33.25 Y15.309
X33.35
X33.388 Z-1.992
X33.421 Z-1.971
X33.442 Z-1.938
X33.45 Z-1.9
G0 Z3.
X34.341 Y16.2
G1 Z-1.8 F333.
Z-2.2
Y16.208 Z-2.238 F200.
Y16.229 Z-2.271
Y16.262 Z-2.292
Y16.3 Z-2.3
Y16.4
X34.334 Y16.438
X34.312 Y16.471
X34.28 Y16.492
X34.241 Y16.5
X33.15
Y15.618
Y15.409
X33.158 Y15.37
X33.179 Y15.338
X33.212 Y15.316
X33.25 Y15.309
X33.35
X33.388 Z-2.292
X33.421 Z-2.271
X33.442 Z-2.238
X33.45 Z-2.2
G0 Z3.
Y4.691
G1 Z0.2 F333.
Z-0.9
X33.442 Z-0.938 F200.
X33.421 Z-0.971
X33.388 Z-0.992
X33.35 Z-1.
X33.25
X33.212 Y4.684
X33.179 Y4.662
X33.158 Y4.63
X33.15 Y4.591
Y3.5
X34.032
X34.241
X34.28 Y3.508
X34.312 Y3.529
X34.334 Y3.562
X34.341 Y3.6
Y3.7
Y3.738 Z-0.992
Y3.771 Z-0.971
Y3.792 Z-0.938
Y3.8 Z-0.9
G0 Z3.
X33.45 Y4.691
G1 Z-0.8 F333.
Z-1.9
X33.442 Z-1.938 F200.
X33.421 Z-1.971
X33.388 Z-1.992
X33.35 Z-2.
X33.25
X33.212 Y4.684
X33.179 Y4.662
X33.158 Y4.63
X33.15 Y4.591
Y3.5
X34.032
X34.241
X34.28 Y3.508
X34.312 Y3.529
X34.334 Y3.562
X34.341 Y3.6
Y3.7
Y3.738 Z-1.992
Y3.771 Z-1.971
Y3.792 Z-1.938
Y3.8 Z-1.9
G0 Z3.
X33.45 Y4.691
G1 Z-1.8 F333.
Z-2.2
X33.442 Z-2.238 F200.
X33.421 Z-2.271
X33.388 Z-2.292
X33.35 Z-2.3
X33.25
X33.212 Y4.684
X33.179 Y4.662
X33.158 Y4.63
X33.15 Y4.591
Y3.5
X34.032
X34.241
X34.28 Y3.508
X34.312 Y3.529
X34.334 Y3.562
X34.341 Y3.6
Y3.7
Y3.738 Z-2.292
Y3.771 Z-2.271
Y3.792 Z-2.238
Y3.8 Z-2.2
G0 Z3.
X20.659
G1 Z0.2 F333.
Z-0.9
Y3.792 Z-0.938 F200.
Y3.771 Z-0.971
Y3.738 Z-0.992
Y3.7 Z-1.
Y3.6
X20.666 Y3.562
X20.688 Y3.529
X20.72 Y3.508
X20.759 Y3.5
X21.85
Y4.382
Y4.591
X21.842 Y4.63
X21.821 Y4.662
X21.788 Y4.684
X21.75 Y4.691
X21.65
X21.612 Z-0.992
X21.579 Z-0.971
X21.558 Z-0.938
X21.55 Z-0.9
G0 Z3.
X20.659 Y3.8
G1 Z-0.8 F333.
Z-1.9
Y3.792 Z-1.938 F200.
Y3.771 Z-1.971
Y3.738 Z-1.992
Y3.7 Z-2.
Y3.6
X20.666 Y3.562
X20.688 Y3.529
X20.72 Y3.508
X20.759 Y3.5
X21.85
Y4.382
Y4.591
X21.842 Y4.63
X21.821 Y4.662
X21.788 Y4.684
X21.75 Y4.691
X21.65
X21.612 Z-1.992
X21.579 Z-1.971
X21.558 Z-1.938
X21.55 Z-1.9
G0 Z3.
X20.659 Y3.8
G1 Z-1.8 F333.
Z-2.2
Y3.792 Z-2.238 F200.
Y3.771 Z-2.271
Y3.738 Z-2.292
Y3.7 Z-2.3
Y3.6
X20.666 Y3.562
X20.688 Y3.529
X20.72 Y3.508
X20.759 Y3.5
X21.85
Y4.382
Y4.591
X21.842 Y4.63
X21.821 Y4.662
X21.788 Y4.684
X21.75 Y4.691
X21.65
X21.612 Z-2.292
X21.579 Z-2.271
X21.558 Z-2.238
X21.55 Z-2.2
G0 Z3.
Y15.309
G1 Z0.2 F333.
Z-0.9
X21.558 Z-0.938 F200.
X21.579 Z-0.971
X21.612 Z-0.992
X21.65 Z-1.
X21.75
X21.788 Y15.316
X21.821 Y15.338
X21.842 Y15.37
X21.85 Y15.409
Y16.5
X20.968
X20.759
X20.72 Y16.492
X20.688 Y16.471
X20.666 Y16.438
X20.659 Y16.4
Y16.3
Y16.262 Z-0.992
Y16.229 Z-0.971
Y16.208 Z-0.938
Y16.2 Z-0.9
G0 Z3.
X21.55 Y15.309
G1 Z-0.8 F333.
Z-1.9
X21.558 Z-1.938 F200.
X21.579 Z-1.971
X21.612 Z-1.992
X21.65 Z-2.
X21.75
X21.788 Y15.316
X21.821 Y15.338
X21.842 Y15.37
X21.85 Y15.409
Y16.5
X20.968
X20.759
X20.72 Y16.492
X20.688 Y16.471
X20.666 Y16.438
X20.659 Y16.4
Y16.3
Y16.262 Z-1.992
Y16.229 Z-1.971
Y16.208 Z-1.938
Y16.2 Z-1.9
G0 Z3.
X21.55 Y15.309
G1 Z-1.8 F333.
Z-2.2
X21.558 Z-2.238 F200.
X21.579 Z-2.271
X21.612 Z-2.292
X21.65 Z-2.3
X21.75
X21.788 Y15.316
X21.821 Y15.338
X21.842 Y15.37
X21.85 Y15.409
Y16.5
X20.968
X20.759
X20.72 Y16.492
X20.688 Y16.471
X20.666 Y16.438
X20.659 Y16.4
Y16.3
Y16.262 Z-2.292
Y16.229 Z-2.271
Y16.208 Z-2.238
Y16.2 Z-2.2
G0 Z3.
X10.041
G1 Z0.2 F333.
Z-0.9
Y16.208 Z-0.938 F200.
Y16.229 Z-0.971
Y16.262 Z-0.992
Y16.3 Z-1.
Y16.4
X10.034 Y16.438
X10.012 Y16.471
X9.98 Y16.492
X9.941 Y16.5
X8.85
Y15.618
Y15.409
X8.858 Y15.37
X8.879 Y15.338
X8.912 Y15.316
X8.95 Y15.309
X9.05
X9.088 Z-0.992
X9.121 Z-0.971
X9.142 Z-0.938
X9.15 Z-0.9
G0 Z3.
X10.041 Y16.2
G1 Z-0.8 F333.
Z-1.9
Y16.208 Z-1.938 F200.
Y16.229 Z-1.971
Y16.262 Z-1.992
Y16.3 Z-2.
Y16.4
X10.034 Y16.438
X10.012 Y16.471
X9.98 Y16.492
X9.941 Y16.5
X8.85
Y15.618
Y15.409
X8.858 Y15.37
X8.879 Y15.338
X8.912 Y15.316
X8.95 Y15.309
X9.05
X9.088 Z-1.992
X9.121 Z-1.971
X9.142 Z-1.938
X9.15 Z-1.9
G0 Z3.
X10.041 Y16.2
G1 Z-1.8 F333.
Z-2.2
Y16.208 Z-2.238 F200.
Y16.229 Z-2.271
Y16.262 Z-2.292
Y16.3 Z-2.3
Y16.4
X10.034 Y16.438
X10.012 Y16.471
X9.98 Y16.492
X9.941 Y16.5
X8.85
Y15.618
Y15.409
X8.858 Y15.37
X8.879 Y15.338
X8.912 Y15.316
X8.95 Y15.309
X9.05
X9.088 Z-2.292
X9.121 Z-2.271
X9.142 Z-2.238
X9.15 Z-2.2
G0 Z3.
Y4.691
G1 Z0.2 F333.
Z-0.9
X9.142 Z-0.938 F200.
X9.121 Z-0.971
X9.088 Z-0.992
X9.05 Z-1.
X8.95
X8.912 Y4.684
X8.879 Y4.662
X8.858 Y4.63
X8.85 Y4.591
Y3.5
X9.732
X9.941
X9.98 Y3.508
X10.012 Y3.529
X10.034 Y3.562
X10.041 Y3.6
Y3.7
Y3.738 Z-0.992
Y3.771 Z-0.971
Y3.792 Z-0.938
Y3.8 Z-0.9
G0 Z3.
X9.15 Y4.691
G1 Z-0.8 F333.
Z-1.9
X9.142 Z-1.938 F200.
X9.121 Z-1.971
X9.088 Z-1.992
X9.05 Z-2.
X8.95
X8.912 Y4.684
X8.879 Y4.662
X8.858 Y4.63
X8.85 Y4.591
Y3.5
X9.732
X9.941
X9.98 Y3.508
X10.012 Y3.529
X10.034 Y3.562
X10.041 Y3.6
Y3.7
Y3.738 Z-1.992
Y3.771 Z-1.971
Y3.792 Z-1.938
Y3.8 Z-1.9
G0 Z3.
X9.15 Y4.691
G1 Z-1.8 F333.
Z-2.2
X9.142 Z-2.238 F200.
X9.121 Z-2.271
X9.088 Z-2.292
X9.05 Z-2.3
X8.95
X8.912 Y4.684
X8.879 Y4.662
X8.858 Y4.63
X8.85 Y4.591
Y3.5
X9.732
X9.941
X9.98 Y3.508
X10.012 Y3.529
X10.034 Y3.562
X10.041 Y3.6
Y3.7
Y3.738 Z-2.292
Y3.771 Z-2.271
Y3.792 Z-2.238
Y3.8 Z-2.2
G0 Z3.
X158.45 Y4.691
G1 Z0.2 F333.
Z-0.9
X158.442 Z-0.938 F200.
X158.421 Z-0.971
X158.388 Z-0.992
X158.35 Z-1.
X158.25
X158.212 Y4.684
X158.179 Y4.662
X158.158 Y4.63
X158.15 Y4.591
Y3.5
X159.032
X159.241
X159.28 Y3.508
X159.312 Y3.529
X159.334 Y3.562
X159.341 Y3.6
Y3.7
Y3.738 Z-0.992
Y3.771 Z-0.971
Y3.792 Z-0.938
Y3.8 Z-0.9
G0 Z3.
X158.45 Y4.691
G1 Z-0.8 F333.
Z-1.9
X158.442 Z-1.938 F200.
X158.421 Z-1.971
X158.388 Z-1.992
X158.35 Z-2.
X158.25
X158.212 Y4.684
X158.179 Y4.662
X158.158 Y4.63
X158.15 Y4.591
Y3.5
X159.032
X159.241
X159.28 Y3.508
X159.312 Y3.529
X159.334 Y3.562
X159.341 Y3.6
Y3.7
Y3.738 Z-1.992
Y3.771 Z-1.971
Y3.792 Z-1.938
Y3.8 Z-1.9
G0 Z3.
X158.45 Y4.691
G1 Z-1.8 F333.
Z-2.2
X158.442 Z-2.238 F200.
X158.421 Z-2.271
X158.388 Z-2.292
X158.35 Z-2.3
X158.25
X158.212 Y4.684
X158.179 Y4.662
X158.158 Y4.63
X158.15 Y4.591
Y3.5
X159.032
X159.241
X159.28 Y3.508
X159.312 Y3.529
X159.334 Y3.562
X159.341 Y3.6
Y3.7
Y3.738 Z-2.292
Y3.771 Z-2.271
Y3.792 Z-2.238
Y3.8 Z-2.2
G0 Z3.
X169.959
G1 Z0.2 F333.
Z-0.9
Y3.792 Z-0.938 F200.
Y3.771 Z-0.971
Y3.738 Z-0.992
Y3.7 Z-1.
Y3.6
X169.966 Y3.562
X169.988 Y3.529
X170.02 Y3.508
X170.059 Y3.5
X171.15
Y4.382
Y4.591
X171.142 Y4.63
X171.121 Y4.662
X171.088 Y4.684
X171.05 Y4.691
X170.95
X170.912 Z-0.992
X170.879 Z-0.971
X170.858 Z-0.938
X170.85 Z-0.9
G0 Z3.
X169.959 Y3.8
G1 Z-0.8 F333.
Z-1.9
Y3.792 Z-1.938 F200.
Y3.771 Z-1.971
Y3.738 Z-1.992
Y3.7 Z-2.
Y3.6
X169.966 Y3.562
X169.988 Y3.529
X170.02 Y3.508
X170.059 Y3.5
X171.15
Y4.382
Y4.591
X171.142 Y4.63
X171.121 Y4.662
X171.088 Y4.684
X171.05 Y4.691
X170.95
X170.912 Z-1.992
X170.879 Z-1.971
X170.858 Z-1.938
X170.85 Z-1.9
G0 Z3.
X169.959 Y3.8
G1 Z-1.8 F333.
Z-2.2
Y3.792 Z-2.238 F200.
Y3.771 Z-2.271
Y3.738 Z-2.292
Y3.7 Z-2.3
Y3.6
X169.966 Y3.562
X169.988 Y3.529
X170.02 Y3.508
X170.059 Y3.5
X171.15
Y4.382
Y4.591
X171.142 Y4.63
X171.121 Y4.662
X171.088 Y4.684
X171.05 Y4.691
X170.95
X170.912 Z-2.292
X170.879 Z-2.271
X170.858 Z-2.238
X170.85 Z-2.2
G0 Z3.
Y15.309
G1 Z0.2 F333.
Z-0.9
X170.858 Z-0.938 F200.
X170.879 Z-0.971
X170.912 Z-0.992
X170.95 Z-1.
X171.05
X171.088 Y15.316
X171.121 Y15.338
X171.142 Y15.37
X171.15 Y15.409
Y16.5
X170.268
X170.059
X170.02 Y16.492
X169.988 Y16.471
X169.966 Y16.438
X169.959 Y16.4
Y16.3
Y16.262 Z-0.992
Y16.229 Z-0.971
Y16.208 Z-0.938
Y16.2 Z-0.9
G0 Z3.
X170.85 Y15.309
G1 Z-0.8 F333.
Z-1.9
X170.858 Z-1.938 F200.
X170.879 Z-1.971
X170.912 Z-1.992
X170.95 Z-2.
X171.05
X171.088 Y15.316
X171.121 Y15.338
X171.142 Y15.37
X171.15 Y15.409
Y16.5
X170.268
X170.059
X170.02 Y16.492
X169.988 Y16.471
X169.966 Y16.438
X169.959 Y16.4
Y16.3
Y16.262 Z-1.992
Y16.229 Z-1.971
Y16.208 Z-1.938
Y16.2 Z-1.9
G0 Z3.
X170.85 Y15.309
G1 Z-1.8 F333.
Z-2.2
X170.858 Z-2.238 F200.
X170.879 Z-2.271
X170.912 Z-2.292
X170.95 Z-2.3
X171.05
X171.088 Y15.316
X171.121 Y15.338
X171.142 Y15.37
X171.15 Y15.409
Y16.5
X170.268
X170.059
X170.02 Y16.492
X169.988 Y16.471
X169.966 Y16.438
X169.959 Y16.4
Y16.3
Y16.262 Z-2.292
Y16.229 Z-2.271
Y16.208 Z-2.238
Y16.2 Z-2.2
G0 Z3.
X159.341
G1 Z0.2 F333.
Z-0.9
Y16.208 Z-0.938 F200.
Y16.229 Z-0.971
Y16.262 Z-0.992
Y16.3 Z-1.
Y16.4
X159.334 Y16.438
X159.312 Y16.471
X159.28 Y16.492
X159.241 Y16.5
X158.15
Y15.618
Y15.409
X158.158 Y15.37
X158.179 Y15.338
X158.212 Y15.316
X158.25 Y15.309
X158.35
X158.388 Z-0.992
X158.421 Z-0.971
X158.442 Z-0.938
X158.45 Z-0.9
G0 Z3.
X159.341 Y16.2
G1 Z-0.8 F333.
Z-1.9
Y16.208 Z-1.938 F200.
Y16.229 Z-1.971
Y16.262 Z-1.992
Y16.3 Z-2.
Y16.4
X159.334 Y16.438
X159.312 Y16.471
X159.28 Y16.492
X159.241 Y16.5
X158.15
Y15.618
Y15.409
X158.158 Y15.37
X158.179 Y15.338
X158.212 Y15.316
X158.25 Y15.309
X158.35
X158.388 Z-1.992
X158.421 Z-1.971
X158.442 Z-1.938
X158.45 Z-1.9
G0 Z3.
X159.341 Y16.2
G1 Z-1.8 F333.
Z-2.2
Y16.208 Z-2.238 F200.
Y16.229 Z-2.271
Y16.262 Z-2.292
Y16.3 Z-2.3
Y16.4
X159.334 Y16.438
X159.312 Y16.471
X159.28 Y16.492
X159.241 Y16.5
X158.15
Y15.618
Y15.409
X158.158 Y15.37
X158.179 Y15.338
X158.212 Y15.316
X158.25 Y15.309
X158.35
X158.388 Z-2.292
X158.421 Z-2.271
X158.442 Z-2.238
X158.45 Z-2.2
G0 Z13.
M9
M5

(2D CONTOUR1 3)
M1
T1 M6
M3 S5000
G90 G94 G17
G54
G0 X1.683 Y22.54
Z13.
G0 Z3.
G1 Z0.635 F333.
Z-0.083
Y22.532 Z-0.153 F350.
Y22.509 Z-0.22
Y22.471 Z-0.28
Y22.42 Z-0.331
Y22.36 Z-0.369
Y22.293 Z-0.392
Y22.222 Z-0.4
Y21.905
G3 X2. Y21.587 I0.317 J0.
G1 X178.
G2 X181.587 Y18. I0. J-3.587
G1 Y2.
G2 X178. Y-1.587 I-3.587 J0.
G1 X2.
G2 X-1.587 Y2. I0. J3.587
G1 Y18.
G2 X2. Y21.587 I3.587 J0.
G3 X2.318 Y21.905 I0. J0.318
G1 Y22.222
Y22.293 Z-0.392
Y22.36 Z-0.369
Y22.42 Z-0.331
Y22.471 Z-0.28
Y22.509 Z-0.22
Y22.532 Z-0.153
Y22.54 Z-0.083
G0 Z3.
X1.683
G1 Z0.235 F333.
Z-0.483
Y22.532 Z-0.553 F350.
Y22.509 Z-0.62
Y22.471 Z-0.68
Y22.42 Z-0.731
Y22.36 Z-0.769
Y22.293 Z-0.792
Y22.222 Z-0.8
Y21.905
G3 X2. Y21.587 I0.317 J0.
G1 X178.
G2 X181.587 Y18. I0. J-3.587
G1 Y2.
G2 X178. Y-1.587 I-3.587 J0.
G1 X2.
G2 X-1.587 Y2. I0. J3.587
G1 Y18.
G2 X2. Y21.587 I3.587 J0.
G3 X2.318 Y21.905 I0. J0.318
G1 Y22.222
Y22.293 Z-0.792
Y22.36 Z-0.769
Y22.42 Z-0.731
Y22.471 Z-0.68
Y22.509 Z-0.62
Y22.532 Z-0.553
Y22.54 Z-0.483
G0 Z3.
X1.683
G1 Z-0.165 F333.
Z-0.883
Y22.532 Z-0.953 F350.
Y22.509 Z-1.02
Y22.471 Z-1.08
Y22.42 Z-1.131
Y22.36 Z-1.169
Y22.293 Z-1.192
Y22.222 Z-1.2
Y21.905
G3 X2. Y21.587 I0.317 J0.
G1 X178.
G2 X181.587 Y18. I0. J-3.587
G1 Y2.
G2 X178. Y-1.587 I-3.587 J0.
G1 X2.
G2 X-1.587 Y2. I0. J3.587
G1 Y18.
G2 X2. Y21.587 I3.587 J0.
G3 X2.318 Y21.905 I0. J0.318
G1 Y22.222
Y22.293 Z-1.192
Y22.36 Z-1.169
Y22.42 Z-1.131
Y22.471 Z-1.08
Y22.509 Z-1.02
Y22.532 Z-0.953
Y22.54 Z-0.883
G0 Z3.
X1.683
G1 Z-0.565 F333.
Z-1.283
Y22.532 Z-1.353 F350.
Y22.509 Z-1.42
Y22.471 Z-1.48
Y22.42 Z-1.531
Y22.36 Z-1.569
Y22.293 Z-1.592
Y22.222 Z-1.6
Y21.905
G3 X2. Y21.587 I0.317 J0.
G1 X178.
G2 X181.587 Y18. I0. J-3.587
G1 Y2.
G2 X178. Y-1.587 I-3.587 J0.
G1 X2.
G2 X-1.587 Y2. I0. J3.587
G1 Y18.
G2 X2. Y21.587 I3.587 J0.
G3 X2.318 Y21.905 I0. J0.318
G1 Y22.222
Y22.293 Z-1.592
Y22.36 Z-1.569
Y22.42 Z-1.531
Y22.471 Z-1.48
Y22.509 Z-1.42
Y22.532 Z-1.353
Y22.54 Z-1.283
G0 Z3.
X1.683
G1 Z-0.965 F333.
Z-1.683
Y22.532 Z-1.753 F350.
Y22.509 Z-1.82
Y22.471 Z-1.88
Y22.42 Z-1.931
Y22.36 Z-1.969
Y22.293 Z-1.992
Y22.222 Z-2.
Y21.905
G3 X2. Y21.587 I0.317 J0.
G1 X178.
G2 X181.587 Y18. I0. J-3.587
G1 Y2.
G2 X178. Y-1.587 I-3.587 J0.
G1 X2.
G2 X-1.587 Y2. I0. J3.587
G1 Y18.
G2 X2. Y21.587 I3.587 J0.
G3 X2.318 Y21.905 I0. J0.318
G1 Y22.222
Y22.293 Z-1.992
Y22.36 Z-1.969
Y22.42 Z-1.931
Y22.471 Z-1.88
Y22.509 Z-1.82
Y22.532 Z-1.753
Y22.54 Z-1.683
G0 Z3.
X1.683
G1 Z-1.365 F333.
Z-1.983
Y22.532 Z-2.053 F350.
Y22.509 Z-2.12
Y22.471 Z-2.18
Y22.42 Z-2.231
Y22.36 Z-2.269
Y22.293 Z-2.292
Y22.222 Z-2.3
Y21.905
G3 X2. Y21.587 I0.317 J0.
G1 X178.
G2 X181.587 Y18. I0. J-3.587
G1 Y2.
G2 X178. Y-1.587 I-3.587 J0.
G1 X2.
G2 X-1.587 Y2. I0. J3.587
G1 Y18.
G2 X2. Y21.587 I3.587 J0.
G3 X2.318 Y21.905 I0. J0.318
G1 Y22.222
Y22.293 Z-2.292
Y22.36 Z-2.269
Y22.42 Z-2.231
Y22.471 Z-2.18
Y22.509 Z-2.12
Y22.532 Z-2.053
Y22.54 Z-1.983
G0 Z13.

M30
